( pcb2gcode 2.5.0 )
( Software-independent Gcode )

G94 ( Millimeters per minute feed rate. )
G21 ( Units == Millimeters. )

G90 ( Absolute coordinates. )
G00 S1000 ( RPM spindle speed. )
G01 F75.00000 ( Feedrate. )


G00 Z40.00000 (Retract to tool change height)
T0
M5      (Spindle stop.)
G04 P1.00000 (Wait for spindle to stop)
(MSG, Change tool bit to mill diameter 0.50000mm)
M0      (Temporary machine stop.)
M3 ( Spindle on clockwise. )
G04 P1.00000 (Wait for spindle to get up to speed)
G04 P0 ( dwell for no time -- G64 should not smooth over this point )
G00 Z5.00000 ( retract )

G00 X9.06988 Y10.32500 ( rapid move to begin. )
G01 F75.00000
( Mill infeed pass 1/1 )
G01 Z-0.10000
G04 P0 ( dwell for no time -- G64 should not smooth over this point )
G01 F75.00000
G01 X9.06988 Y10.32500
G01 X9.06988 Y8.72498
G01 X8.82000 Y8.72498
G01 X8.82000 Y10.32500
G01 X8.81517 Y10.37377
G01 X8.80095 Y10.42065
G01 X8.77786 Y10.46389
G01 X8.74677 Y10.50176
G01 X8.70887 Y10.53285
G01 X8.66567 Y10.55596
G01 X8.61875 Y10.57018
G01 X8.56999 Y10.57499
G01 X6.66999 Y10.57499
G01 X6.62122 Y10.57018
G01 X6.57428 Y10.55596
G01 X6.53110 Y10.53285
G01 X6.49318 Y10.50176
G01 X6.46209 Y10.46389
G01 X6.43900 Y10.42065
G01 X6.42478 Y10.37377
G01 X6.41998 Y10.32500
G01 X6.41998 Y8.72498
G01 X6.42478 Y8.67621
G01 X6.43900 Y8.62932
G01 X6.46209 Y8.58609
G01 X6.49318 Y8.54822
G01 X6.53110 Y8.51713
G01 X6.57428 Y8.49401
G01 X6.62122 Y8.47979
G01 X6.66999 Y8.47499
G01 X8.56999 Y8.47499
G01 X8.61875 Y8.47979
G01 X8.66567 Y8.49401
G01 X8.70887 Y8.51713
G01 X8.74677 Y8.54822
G01 X8.77786 Y8.58609
G01 X8.80095 Y8.62932
G01 X8.81517 Y8.67621
G01 X8.82000 Y8.72498
G01 X9.06988 Y8.72498
G01 X9.06028 Y8.62747
G01 X9.03183 Y8.53369
G01 X8.98563 Y8.44725
G01 X8.92348 Y8.37151
G01 X8.84771 Y8.30933
G01 X8.76130 Y8.26313
G01 X8.66752 Y8.23468
G01 X8.56999 Y8.22508
G01 X6.66999 Y8.22508
G01 X6.57245 Y8.23468
G01 X6.47868 Y8.26313
G01 X6.39227 Y8.30933
G01 X6.31650 Y8.37151
G01 X6.25434 Y8.44725
G01 X6.20814 Y8.53369
G01 X6.17969 Y8.62747
G01 X6.17009 Y8.72498
G01 X6.17009 Y10.32500
G01 X6.17969 Y10.42251
G01 X6.20814 Y10.51629
G01 X6.25434 Y10.60272
G01 X6.30956 Y10.67003
G01 X8.93041 Y10.67003
G01 X8.98563 Y10.60272
G01 X9.03183 Y10.51629
G01 X9.06028 Y10.42251
G01 X9.06988 Y10.32500
G01 X9.06988 Y12.86497
G01 X9.06028 Y12.96251
G01 X9.03183 Y13.05629
G01 X8.98563 Y13.14270
G01 X8.93041 Y13.21003
G01 X6.30956 Y13.21003
G01 X6.25434 Y13.14270
G01 X6.20814 Y13.05629
G01 X6.17969 Y12.96251
G01 X6.17009 Y12.86497
G01 X6.17009 Y11.26498
G01 X6.17969 Y11.16747
G01 X6.20814 Y11.07369
G01 X6.25434 Y10.98725
G01 X6.30959 Y10.91992
G01 X8.93039 Y10.91992
G01 X8.98563 Y10.98725
G01 X9.03183 Y11.07369
G01 X9.06028 Y11.16747
G01 X9.06988 Y11.26498
G01 X8.82000 Y11.26498
G01 X8.81517 Y11.21621
G01 X8.80095 Y11.16932
G01 X8.77786 Y11.12609
G01 X8.74677 Y11.08822
G01 X8.70887 Y11.05713
G01 X8.66567 Y11.03401
G01 X8.61875 Y11.01979
G01 X8.56999 Y11.01499
G01 X6.66999 Y11.01499
G01 X6.62122 Y11.01979
G01 X6.57428 Y11.03401
G01 X6.53110 Y11.05713
G01 X6.49318 Y11.08822
G01 X6.46209 Y11.12609
G01 X6.43900 Y11.16932
G01 X6.42478 Y11.21621
G01 X6.41998 Y11.26498
G01 X6.41998 Y12.86497
G01 X6.42478 Y12.91377
G01 X6.43900 Y12.96065
G01 X6.46209 Y13.00389
G01 X6.49318 Y13.04176
G01 X6.53110 Y13.07285
G01 X6.57428 Y13.09594
G01 X6.62122 Y13.11016
G01 X6.66999 Y13.11496
G01 X8.56999 Y13.11496
G01 X8.61875 Y13.11016
G01 X8.66567 Y13.09594
G01 X8.70887 Y13.07285
G01 X8.74677 Y13.04176
G01 X8.77786 Y13.00389
G01 X8.80095 Y12.96065
G01 X8.81517 Y12.91377
G01 X8.82000 Y12.86497
G01 X8.82000 Y11.26498
G01 X9.06988 Y11.26498
G01 X11.95901 Y13.54933
G01 X11.95901 Y15.70657
G01 X11.92789 Y15.73210
G01 X11.84145 Y15.77830
G01 X11.74768 Y15.80675
G01 X11.65017 Y15.81635
G01 X10.51766 Y15.81635
G01 X10.42012 Y15.80675
G01 X10.32634 Y15.77830
G01 X10.23993 Y15.73210
G01 X10.16417 Y15.66992
G01 X10.10201 Y15.59418
G01 X10.05581 Y15.50774
G01 X10.02736 Y15.41396
G01 X10.02309 Y15.37076
G01 X10.06521 Y15.31780
G01 X10.02309 Y15.37076
G01 X9.06988 Y15.36446
G01 X9.00674 Y15.29634
G01 X9.06988 Y15.36446
G01 X9.06988 Y15.40500
G01 X9.06028 Y15.50251
G01 X9.03183 Y15.59629
G01 X8.98563 Y15.68272
G01 X8.93041 Y15.75003
G01 X6.30956 Y15.75003
G01 X6.25434 Y15.68272
G01 X6.20814 Y15.59629
G01 X6.17969 Y15.50251
G01 X6.17009 Y15.40500
G01 X6.17009 Y15.35488
G01 X6.23339 Y15.28735
G01 X6.17009 Y15.35488
G01 X6.05714 Y15.35488
G01 X5.99326 Y15.28699
G01 X6.05714 Y15.35488
G01 X6.05714 Y15.41526
G01 X6.04754 Y15.51277
G01 X6.01909 Y15.60655
G01 X5.97291 Y15.69298
G01 X5.91073 Y15.76873
G01 X5.83496 Y15.83091
G01 X5.74855 Y15.87708
G01 X5.65478 Y15.90553
G01 X5.55724 Y15.91516
G01 X4.54330 Y15.91516
G01 X4.53540 Y15.89613
G01 X4.54330 Y15.91516
G01 X4.16872 Y16.28971
G01 X3.91955 Y16.39349
G01 X3.66923 Y16.53779
G01 X3.47640 Y16.74099
G01 X3.45542 Y16.77543
G01 X3.44843 Y16.79435
G01 X3.44360 Y16.79278
G01 X3.44843 Y16.79435
G01 X3.42212 Y17.02049
G01 X3.42275 Y18.60756
G01 X3.44345 Y18.80177
G01 X3.49380 Y18.97291
G01 X3.58648 Y19.16321
G01 X3.61244 Y19.20331
G01 X3.61244 Y38.11191
G01 X3.59341 Y38.11981
G01 X3.61244 Y38.11191
G01 X10.69025 Y45.18972
G01 X10.75428 Y45.26397
G01 X10.80872 Y45.34545
G01 X10.83183 Y45.38866
G01 X10.86932 Y45.47921
G01 X10.88357 Y45.52610
G01 X10.90267 Y45.62221
G01 X10.90988 Y45.72000
G01 X10.90988 Y49.41103
G01 X10.84092 Y49.47676
G01 X10.90988 Y49.41103
G01 X11.01077 Y49.41103
G01 X11.10831 Y49.42065
G01 X11.20209 Y49.44910
G01 X11.28850 Y49.49528
G01 X11.35581 Y49.55052
G01 X11.35581 Y52.17135
G01 X11.28850 Y52.22659
G01 X11.20209 Y52.27277
G01 X11.10831 Y52.30124
G01 X11.01077 Y52.31084
G01 X9.41078 Y52.31084
G01 X9.31324 Y52.30124
G01 X9.21946 Y52.27277
G01 X9.13305 Y52.22659
G01 X9.05728 Y52.16439
G01 X8.99513 Y52.08867
G01 X8.94893 Y52.00223
G01 X8.94077 Y51.97536
G01 X8.94077 Y51.64745
G01 X8.94077 Y51.97536
G01 X8.93262 Y52.00223
G01 X8.88642 Y52.08867
G01 X8.82426 Y52.16439
G01 X8.74850 Y52.22659
G01 X8.66209 Y52.27277
G01 X8.56831 Y52.30124
G01 X8.47077 Y52.31084
G01 X6.87078 Y52.31084
G01 X6.77324 Y52.30124
G01 X6.67946 Y52.27277
G01 X6.59305 Y52.22659
G01 X6.51726 Y52.16439
G01 X6.45513 Y52.08867
G01 X6.40893 Y52.00223
G01 X6.38045 Y51.90846
G01 X6.37088 Y51.81095
G01 X6.37088 Y49.91095
G01 X6.38045 Y49.81341
G01 X6.40893 Y49.71964
G01 X6.45513 Y49.63320
G01 X6.51726 Y49.55746
G01 X6.59305 Y49.49528
G01 X6.67946 Y49.44910
G01 X6.77324 Y49.42065
G01 X6.87078 Y49.41103
G01 X8.47077 Y49.41103
G01 X8.56831 Y49.42065
G01 X8.66209 Y49.44910
G01 X8.74850 Y49.49528
G01 X8.82426 Y49.55746
G01 X8.88642 Y49.63320
G01 X8.93262 Y49.71964
G01 X8.94077 Y49.74651
G01 X8.94077 Y50.07442
G01 X8.94077 Y49.74651
G01 X8.94893 Y49.71964
G01 X8.99513 Y49.63320
G01 X9.05728 Y49.55746
G01 X9.13305 Y49.49528
G01 X9.21946 Y49.44910
G01 X9.31324 Y49.42065
G01 X9.41009 Y49.41110
G01 X9.46678 Y49.45761
G01 X9.41009 Y49.41110
G01 X9.41009 Y46.03062
G01 X9.42911 Y46.02272
G01 X9.41009 Y46.03062
G01 X2.52860 Y39.14793
G01 X2.48801 Y39.12715
G01 X2.40652 Y39.07272
G01 X2.33228 Y39.00868
G01 X2.26825 Y38.93444
G01 X2.21381 Y38.85296
G01 X2.16972 Y38.76540
G01 X2.13896 Y38.67231
G01 X2.11986 Y38.57620
G01 X2.11264 Y38.47843
G01 X2.11264 Y16.53537
G01 X2.11727 Y16.45704
G01 X2.13868 Y16.34139
G01 X2.17795 Y16.23055
G01 X2.23406 Y16.12722
G01 X2.30563 Y16.03393
G01 X3.48254 Y14.85486
G01 X3.50096 Y14.86256
G01 X3.48254 Y14.85486
G01 X3.48254 Y13.84043
G01 X3.49214 Y13.74292
G01 X3.52059 Y13.64915
G01 X3.56679 Y13.56271
G01 X3.62897 Y13.48697
G01 X3.70472 Y13.42479
G01 X3.79115 Y13.37861
G01 X3.88493 Y13.35016
G01 X3.98244 Y13.34054
G01 X5.55724 Y13.34054
G01 X5.65478 Y13.35016
G01 X5.74855 Y13.37861
G01 X5.83496 Y13.42479
G01 X5.91073 Y13.48697
G01 X5.97291 Y13.56271
G01 X6.01909 Y13.64915
G01 X6.04754 Y13.74292
G01 X6.05714 Y13.84043
G01 X6.05714 Y13.85509
G01 X5.99674 Y13.92090
G01 X6.05714 Y13.85509
G01 X6.17009 Y13.85509
G01 X6.23339 Y13.92263
G01 X6.17009 Y13.85509
G01 X6.17009 Y13.80498
G01 X6.17969 Y13.70747
G01 X6.20814 Y13.61369
G01 X6.25434 Y13.52725
G01 X6.30959 Y13.45992
G01 X8.93039 Y13.45992
G01 X8.98563 Y13.52725
G01 X9.03183 Y13.61369
G01 X9.06028 Y13.70747
G01 X9.06988 Y13.80498
G01 X9.06988 Y13.86464
G01 X9.00654 Y13.93154
G01 X9.06988 Y13.86464
G01 X10.02452 Y13.87094
G01 X10.06569 Y13.92428
G01 X10.02452 Y13.87094
G01 X10.02736 Y13.84193
G01 X10.05581 Y13.74816
G01 X10.10201 Y13.66172
G01 X10.16417 Y13.58595
G01 X10.23993 Y13.52380
G01 X10.32634 Y13.47760
G01 X10.42012 Y13.44915
G01 X10.51766 Y13.43955
G01 X11.65017 Y13.43955
G01 X11.74768 Y13.44915
G01 X11.84145 Y13.47760
G01 X11.92789 Y13.52380
G01 X11.95901 Y13.54933
G01 X11.90015 Y13.93944
G01 X11.90015 Y15.31645
G01 X11.89535 Y15.36522
G01 X11.88113 Y15.41211
G01 X11.85802 Y15.45534
G01 X11.82693 Y15.49321
G01 X11.78905 Y15.52430
G01 X11.74582 Y15.54742
G01 X11.69894 Y15.56164
G01 X11.65017 Y15.56644
G01 X10.51766 Y15.56644
G01 X10.46889 Y15.56164
G01 X10.42198 Y15.54742
G01 X10.37877 Y15.52430
G01 X10.34087 Y15.49321
G01 X10.30978 Y15.45534
G01 X10.28670 Y15.41211
G01 X10.27247 Y15.36522
G01 X10.26765 Y15.31645
G01 X10.26765 Y15.12247
G01 X8.82000 Y15.11292
G01 X8.82000 Y15.40500
G01 X8.81517 Y15.45377
G01 X8.80095 Y15.50065
G01 X8.77786 Y15.54389
G01 X8.74677 Y15.58176
G01 X8.70887 Y15.61285
G01 X8.66567 Y15.63596
G01 X8.61875 Y15.65018
G01 X8.56999 Y15.65499
G01 X6.66999 Y15.65499
G01 X6.62122 Y15.65018
G01 X6.57428 Y15.63596
G01 X6.53110 Y15.61285
G01 X6.49318 Y15.58176
G01 X6.46209 Y15.54389
G01 X6.43900 Y15.50065
G01 X6.42478 Y15.45377
G01 X6.41998 Y15.40500
G01 X6.41998 Y15.10500
G01 X5.80725 Y15.10500
G01 X5.80725 Y15.41526
G01 X5.80245 Y15.46403
G01 X5.78823 Y15.51092
G01 X5.76511 Y15.55415
G01 X5.73402 Y15.59202
G01 X5.69613 Y15.62311
G01 X5.65292 Y15.64622
G01 X5.60601 Y15.66045
G01 X5.55724 Y15.66525
G01 X4.43977 Y15.66525
G01 X3.36255 Y16.74246
G01 X3.36255 Y38.21544
G01 X10.51354 Y45.36643
G01 X10.56112 Y45.42249
G01 X10.58835 Y45.46326
G01 X10.62192 Y45.52864
G01 X10.64443 Y45.59864
G01 X10.65398 Y45.64672
G01 X10.66000 Y45.72000
G01 X10.66000 Y49.66094
G01 X11.01077 Y49.66094
G01 X11.05954 Y49.66574
G01 X11.10645 Y49.67996
G01 X11.14966 Y49.70308
G01 X11.18756 Y49.73417
G01 X11.21865 Y49.77204
G01 X11.24174 Y49.81527
G01 X11.25598 Y49.86216
G01 X11.26079 Y49.91095
G01 X11.26079 Y51.81095
G01 X11.25598 Y51.85971
G01 X11.24174 Y51.90660
G01 X11.21865 Y51.94981
G01 X11.18756 Y51.98770
G01 X11.14966 Y52.01879
G01 X11.10645 Y52.04191
G01 X11.05954 Y52.05613
G01 X11.01077 Y52.06093
G01 X9.41078 Y52.06093
G01 X9.36201 Y52.05613
G01 X9.31509 Y52.04191
G01 X9.27189 Y52.01879
G01 X9.23399 Y51.98770
G01 X9.20290 Y51.94981
G01 X9.17981 Y51.90660
G01 X9.16559 Y51.85971
G01 X9.16079 Y51.81095
G01 X9.16079 Y51.36093
G01 X8.72079 Y51.36093
G01 X8.72079 Y51.81095
G01 X8.71598 Y51.85971
G01 X8.70174 Y51.90660
G01 X8.67865 Y51.94981
G01 X8.64756 Y51.98770
G01 X8.60966 Y52.01879
G01 X8.56645 Y52.04191
G01 X8.51954 Y52.05613
G01 X8.47077 Y52.06093
G01 X6.87078 Y52.06093
G01 X6.82201 Y52.05613
G01 X6.77509 Y52.04191
G01 X6.73189 Y52.01879
G01 X6.69399 Y51.98770
G01 X6.66290 Y51.94981
G01 X6.63979 Y51.90660
G01 X6.62559 Y51.85971
G01 X6.62076 Y51.81095
G01 X6.62076 Y49.91095
G01 X6.62559 Y49.86216
G01 X6.63979 Y49.81527
G01 X6.66290 Y49.77204
G01 X6.69399 Y49.73417
G01 X6.73189 Y49.70308
G01 X6.77509 Y49.67996
G01 X6.82201 Y49.66574
G01 X6.87078 Y49.66094
G01 X8.47077 Y49.66094
G01 X8.51954 Y49.66574
G01 X8.56645 Y49.67996
G01 X8.60966 Y49.70308
G01 X8.64756 Y49.73417
G01 X8.67865 Y49.77204
G01 X8.70174 Y49.81527
G01 X8.71598 Y49.86216
G01 X8.72079 Y49.91095
G01 X8.72079 Y50.36091
G01 X9.16079 Y50.36091
G01 X9.16079 Y49.91095
G01 X9.16559 Y49.86216
G01 X9.17981 Y49.81527
G01 X9.20290 Y49.77204
G01 X9.23399 Y49.73417
G01 X9.27189 Y49.70308
G01 X9.31509 Y49.67996
G01 X9.36201 Y49.66574
G01 X9.41078 Y49.66094
G01 X9.65998 Y49.66094
G01 X9.65998 Y45.92709
G01 X2.67439 Y38.94150
G01 X2.58475 Y38.89416
G01 X2.50899 Y38.83198
G01 X2.46141 Y38.77592
G01 X2.43418 Y38.73515
G01 X2.40060 Y38.66977
G01 X2.37810 Y38.59977
G01 X2.36855 Y38.55169
G01 X2.36253 Y38.47843
G01 X2.36253 Y16.53537
G01 X2.37254 Y16.43789
G01 X2.39380 Y16.36243
G01 X2.40881 Y16.32618
G01 X2.44714 Y16.25778
G01 X2.49568 Y16.19621
G01 X3.73245 Y14.95836
G01 X3.73245 Y13.84043
G01 X3.73725 Y13.79167
G01 X3.75148 Y13.74478
G01 X3.77459 Y13.70155
G01 X3.80568 Y13.66368
G01 X3.84355 Y13.63259
G01 X3.88678 Y13.60947
G01 X3.93367 Y13.59525
G01 X3.98244 Y13.59045
G01 X5.55724 Y13.59045
G01 X5.60601 Y13.59525
G01 X5.65292 Y13.60947
G01 X5.69613 Y13.63259
G01 X5.73402 Y13.66368
G01 X5.76511 Y13.70155
G01 X5.78823 Y13.74478
G01 X5.80245 Y13.79167
G01 X5.80725 Y13.84043
G01 X5.80725 Y14.10498
G01 X6.41998 Y14.10498
G01 X6.41998 Y13.80498
G01 X6.42478 Y13.75621
G01 X6.43900 Y13.70932
G01 X6.46209 Y13.66609
G01 X6.49318 Y13.62822
G01 X6.53110 Y13.59713
G01 X6.57428 Y13.57401
G01 X6.62122 Y13.55979
G01 X6.66999 Y13.55499
G01 X8.56999 Y13.55499
G01 X8.61875 Y13.55979
G01 X8.66567 Y13.57401
G01 X8.70887 Y13.59713
G01 X8.74677 Y13.62822
G01 X8.77786 Y13.66609
G01 X8.80095 Y13.70932
G01 X8.81517 Y13.75621
G01 X8.82000 Y13.80498
G01 X8.82000 Y14.11290
G01 X10.26765 Y14.12245
G01 X10.26765 Y13.93944
G01 X10.27247 Y13.89068
G01 X10.28670 Y13.84379
G01 X10.30978 Y13.80056
G01 X10.34087 Y13.76266
G01 X10.37877 Y13.73157
G01 X10.42198 Y13.70848
G01 X10.46889 Y13.69426
G01 X10.51766 Y13.68946
G01 X11.65017 Y13.68946
G01 X11.69894 Y13.69426
G01 X11.74582 Y13.70848
G01 X11.78905 Y13.73157
G01 X11.82693 Y13.76266
G01 X11.85802 Y13.80056
G01 X11.88113 Y13.84379
G01 X11.89535 Y13.89068
G01 X11.90015 Y13.93944
G04 P0 ( dwell for no time -- G64 should not smooth over this point )
G00 Z5.00000 ( retract )

G00 X16.20246 Y18.78564 ( rapid move to begin. )
G01 F75.00000
( Mill infeed pass 1/1 )
G01 Z-0.10000
G04 P0 ( dwell for no time -- G64 should not smooth over this point )
G01 F75.00000
G01 X16.20246 Y18.78564
G01 X16.20246 Y19.91815
G01 X16.19766 Y19.96691
G01 X16.18343 Y20.01380
G01 X16.16032 Y20.05703
G01 X16.12923 Y20.09491
G01 X16.09136 Y20.12599
G01 X16.04813 Y20.14911
G01 X16.00124 Y20.16333
G01 X15.95247 Y20.16813
G01 X14.57546 Y20.16813
G01 X14.52669 Y20.16333
G01 X14.47978 Y20.14911
G01 X14.43657 Y20.12599
G01 X14.39868 Y20.09491
G01 X14.36759 Y20.05703
G01 X14.34450 Y20.01380
G01 X14.33027 Y19.96691
G01 X14.32545 Y19.91815
G01 X14.32545 Y18.78564
G01 X14.33027 Y18.73687
G01 X14.34450 Y18.68995
G01 X14.36759 Y18.64675
G01 X14.39868 Y18.60885
G01 X14.43657 Y18.57776
G01 X14.47978 Y18.55467
G01 X14.52669 Y18.54045
G01 X14.57546 Y18.53565
G01 X14.64846 Y18.53565
G01 X13.75781 Y17.64500
G01 X8.82000 Y17.64500
G01 X8.82000 Y17.94500
G01 X8.81517 Y17.99377
G01 X8.80095 Y18.04065
G01 X8.77786 Y18.08389
G01 X8.74677 Y18.12176
G01 X8.70887 Y18.15285
G01 X8.66567 Y18.17596
G01 X8.61875 Y18.19018
G01 X8.56999 Y18.19499
G01 X8.12000 Y18.19499
G01 X8.12000 Y24.26094
G01 X8.47077 Y24.26094
G01 X8.51954 Y24.26574
G01 X8.56645 Y24.27996
G01 X8.60966 Y24.30308
G01 X8.64756 Y24.33417
G01 X8.67865 Y24.37204
G01 X8.70174 Y24.41527
G01 X8.71598 Y24.46216
G01 X8.72079 Y24.51095
G01 X8.72079 Y26.41095
G01 X8.71598 Y26.45969
G01 X8.70174 Y26.50658
G01 X8.67865 Y26.54983
G01 X8.64756 Y26.58768
G01 X8.60966 Y26.61879
G01 X8.56645 Y26.64191
G01 X8.51954 Y26.65613
G01 X8.47077 Y26.66093
G01 X6.87078 Y26.66093
G01 X6.82201 Y26.65613
G01 X6.77509 Y26.64191
G01 X6.73189 Y26.61879
G01 X6.69399 Y26.58768
G01 X6.66290 Y26.54983
G01 X6.63979 Y26.50658
G01 X6.62559 Y26.45969
G01 X6.62076 Y26.41095
G01 X6.62076 Y24.51095
G01 X6.62559 Y24.46216
G01 X6.63979 Y24.41527
G01 X6.66290 Y24.37204
G01 X6.69399 Y24.33417
G01 X6.73189 Y24.30308
G01 X6.77509 Y24.27996
G01 X6.82201 Y24.26574
G01 X6.87078 Y24.26094
G01 X7.11998 Y24.26094
G01 X7.11998 Y18.19499
G01 X6.66999 Y18.19499
G01 X6.62122 Y18.19018
G01 X6.57428 Y18.17596
G01 X6.53110 Y18.15285
G01 X6.49318 Y18.12176
G01 X6.46209 Y18.08389
G01 X6.43900 Y18.04065
G01 X6.42478 Y17.99377
G01 X6.41998 Y17.94500
G01 X6.41998 Y16.34498
G01 X6.42478 Y16.29621
G01 X6.43900 Y16.24932
G01 X6.46209 Y16.20609
G01 X6.49318 Y16.16822
G01 X6.53110 Y16.13713
G01 X6.57428 Y16.11401
G01 X6.62122 Y16.09979
G01 X6.66999 Y16.09499
G01 X8.56999 Y16.09499
G01 X8.61875 Y16.09979
G01 X8.66567 Y16.11401
G01 X8.70887 Y16.13713
G01 X8.74677 Y16.16822
G01 X8.77786 Y16.20609
G01 X8.80095 Y16.24932
G01 X8.81517 Y16.29621
G01 X8.82000 Y16.34498
G01 X8.82000 Y16.64498
G01 X13.96492 Y16.64498
G01 X14.03817 Y16.65100
G01 X14.08626 Y16.66055
G01 X14.15626 Y16.68305
G01 X14.22164 Y16.71663
G01 X14.26240 Y16.74386
G01 X14.31846 Y16.79143
G01 X15.63289 Y18.10756
G01 X15.69121 Y18.18620
G01 X15.73306 Y18.27469
G01 X15.75684 Y18.36966
G01 X15.76286 Y18.44294
G01 X15.76286 Y18.53565
G01 X15.95247 Y18.53565
G01 X16.00124 Y18.54045
G01 X16.04813 Y18.55467
G01 X16.09136 Y18.57776
G01 X16.12923 Y18.60885
G01 X16.16032 Y18.64675
G01 X16.18343 Y18.68995
G01 X16.19766 Y18.73687
G01 X16.20246 Y18.78564
G01 X16.45237 Y18.78564
G01 X16.45237 Y19.91815
G01 X16.44274 Y20.01566
G01 X16.41429 Y20.10943
G01 X16.36812 Y20.19587
G01 X16.34249 Y20.22709
G01 X14.18527 Y20.22688
G01 X14.15981 Y20.19587
G01 X14.11361 Y20.10943
G01 X14.08516 Y20.01566
G01 X14.07556 Y19.91815
G01 X14.07556 Y18.78564
G01 X14.08516 Y18.68810
G01 X14.11361 Y18.59432
G01 X14.15981 Y18.50791
G01 X14.20825 Y18.44886
G01 X14.27965 Y18.44139
G01 X14.20825 Y18.44886
G01 X13.65428 Y17.89488
G01 X13.66218 Y17.87586
G01 X13.65428 Y17.89488
G01 X9.06988 Y17.89488
G01 X9.00659 Y17.82735
G01 X9.06988 Y17.89488
G01 X9.06988 Y17.94500
G01 X9.06028 Y18.04251
G01 X9.03183 Y18.13629
G01 X8.98563 Y18.22272
G01 X8.92348 Y18.29846
G01 X8.84771 Y18.36064
G01 X8.76130 Y18.40685
G01 X8.66752 Y18.43529
G01 X8.56999 Y18.44490
G01 X8.36988 Y18.44490
G01 X8.29953 Y18.37675
G01 X8.36988 Y18.44490
G01 X8.36988 Y24.01103
G01 X8.30092 Y24.07676
G01 X8.36988 Y24.01103
G01 X8.47077 Y24.01103
G01 X8.56831 Y24.02065
G01 X8.66209 Y24.04910
G01 X8.74850 Y24.09528
G01 X8.81581 Y24.15052
G01 X8.81581 Y26.77135
G01 X8.74850 Y26.82659
G01 X8.66209 Y26.87279
G01 X8.56831 Y26.90124
G01 X8.47077 Y26.91084
G01 X6.87078 Y26.91084
G01 X6.77324 Y26.90124
G01 X6.67946 Y26.87279
G01 X6.59305 Y26.82659
G01 X6.51726 Y26.76441
G01 X6.45513 Y26.68867
G01 X6.40893 Y26.60221
G01 X6.38045 Y26.50843
G01 X6.37088 Y26.41095
G01 X6.37088 Y24.51095
G01 X6.38045 Y24.41341
G01 X6.40893 Y24.31964
G01 X6.45513 Y24.23320
G01 X6.51726 Y24.15746
G01 X6.59305 Y24.09528
G01 X6.67946 Y24.04910
G01 X6.77324 Y24.02065
G01 X6.87009 Y24.01110
G01 X6.92678 Y24.05761
G01 X6.87009 Y24.01110
G01 X6.87009 Y18.44490
G01 X6.94329 Y18.37169
G01 X6.87009 Y18.44490
G01 X6.66999 Y18.44490
G01 X6.57245 Y18.43529
G01 X6.47868 Y18.40685
G01 X6.39227 Y18.36064
G01 X6.31650 Y18.29846
G01 X6.29483 Y18.27207
G01 X6.28137 Y18.23519
G01 X6.24944 Y18.08955
G01 X6.23854 Y17.94043
G01 X6.23842 Y17.01104
G01 X6.22343 Y16.82374
G01 X6.18416 Y16.65501
G01 X6.17009 Y16.61450
G01 X6.17009 Y16.34498
G01 X6.17969 Y16.24747
G01 X6.20814 Y16.15369
G01 X6.25434 Y16.06725
G01 X6.30959 Y15.99992
G01 X8.93039 Y15.99992
G01 X8.98563 Y16.06725
G01 X9.03183 Y16.15369
G01 X9.06028 Y16.24747
G01 X9.06988 Y16.34498
G01 X9.06988 Y16.39509
G01 X9.00659 Y16.46263
G01 X9.06988 Y16.39509
G01 X13.96492 Y16.39509
G01 X14.11120 Y16.40949
G01 X14.20569 Y16.43565
G01 X14.29624 Y16.47314
G01 X14.33944 Y16.49626
G01 X14.42093 Y16.55069
G01 X14.45882 Y16.58178
G01 X15.79311 Y17.91266
G01 X15.85714 Y17.98691
G01 X15.91158 Y18.06839
G01 X15.95567 Y18.15595
G01 X15.99669 Y18.29008
G01 X15.97490 Y18.31520
G01 X15.99669 Y18.29008
G01 X16.04998 Y18.29534
G01 X16.14376 Y18.32379
G01 X16.23019 Y18.36999
G01 X16.30594 Y18.43214
G01 X16.36812 Y18.50791
G01 X16.41429 Y18.59432
G01 X16.44274 Y18.68810
G01 X16.45237 Y18.78564
G01 X16.43581 Y24.15052
G01 X16.43581 Y26.77135
G01 X16.36850 Y26.82659
G01 X16.28209 Y26.87279
G01 X16.18831 Y26.90124
G01 X16.09077 Y26.91084
G01 X16.04066 Y26.91084
G01 X15.97520 Y26.84861
G01 X16.04066 Y26.91084
G01 X16.04066 Y27.03063
G01 X16.03345 Y27.12839
G01 X16.01434 Y27.22451
G01 X15.98358 Y27.31760
G01 X15.93949 Y27.40515
G01 X15.88506 Y27.48664
G01 X15.85397 Y27.52453
G01 X15.78468 Y27.59382
G01 X15.68887 Y27.66474
G01 X14.52364 Y28.83289
G01 X14.46494 Y28.88513
G01 X14.40144 Y28.93134
G01 X14.29802 Y28.98760
G01 X14.18704 Y29.02694
G01 X14.07127 Y29.04843
G01 X13.99286 Y29.05305
G01 X5.72513 Y29.05305
G01 X5.62734 Y29.04584
G01 X5.53123 Y29.02674
G01 X5.48434 Y29.01249
G01 X5.39379 Y28.97500
G01 X5.30850 Y28.92666
G01 X5.23121 Y28.86636
G01 X4.23956 Y27.87813
G01 X4.18744 Y27.81948
G01 X4.12085 Y27.72255
G01 X4.07022 Y27.61643
G01 X4.03682 Y27.50368
G01 X4.02455 Y27.42618
G01 X4.01993 Y27.34788
G01 X4.01993 Y19.09524
G01 X4.08696 Y19.03280
G01 X4.01993 Y19.09524
G01 X3.98244 Y19.09524
G01 X3.88493 Y19.08561
G01 X3.82158 Y19.06641
G01 X3.80675 Y19.04484
G01 X3.73149 Y18.89166
G01 X3.68747 Y18.74228
G01 X3.67243 Y18.58919
G01 X3.67243 Y17.02740
G01 X3.68838 Y16.88323
G01 X3.82669 Y16.73669
G01 X4.03789 Y16.61439
G01 X4.26425 Y16.52062
G01 X5.55724 Y16.52062
G01 X5.65478 Y16.53024
G01 X5.74855 Y16.55869
G01 X5.83496 Y16.60487
G01 X5.91073 Y16.66705
G01 X5.93308 Y16.69428
G01 X5.94243 Y16.71894
G01 X5.97690 Y16.87032
G01 X5.98866 Y17.02524
G01 X5.98899 Y17.95409
G01 X6.00258 Y18.13446
G01 X6.03905 Y18.29692
G01 X6.05714 Y18.34972
G01 X6.05714 Y18.59534
G01 X6.04754 Y18.69285
G01 X6.01909 Y18.78663
G01 X5.97291 Y18.87306
G01 X5.91073 Y18.94881
G01 X5.83496 Y19.01099
G01 X5.74855 Y19.05716
G01 X5.65478 Y19.08561
G01 X5.55724 Y19.09524
G01 X5.51972 Y19.09524
G01 X5.45269 Y19.03280
G01 X5.51972 Y19.09524
G01 X5.51972 Y27.03723
G01 X5.50070 Y27.04513
G01 X5.51972 Y27.03723
G01 X6.03575 Y27.55326
G01 X6.02785 Y27.57228
G01 X6.03575 Y27.55326
G01 X13.68179 Y27.55326
G01 X13.68971 Y27.57233
G01 X13.68179 Y27.55326
G01 X14.34663 Y26.88709
G01 X14.53251 Y26.85316
G01 X14.34663 Y26.88709
G01 X14.29946 Y26.87279
G01 X14.21305 Y26.82659
G01 X14.14572 Y26.77132
G01 X14.14572 Y24.15055
G01 X14.21305 Y24.09528
G01 X14.29946 Y24.04910
G01 X14.39324 Y24.02065
G01 X14.51394 Y24.01103
G01 X14.58026 Y24.07229
G01 X14.51394 Y24.01103
G01 X14.51394 Y22.41210
G01 X14.56713 Y22.37041
G01 X14.51394 Y22.41210
G01 X14.47782 Y22.40854
G01 X14.38405 Y22.38009
G01 X14.29763 Y22.33389
G01 X14.22187 Y22.27171
G01 X14.15971 Y22.19597
G01 X14.11351 Y22.10953
G01 X14.08506 Y22.01575
G01 X14.07546 Y21.91824
G01 X14.07546 Y20.78573
G01 X14.08506 Y20.68822
G01 X14.11351 Y20.59442
G01 X14.15971 Y20.50801
G01 X14.18534 Y20.47679
G01 X16.34256 Y20.47700
G01 X16.36801 Y20.50801
G01 X16.41422 Y20.59442
G01 X16.44266 Y20.68822
G01 X16.45227 Y20.78573
G01 X16.45227 Y21.91824
G01 X16.44241 Y22.01664
G01 X16.41422 Y22.10953
G01 X16.36801 Y22.19597
G01 X16.30583 Y22.27171
G01 X16.23009 Y22.33389
G01 X16.14366 Y22.38009
G01 X16.04988 Y22.40854
G01 X16.01373 Y22.41210
G01 X15.96055 Y22.37041
G01 X16.01373 Y22.41210
G01 X16.01373 Y24.01103
G01 X15.94533 Y24.07577
G01 X16.01373 Y24.01103
G01 X16.09077 Y24.01103
G01 X16.18831 Y24.02065
G01 X16.28209 Y24.04910
G01 X16.36850 Y24.09528
G01 X16.43581 Y24.15052
G01 X16.34079 Y24.51095
G01 X16.33598 Y24.46216
G01 X16.32174 Y24.41527
G01 X16.29865 Y24.37204
G01 X16.26756 Y24.33417
G01 X16.22966 Y24.30308
G01 X16.18645 Y24.27996
G01 X16.13954 Y24.26574
G01 X16.09077 Y24.26094
G01 X15.76385 Y24.26094
G01 X15.76385 Y22.16823
G01 X15.95237 Y22.16823
G01 X16.00114 Y22.16343
G01 X16.04802 Y22.14921
G01 X16.09126 Y22.12609
G01 X16.12913 Y22.09500
G01 X16.16022 Y22.05713
G01 X16.18333 Y22.01390
G01 X16.19755 Y21.96701
G01 X16.20236 Y21.91824
G01 X16.20236 Y20.78573
G01 X16.19755 Y20.73697
G01 X16.18333 Y20.69008
G01 X16.16022 Y20.64685
G01 X16.12913 Y20.60895
G01 X16.09126 Y20.57786
G01 X16.04802 Y20.55477
G01 X16.00114 Y20.54055
G01 X15.95237 Y20.53575
G01 X14.57536 Y20.53575
G01 X14.52659 Y20.54055
G01 X14.47968 Y20.55477
G01 X14.43647 Y20.57786
G01 X14.39857 Y20.60895
G01 X14.36748 Y20.64685
G01 X14.34440 Y20.69008
G01 X14.33017 Y20.73697
G01 X14.32535 Y20.78573
G01 X14.32535 Y21.91824
G01 X14.33017 Y21.96701
G01 X14.34440 Y22.01390
G01 X14.36748 Y22.05713
G01 X14.39857 Y22.09500
G01 X14.43647 Y22.12609
G01 X14.47968 Y22.14921
G01 X14.52659 Y22.16343
G01 X14.57536 Y22.16823
G01 X14.76383 Y22.16823
G01 X14.76383 Y24.26094
G01 X14.49078 Y24.26094
G01 X14.44201 Y24.26574
G01 X14.39509 Y24.27996
G01 X14.35189 Y24.30308
G01 X14.31399 Y24.33417
G01 X14.28290 Y24.37204
G01 X14.25981 Y24.41527
G01 X14.24559 Y24.46216
G01 X14.24079 Y24.51095
G01 X14.24079 Y26.41095
G01 X14.24559 Y26.45969
G01 X14.25981 Y26.50658
G01 X14.28290 Y26.54983
G01 X14.31399 Y26.58768
G01 X14.35189 Y26.61879
G01 X14.39509 Y26.64191
G01 X14.44201 Y26.65613
G01 X14.49078 Y26.66093
G01 X14.79075 Y26.66093
G01 X14.79075 Y26.79583
G01 X13.78544 Y27.80314
G01 X5.93222 Y27.80314
G01 X5.26984 Y27.14076
G01 X5.26984 Y18.84533
G01 X5.55724 Y18.84533
G01 X5.60601 Y18.84053
G01 X5.65292 Y18.82630
G01 X5.69613 Y18.80319
G01 X5.73402 Y18.77210
G01 X5.76511 Y18.73423
G01 X5.78823 Y18.69100
G01 X5.80245 Y18.64411
G01 X5.80725 Y18.59534
G01 X5.80725 Y17.02051
G01 X5.80245 Y16.97175
G01 X5.78823 Y16.92486
G01 X5.76511 Y16.88163
G01 X5.73402 Y16.84376
G01 X5.69613 Y16.81267
G01 X5.65292 Y16.78955
G01 X5.60601 Y16.77533
G01 X5.55724 Y16.77053
G01 X3.98244 Y16.77053
G01 X3.93367 Y16.77533
G01 X3.88678 Y16.78955
G01 X3.84355 Y16.81267
G01 X3.80568 Y16.84376
G01 X3.77459 Y16.88163
G01 X3.75148 Y16.92486
G01 X3.73725 Y16.97175
G01 X3.73245 Y17.02051
G01 X3.73245 Y18.59534
G01 X3.73725 Y18.64411
G01 X3.75148 Y18.69100
G01 X3.77459 Y18.73423
G01 X3.80568 Y18.77210
G01 X3.84355 Y18.80319
G01 X3.88678 Y18.82630
G01 X3.93367 Y18.84053
G01 X3.98244 Y18.84533
G01 X4.26982 Y18.84533
G01 X4.26982 Y27.34788
G01 X4.27368 Y27.40657
G01 X4.28897 Y27.48349
G01 X4.31609 Y27.55702
G01 X4.35442 Y27.62542
G01 X4.41627 Y27.70142
G01 X5.37157 Y28.65671
G01 X5.44733 Y28.71889
G01 X5.51160 Y28.75460
G01 X5.55688 Y28.77337
G01 X5.65186 Y28.79715
G01 X5.72513 Y28.80317
G01 X13.99286 Y28.80317
G01 X14.09045 Y28.79314
G01 X14.12862 Y28.78397
G01 X14.20226 Y28.75676
G01 X14.27074 Y28.71836
G01 X14.34676 Y28.65636
G01 X15.53535 Y27.46538
G01 X15.56802 Y27.44671
G01 X15.62613 Y27.40066
G01 X15.69189 Y27.32811
G01 X15.71912 Y27.28735
G01 X15.75270 Y27.22197
G01 X15.77520 Y27.15196
G01 X15.78475 Y27.10388
G01 X15.79077 Y27.03063
G01 X15.79077 Y26.66093
G01 X16.09077 Y26.66093
G01 X16.13954 Y26.65613
G01 X16.18645 Y26.64191
G01 X16.22966 Y26.61879
G01 X16.26756 Y26.58768
G01 X16.29865 Y26.54983
G01 X16.32174 Y26.50658
G01 X16.33598 Y26.45969
G01 X16.34079 Y26.41095
G01 X16.34079 Y24.51095
G01 X16.43581 Y24.15052
G01 X18.97581 Y24.15052
G01 X18.88079 Y24.51095
G01 X18.87598 Y24.46216
G01 X18.86174 Y24.41527
G01 X18.83865 Y24.37204
G01 X18.80756 Y24.33417
G01 X18.76966 Y24.30308
G01 X18.72645 Y24.27996
G01 X18.67954 Y24.26574
G01 X18.63077 Y24.26094
G01 X17.03078 Y24.26094
G01 X16.98201 Y24.26574
G01 X16.93509 Y24.27996
G01 X16.89189 Y24.30308
G01 X16.85399 Y24.33417
G01 X16.82290 Y24.37204
G01 X16.79981 Y24.41527
G01 X16.78559 Y24.46216
G01 X16.78079 Y24.51095
G01 X16.78079 Y26.41095
G01 X16.78559 Y26.45969
G01 X16.79981 Y26.50658
G01 X16.82290 Y26.54983
G01 X16.85399 Y26.58768
G01 X16.89189 Y26.61879
G01 X16.93509 Y26.64191
G01 X16.98201 Y26.65613
G01 X17.03078 Y26.66093
G01 X18.63077 Y26.66093
G01 X18.67954 Y26.65613
G01 X18.72645 Y26.64191
G01 X18.76966 Y26.61879
G01 X18.80756 Y26.58768
G01 X18.83865 Y26.54983
G01 X18.86174 Y26.50658
G01 X18.87598 Y26.45969
G01 X18.88079 Y26.41095
G01 X18.88079 Y24.51095
G01 X18.97581 Y24.15052
G01 X18.90850 Y24.09528
G01 X18.82209 Y24.04910
G01 X18.72831 Y24.02065
G01 X18.63077 Y24.01103
G01 X17.03078 Y24.01103
G01 X16.93324 Y24.02065
G01 X16.83946 Y24.04910
G01 X16.75305 Y24.09528
G01 X16.68572 Y24.15055
G01 X16.68572 Y26.77132
G01 X16.75305 Y26.82659
G01 X16.83946 Y26.87279
G01 X16.93324 Y26.90124
G01 X17.03078 Y26.91084
G01 X18.63077 Y26.91084
G01 X18.72831 Y26.90124
G01 X18.82209 Y26.87279
G01 X18.90850 Y26.82659
G01 X18.97581 Y26.77135
G01 X18.97581 Y24.15052
G01 X21.51581 Y24.15052
G01 X21.42079 Y24.51095
G01 X21.41598 Y24.46216
G01 X21.40174 Y24.41527
G01 X21.37865 Y24.37204
G01 X21.34756 Y24.33417
G01 X21.30966 Y24.30308
G01 X21.26645 Y24.27996
G01 X21.21954 Y24.26574
G01 X21.17077 Y24.26094
G01 X19.57078 Y24.26094
G01 X19.52201 Y24.26574
G01 X19.47509 Y24.27996
G01 X19.43189 Y24.30308
G01 X19.39399 Y24.33417
G01 X19.36290 Y24.37204
G01 X19.33981 Y24.41527
G01 X19.32559 Y24.46216
G01 X19.32079 Y24.51095
G01 X19.32079 Y26.41095
G01 X19.32559 Y26.45969
G01 X19.33981 Y26.50658
G01 X19.36290 Y26.54983
G01 X19.39399 Y26.58768
G01 X19.43189 Y26.61879
G01 X19.47509 Y26.64191
G01 X19.52201 Y26.65613
G01 X19.57078 Y26.66093
G01 X21.17077 Y26.66093
G01 X21.21954 Y26.65613
G01 X21.26645 Y26.64191
G01 X21.30966 Y26.61879
G01 X21.34756 Y26.58768
G01 X21.37865 Y26.54983
G01 X21.40174 Y26.50658
G01 X21.41598 Y26.45969
G01 X21.42079 Y26.41095
G01 X21.42079 Y24.51095
G01 X21.51581 Y24.15052
G01 X21.44850 Y24.09528
G01 X21.36209 Y24.04910
G01 X21.26831 Y24.02065
G01 X21.17077 Y24.01103
G01 X19.57078 Y24.01103
G01 X19.47324 Y24.02065
G01 X19.37946 Y24.04910
G01 X19.29305 Y24.09528
G01 X19.22572 Y24.15055
G01 X19.22572 Y26.77132
G01 X19.29305 Y26.82659
G01 X19.37946 Y26.87279
G01 X19.47324 Y26.90124
G01 X19.57078 Y26.91084
G01 X21.17077 Y26.91084
G01 X21.26831 Y26.90124
G01 X21.36209 Y26.87279
G01 X21.44850 Y26.82659
G01 X21.51581 Y26.77135
G01 X21.51581 Y24.15052
G01 X24.05581 Y24.15052
G01 X23.96079 Y24.51095
G01 X23.95598 Y24.46216
G01 X23.94174 Y24.41527
G01 X23.91865 Y24.37204
G01 X23.88756 Y24.33417
G01 X23.84966 Y24.30308
G01 X23.80645 Y24.27996
G01 X23.75954 Y24.26574
G01 X23.71077 Y24.26094
G01 X22.11078 Y24.26094
G01 X22.06201 Y24.26574
G01 X22.01509 Y24.27996
G01 X21.97189 Y24.30308
G01 X21.93399 Y24.33417
G01 X21.90290 Y24.37204
G01 X21.87981 Y24.41527
G01 X21.86559 Y24.46216
G01 X21.86079 Y24.51095
G01 X21.86079 Y26.41095
G01 X21.86559 Y26.45969
G01 X21.87981 Y26.50658
G01 X21.90290 Y26.54983
G01 X21.93399 Y26.58768
G01 X21.97189 Y26.61879
G01 X22.01509 Y26.64191
G01 X22.06201 Y26.65613
G01 X22.11078 Y26.66093
G01 X23.71077 Y26.66093
G01 X23.75954 Y26.65613
G01 X23.80645 Y26.64191
G01 X23.84966 Y26.61879
G01 X23.88756 Y26.58768
G01 X23.91865 Y26.54983
G01 X23.94174 Y26.50658
G01 X23.95598 Y26.45969
G01 X23.96079 Y26.41095
G01 X23.96079 Y24.51095
G01 X24.05581 Y24.15052
G01 X23.98850 Y24.09528
G01 X23.90209 Y24.04910
G01 X23.80831 Y24.02065
G01 X23.71077 Y24.01103
G01 X22.11078 Y24.01103
G01 X22.01324 Y24.02065
G01 X21.91946 Y24.04910
G01 X21.83305 Y24.09528
G01 X21.76572 Y24.15055
G01 X21.76572 Y26.77132
G01 X21.83305 Y26.82659
G01 X21.91946 Y26.87279
G01 X22.01324 Y26.90124
G01 X22.11078 Y26.91084
G01 X23.71077 Y26.91084
G01 X23.80831 Y26.90124
G01 X23.90209 Y26.87279
G01 X23.98850 Y26.82659
G01 X24.05581 Y26.77135
G01 X24.05581 Y24.15052
G01 X26.59581 Y24.15052
G01 X26.59581 Y26.77135
G01 X26.52850 Y26.82659
G01 X26.44206 Y26.87279
G01 X26.34828 Y26.90124
G01 X26.25077 Y26.91084
G01 X24.65078 Y26.91084
G01 X24.55324 Y26.90124
G01 X24.45946 Y26.87279
G01 X24.37305 Y26.82659
G01 X24.30572 Y26.77132
G01 X24.30572 Y24.15055
G01 X24.37305 Y24.09528
G01 X24.45946 Y24.04910
G01 X24.55324 Y24.02065
G01 X24.65078 Y24.01103
G01 X26.25077 Y24.01103
G01 X26.34828 Y24.02065
G01 X26.44206 Y24.04910
G01 X26.52850 Y24.09528
G01 X26.59581 Y24.15052
G01 X26.50079 Y24.51095
G01 X26.49598 Y24.46216
G01 X26.48174 Y24.41527
G01 X26.45865 Y24.37204
G01 X26.42753 Y24.33417
G01 X26.38966 Y24.30308
G01 X26.34643 Y24.27996
G01 X26.29954 Y24.26574
G01 X26.25077 Y24.26094
G01 X24.65078 Y24.26094
G01 X24.60201 Y24.26574
G01 X24.55509 Y24.27996
G01 X24.51189 Y24.30308
G01 X24.47399 Y24.33417
G01 X24.44290 Y24.37204
G01 X24.41981 Y24.41527
G01 X24.40559 Y24.46216
G01 X24.40079 Y24.51095
G01 X24.40079 Y26.41095
G01 X24.40559 Y26.45969
G01 X24.41981 Y26.50658
G01 X24.44290 Y26.54983
G01 X24.47399 Y26.58768
G01 X24.51189 Y26.61879
G01 X24.55509 Y26.64191
G01 X24.60201 Y26.65613
G01 X24.65078 Y26.66093
G01 X26.25077 Y26.66093
G01 X26.29954 Y26.65613
G01 X26.34643 Y26.64191
G01 X26.38966 Y26.61879
G01 X26.42753 Y26.58768
G01 X26.45865 Y26.54983
G01 X26.48174 Y26.50658
G01 X26.49598 Y26.45969
G01 X26.50079 Y26.41095
G01 X26.50079 Y24.51095
G04 P0 ( dwell for no time -- G64 should not smooth over this point )
G00 Z5.00000 ( retract )

G00 X13.80079 Y24.51095 ( rapid move to begin. )
G01 F75.00000
( Mill infeed pass 1/1 )
G01 Z-0.10000
G04 P0 ( dwell for no time -- G64 should not smooth over this point )
G01 F75.00000
G01 X13.80079 Y24.51095
G01 X13.79598 Y24.46216
G01 X13.78174 Y24.41527
G01 X13.75865 Y24.37204
G01 X13.72756 Y24.33417
G01 X13.68966 Y24.30308
G01 X13.64645 Y24.27996
G01 X13.59954 Y24.26574
G01 X13.55077 Y24.26094
G01 X11.95078 Y24.26094
G01 X11.90201 Y24.26574
G01 X11.85509 Y24.27996
G01 X11.81189 Y24.30308
G01 X11.77399 Y24.33417
G01 X11.74290 Y24.37204
G01 X11.71981 Y24.41527
G01 X11.70559 Y24.46216
G01 X11.70079 Y24.51095
G01 X11.70079 Y26.41095
G01 X11.70559 Y26.45969
G01 X11.71981 Y26.50658
G01 X11.74290 Y26.54983
G01 X11.77399 Y26.58768
G01 X11.81189 Y26.61879
G01 X11.85509 Y26.64191
G01 X11.90201 Y26.65613
G01 X11.95078 Y26.66093
G01 X13.55077 Y26.66093
G01 X13.59954 Y26.65613
G01 X13.64645 Y26.64191
G01 X13.68966 Y26.61879
G01 X13.72756 Y26.58768
G01 X13.75865 Y26.54983
G01 X13.78174 Y26.50658
G01 X13.79598 Y26.45969
G01 X13.80079 Y26.41095
G01 X13.80079 Y24.51095
G01 X13.89581 Y24.15052
G01 X13.82850 Y24.09528
G01 X13.74209 Y24.04910
G01 X13.64831 Y24.02065
G01 X13.55077 Y24.01103
G01 X11.95078 Y24.01103
G01 X11.85324 Y24.02065
G01 X11.75946 Y24.04910
G01 X11.67305 Y24.09528
G01 X11.60572 Y24.15055
G01 X11.60572 Y26.77132
G01 X11.67305 Y26.82659
G01 X11.75946 Y26.87279
G01 X11.85324 Y26.90124
G01 X11.95078 Y26.91084
G01 X13.55077 Y26.91084
G01 X13.64831 Y26.90124
G01 X13.74209 Y26.87279
G01 X13.82850 Y26.82659
G01 X13.89581 Y26.77135
G01 X13.89581 Y24.15052
G01 X11.35581 Y24.15052
G01 X11.35581 Y26.77135
G01 X11.28850 Y26.82659
G01 X11.20209 Y26.87279
G01 X11.10831 Y26.90124
G01 X11.01077 Y26.91084
G01 X9.41078 Y26.91084
G01 X9.31324 Y26.90124
G01 X9.21946 Y26.87279
G01 X9.13305 Y26.82659
G01 X9.06572 Y26.77132
G01 X9.06572 Y24.15055
G01 X9.13305 Y24.09528
G01 X9.21946 Y24.04910
G01 X9.31324 Y24.02065
G01 X9.41078 Y24.01103
G01 X11.01077 Y24.01103
G01 X11.10831 Y24.02065
G01 X11.20209 Y24.04910
G01 X11.28850 Y24.09528
G01 X11.35581 Y24.15052
G01 X11.26079 Y24.51095
G01 X11.25598 Y24.46216
G01 X11.24174 Y24.41527
G01 X11.21865 Y24.37204
G01 X11.18756 Y24.33417
G01 X11.14966 Y24.30308
G01 X11.10645 Y24.27996
G01 X11.05954 Y24.26574
G01 X11.01077 Y24.26094
G01 X9.41078 Y24.26094
G01 X9.36201 Y24.26574
G01 X9.31509 Y24.27996
G01 X9.27189 Y24.30308
G01 X9.23399 Y24.33417
G01 X9.20290 Y24.37204
G01 X9.17981 Y24.41527
G01 X9.16559 Y24.46216
G01 X9.16079 Y24.51095
G01 X9.16079 Y26.41095
G01 X9.16559 Y26.45969
G01 X9.17981 Y26.50658
G01 X9.20290 Y26.54983
G01 X9.23399 Y26.58768
G01 X9.27189 Y26.61879
G01 X9.31509 Y26.64191
G01 X9.36201 Y26.65613
G01 X9.41078 Y26.66093
G01 X11.01077 Y26.66093
G01 X11.05954 Y26.65613
G01 X11.10645 Y26.64191
G01 X11.14966 Y26.61879
G01 X11.18756 Y26.58768
G01 X11.21865 Y26.54983
G01 X11.24174 Y26.50658
G01 X11.25598 Y26.45969
G01 X11.26079 Y26.41095
G01 X11.26079 Y24.51095
G04 P0 ( dwell for no time -- G64 should not smooth over this point )
G00 Z5.00000 ( retract )

G00 X13.80079 Y49.91095 ( rapid move to begin. )
G01 F75.00000
( Mill infeed pass 1/1 )
G01 Z-0.10000
G04 P0 ( dwell for no time -- G64 should not smooth over this point )
G01 F75.00000
G01 X13.80079 Y49.91095
G01 X13.79598 Y49.86216
G01 X13.78174 Y49.81527
G01 X13.75865 Y49.77204
G01 X13.72756 Y49.73417
G01 X13.68966 Y49.70308
G01 X13.64645 Y49.67996
G01 X13.59954 Y49.66574
G01 X13.55077 Y49.66094
G01 X11.95078 Y49.66094
G01 X11.90201 Y49.66574
G01 X11.85509 Y49.67996
G01 X11.81189 Y49.70308
G01 X11.77399 Y49.73417
G01 X11.74290 Y49.77204
G01 X11.71981 Y49.81527
G01 X11.70559 Y49.86216
G01 X11.70079 Y49.91095
G01 X11.70079 Y51.81095
G01 X11.70559 Y51.85971
G01 X11.71981 Y51.90660
G01 X11.74290 Y51.94981
G01 X11.77399 Y51.98770
G01 X11.81189 Y52.01879
G01 X11.85509 Y52.04191
G01 X11.90201 Y52.05613
G01 X11.95078 Y52.06093
G01 X13.55077 Y52.06093
G01 X13.59954 Y52.05613
G01 X13.64645 Y52.04191
G01 X13.68966 Y52.01879
G01 X13.72756 Y51.98770
G01 X13.75865 Y51.94981
G01 X13.78174 Y51.90660
G01 X13.79598 Y51.85971
G01 X13.80079 Y51.81095
G01 X13.80079 Y49.91095
G01 X13.89581 Y49.55052
G01 X13.89581 Y52.17135
G01 X13.82850 Y52.22659
G01 X13.74209 Y52.27277
G01 X13.64831 Y52.30124
G01 X13.55077 Y52.31084
G01 X11.95078 Y52.31084
G01 X11.85324 Y52.30124
G01 X11.75946 Y52.27277
G01 X11.67305 Y52.22659
G01 X11.60572 Y52.17132
G01 X11.60572 Y49.55055
G01 X11.67305 Y49.49528
G01 X11.75946 Y49.44910
G01 X11.85324 Y49.42065
G01 X11.95078 Y49.41103
G01 X13.55077 Y49.41103
G01 X13.64831 Y49.42065
G01 X13.74209 Y49.44910
G01 X13.82850 Y49.49528
G01 X13.89581 Y49.55052
G01 X16.43581 Y49.55052
G01 X16.34079 Y49.91095
G01 X16.33598 Y49.86216
G01 X16.32174 Y49.81527
G01 X16.29865 Y49.77204
G01 X16.26756 Y49.73417
G01 X16.22966 Y49.70308
G01 X16.18645 Y49.67996
G01 X16.13954 Y49.66574
G01 X16.09077 Y49.66094
G01 X14.49078 Y49.66094
G01 X14.44201 Y49.66574
G01 X14.39509 Y49.67996
G01 X14.35189 Y49.70308
G01 X14.31399 Y49.73417
G01 X14.28290 Y49.77204
G01 X14.25981 Y49.81527
G01 X14.24559 Y49.86216
G01 X14.24079 Y49.91095
G01 X14.24079 Y51.81095
G01 X14.24559 Y51.85971
G01 X14.25981 Y51.90660
G01 X14.28290 Y51.94981
G01 X14.31399 Y51.98770
G01 X14.35189 Y52.01879
G01 X14.39509 Y52.04191
G01 X14.44201 Y52.05613
G01 X14.49078 Y52.06093
G01 X16.09077 Y52.06093
G01 X16.13954 Y52.05613
G01 X16.18645 Y52.04191
G01 X16.22966 Y52.01879
G01 X16.26756 Y51.98770
G01 X16.29865 Y51.94981
G01 X16.32174 Y51.90660
G01 X16.33598 Y51.85971
G01 X16.34079 Y51.81095
G01 X16.34079 Y49.91095
G01 X16.43581 Y49.55052
G01 X16.36850 Y49.49528
G01 X16.28209 Y49.44910
G01 X16.18831 Y49.42065
G01 X16.09077 Y49.41103
G01 X14.49078 Y49.41103
G01 X14.39324 Y49.42065
G01 X14.29946 Y49.44910
G01 X14.21305 Y49.49528
G01 X14.14572 Y49.55055
G01 X14.14572 Y52.17132
G01 X14.21305 Y52.22659
G01 X14.29946 Y52.27277
G01 X14.39324 Y52.30124
G01 X14.49078 Y52.31084
G01 X16.09077 Y52.31084
G01 X16.18831 Y52.30124
G01 X16.28209 Y52.27277
G01 X16.36850 Y52.22659
G01 X16.43581 Y52.17135
G01 X16.43581 Y49.55052
G01 X18.97581 Y49.55052
G01 X18.88079 Y49.91095
G01 X18.87598 Y49.86216
G01 X18.86174 Y49.81527
G01 X18.83865 Y49.77204
G01 X18.80756 Y49.73417
G01 X18.76966 Y49.70308
G01 X18.72645 Y49.67996
G01 X18.67954 Y49.66574
G01 X18.63077 Y49.66094
G01 X17.03078 Y49.66094
G01 X16.98201 Y49.66574
G01 X16.93509 Y49.67996
G01 X16.89189 Y49.70308
G01 X16.85399 Y49.73417
G01 X16.82290 Y49.77204
G01 X16.79981 Y49.81527
G01 X16.78559 Y49.86216
G01 X16.78079 Y49.91095
G01 X16.78079 Y51.81095
G01 X16.78559 Y51.85971
G01 X16.79981 Y51.90660
G01 X16.82290 Y51.94981
G01 X16.85399 Y51.98770
G01 X16.89189 Y52.01879
G01 X16.93509 Y52.04191
G01 X16.98201 Y52.05613
G01 X17.03078 Y52.06093
G01 X18.63077 Y52.06093
G01 X18.67954 Y52.05613
G01 X18.72645 Y52.04191
G01 X18.76966 Y52.01879
G01 X18.80756 Y51.98770
G01 X18.83865 Y51.94981
G01 X18.86174 Y51.90660
G01 X18.87598 Y51.85971
G01 X18.88079 Y51.81095
G01 X18.88079 Y49.91095
G01 X18.97581 Y49.55052
G01 X18.90850 Y49.49528
G01 X18.82209 Y49.44910
G01 X18.72831 Y49.42065
G01 X18.63077 Y49.41103
G01 X17.03078 Y49.41103
G01 X16.93324 Y49.42065
G01 X16.83946 Y49.44910
G01 X16.75305 Y49.49528
G01 X16.68572 Y49.55055
G01 X16.68572 Y52.17132
G01 X16.75305 Y52.22659
G01 X16.83946 Y52.27277
G01 X16.93324 Y52.30124
G01 X17.03078 Y52.31084
G01 X18.63077 Y52.31084
G01 X18.72831 Y52.30124
G01 X18.82209 Y52.27277
G01 X18.90850 Y52.22659
G01 X18.97581 Y52.17135
G01 X18.97581 Y49.55052
G01 X21.51581 Y49.55052
G01 X21.42079 Y49.91095
G01 X21.41598 Y49.86216
G01 X21.40174 Y49.81527
G01 X21.37865 Y49.77204
G01 X21.34756 Y49.73417
G01 X21.30966 Y49.70308
G01 X21.26645 Y49.67996
G01 X21.21954 Y49.66574
G01 X21.17077 Y49.66094
G01 X19.57078 Y49.66094
G01 X19.52201 Y49.66574
G01 X19.47509 Y49.67996
G01 X19.43189 Y49.70308
G01 X19.39399 Y49.73417
G01 X19.36290 Y49.77204
G01 X19.33981 Y49.81527
G01 X19.32559 Y49.86216
G01 X19.32079 Y49.91095
G01 X19.32079 Y51.81095
G01 X19.32559 Y51.85971
G01 X19.33981 Y51.90660
G01 X19.36290 Y51.94981
G01 X19.39399 Y51.98770
G01 X19.43189 Y52.01879
G01 X19.47509 Y52.04191
G01 X19.52201 Y52.05613
G01 X19.57078 Y52.06093
G01 X21.17077 Y52.06093
G01 X21.21954 Y52.05613
G01 X21.26645 Y52.04191
G01 X21.30966 Y52.01879
G01 X21.34756 Y51.98770
G01 X21.37865 Y51.94981
G01 X21.40174 Y51.90660
G01 X21.41598 Y51.85971
G01 X21.42079 Y51.81095
G01 X21.42079 Y49.91095
G01 X21.51581 Y49.55052
G01 X21.44850 Y49.49528
G01 X21.36209 Y49.44910
G01 X21.26831 Y49.42065
G01 X21.17077 Y49.41103
G01 X19.57078 Y49.41103
G01 X19.47324 Y49.42065
G01 X19.37946 Y49.44910
G01 X19.29305 Y49.49528
G01 X19.22572 Y49.55055
G01 X19.22572 Y52.17132
G01 X19.29305 Y52.22659
G01 X19.37946 Y52.27277
G01 X19.47324 Y52.30124
G01 X19.57078 Y52.31084
G01 X21.17077 Y52.31084
G01 X21.26831 Y52.30124
G01 X21.36209 Y52.27277
G01 X21.44850 Y52.22659
G01 X21.51581 Y52.17135
G01 X21.51581 Y49.55052
G01 X24.05581 Y49.55052
G01 X23.96079 Y49.91095
G01 X23.95598 Y49.86216
G01 X23.94174 Y49.81527
G01 X23.91865 Y49.77204
G01 X23.88756 Y49.73417
G01 X23.84966 Y49.70308
G01 X23.80645 Y49.67996
G01 X23.75954 Y49.66574
G01 X23.71077 Y49.66094
G01 X22.11078 Y49.66094
G01 X22.06201 Y49.66574
G01 X22.01509 Y49.67996
G01 X21.97189 Y49.70308
G01 X21.93399 Y49.73417
G01 X21.90290 Y49.77204
G01 X21.87981 Y49.81527
G01 X21.86559 Y49.86216
G01 X21.86079 Y49.91095
G01 X21.86079 Y51.81095
G01 X21.86559 Y51.85971
G01 X21.87981 Y51.90660
G01 X21.90290 Y51.94981
G01 X21.93399 Y51.98770
G01 X21.97189 Y52.01879
G01 X22.01509 Y52.04191
G01 X22.06201 Y52.05613
G01 X22.11078 Y52.06093
G01 X23.71077 Y52.06093
G01 X23.75954 Y52.05613
G01 X23.80645 Y52.04191
G01 X23.84966 Y52.01879
G01 X23.88756 Y51.98770
G01 X23.91865 Y51.94981
G01 X23.94174 Y51.90660
G01 X23.95598 Y51.85971
G01 X23.96079 Y51.81095
G01 X23.96079 Y49.91095
G01 X24.05581 Y49.55052
G01 X23.98850 Y49.49528
G01 X23.90209 Y49.44910
G01 X23.80831 Y49.42065
G01 X23.71077 Y49.41103
G01 X22.11078 Y49.41103
G01 X22.01324 Y49.42065
G01 X21.91946 Y49.44910
G01 X21.83305 Y49.49528
G01 X21.76572 Y49.55055
G01 X21.76572 Y52.17132
G01 X21.83305 Y52.22659
G01 X21.91946 Y52.27277
G01 X22.01324 Y52.30124
G01 X22.11078 Y52.31084
G01 X23.71077 Y52.31084
G01 X23.80831 Y52.30124
G01 X23.90209 Y52.27277
G01 X23.98850 Y52.22659
G01 X24.05581 Y52.17135
G01 X24.05581 Y49.55052
G01 X26.59581 Y49.55052
G01 X26.59581 Y52.17135
G01 X26.52850 Y52.22659
G01 X26.44206 Y52.27277
G01 X26.34828 Y52.30124
G01 X26.25077 Y52.31084
G01 X24.65078 Y52.31084
G01 X24.55324 Y52.30124
G01 X24.45946 Y52.27277
G01 X24.37305 Y52.22659
G01 X24.30572 Y52.17132
G01 X24.30572 Y49.55055
G01 X24.37305 Y49.49528
G01 X24.45946 Y49.44910
G01 X24.55324 Y49.42065
G01 X24.65078 Y49.41103
G01 X26.25077 Y49.41103
G01 X26.34828 Y49.42065
G01 X26.44206 Y49.44910
G01 X26.52850 Y49.49528
G01 X26.59581 Y49.55052
G01 X26.50079 Y49.91095
G01 X26.49598 Y49.86216
G01 X26.48174 Y49.81527
G01 X26.45865 Y49.77204
G01 X26.42753 Y49.73417
G01 X26.38966 Y49.70308
G01 X26.34643 Y49.67996
G01 X26.29954 Y49.66574
G01 X26.25077 Y49.66094
G01 X24.65078 Y49.66094
G01 X24.60201 Y49.66574
G01 X24.55509 Y49.67996
G01 X24.51189 Y49.70308
G01 X24.47399 Y49.73417
G01 X24.44290 Y49.77204
G01 X24.41981 Y49.81527
G01 X24.40559 Y49.86216
G01 X24.40079 Y49.91095
G01 X24.40079 Y51.81095
G01 X24.40559 Y51.85971
G01 X24.41981 Y51.90660
G01 X24.44290 Y51.94981
G01 X24.47399 Y51.98770
G01 X24.51189 Y52.01879
G01 X24.55509 Y52.04191
G01 X24.60201 Y52.05613
G01 X24.65078 Y52.06093
G01 X26.25077 Y52.06093
G01 X26.29954 Y52.05613
G01 X26.34643 Y52.04191
G01 X26.38966 Y52.01879
G01 X26.42753 Y51.98770
G01 X26.45865 Y51.94981
G01 X26.48174 Y51.90660
G01 X26.49598 Y51.85971
G01 X26.50079 Y51.81095
G01 X26.50079 Y49.91095
G04 P0 ( dwell for no time -- G64 should not smooth over this point )
G00 Z5.00000 ( retract )

G00 X36.66079 Y49.91095 ( rapid move to begin. )
G01 F75.00000
( Mill infeed pass 1/1 )
G01 Z-0.10000
G04 P0 ( dwell for no time -- G64 should not smooth over this point )
G01 F75.00000
G01 X36.66079 Y49.91095
G01 X36.65598 Y49.86216
G01 X36.64174 Y49.81527
G01 X36.61865 Y49.77204
G01 X36.58756 Y49.73417
G01 X36.54966 Y49.70308
G01 X36.50645 Y49.67996
G01 X36.45954 Y49.66574
G01 X36.41077 Y49.66094
G01 X34.81078 Y49.66094
G01 X34.76201 Y49.66574
G01 X34.71509 Y49.67996
G01 X34.67189 Y49.70308
G01 X34.63399 Y49.73417
G01 X34.60290 Y49.77204
G01 X34.57981 Y49.81527
G01 X34.56559 Y49.86216
G01 X34.56079 Y49.91095
G01 X34.56079 Y51.81095
G01 X34.56559 Y51.85971
G01 X34.57981 Y51.90660
G01 X34.60290 Y51.94981
G01 X34.63399 Y51.98770
G01 X34.67189 Y52.01879
G01 X34.71509 Y52.04191
G01 X34.76201 Y52.05613
G01 X34.81078 Y52.06093
G01 X36.41077 Y52.06093
G01 X36.45954 Y52.05613
G01 X36.50645 Y52.04191
G01 X36.54966 Y52.01879
G01 X36.58756 Y51.98770
G01 X36.61865 Y51.94981
G01 X36.64174 Y51.90660
G01 X36.65598 Y51.85971
G01 X36.66079 Y51.81095
G01 X36.66079 Y49.91095
G01 X36.75581 Y49.55052
G01 X36.75581 Y52.17135
G01 X36.68850 Y52.22659
G01 X36.60209 Y52.27277
G01 X36.50831 Y52.30124
G01 X36.41077 Y52.31084
G01 X34.81078 Y52.31084
G01 X34.71324 Y52.30124
G01 X34.61946 Y52.27277
G01 X34.53305 Y52.22659
G01 X34.46572 Y52.17132
G01 X34.46572 Y49.55055
G01 X34.53305 Y49.49528
G01 X34.61946 Y49.44910
G01 X34.71324 Y49.42065
G01 X34.81078 Y49.41103
G01 X36.41077 Y49.41103
G01 X36.50831 Y49.42065
G01 X36.60209 Y49.44910
G01 X36.68850 Y49.49528
G01 X36.75581 Y49.55052
G01 X39.29581 Y49.55052
G01 X39.20079 Y49.91095
G01 X39.19598 Y49.86216
G01 X39.18174 Y49.81527
G01 X39.15865 Y49.77204
G01 X39.12756 Y49.73417
G01 X39.08966 Y49.70308
G01 X39.04645 Y49.67996
G01 X38.99954 Y49.66574
G01 X38.95077 Y49.66094
G01 X37.35078 Y49.66094
G01 X37.30201 Y49.66574
G01 X37.25509 Y49.67996
G01 X37.21189 Y49.70308
G01 X37.17399 Y49.73417
G01 X37.14290 Y49.77204
G01 X37.11981 Y49.81527
G01 X37.10559 Y49.86216
G01 X37.10079 Y49.91095
G01 X37.10079 Y51.81095
G01 X37.10559 Y51.85971
G01 X37.11981 Y51.90660
G01 X37.14290 Y51.94981
G01 X37.17399 Y51.98770
G01 X37.21189 Y52.01879
G01 X37.25509 Y52.04191
G01 X37.30201 Y52.05613
G01 X37.35078 Y52.06093
G01 X38.95077 Y52.06093
G01 X38.99954 Y52.05613
G01 X39.04645 Y52.04191
G01 X39.08966 Y52.01879
G01 X39.12756 Y51.98770
G01 X39.15865 Y51.94981
G01 X39.18174 Y51.90660
G01 X39.19598 Y51.85971
G01 X39.20079 Y51.81095
G01 X39.20079 Y49.91095
G01 X39.29581 Y49.55052
G01 X39.22850 Y49.49528
G01 X39.14209 Y49.44910
G01 X39.04831 Y49.42065
G01 X38.95077 Y49.41103
G01 X37.35078 Y49.41103
G01 X37.25324 Y49.42065
G01 X37.15946 Y49.44910
G01 X37.07305 Y49.49528
G01 X37.00572 Y49.55055
G01 X37.00572 Y52.17132
G01 X37.07305 Y52.22659
G01 X37.15946 Y52.27277
G01 X37.25324 Y52.30124
G01 X37.35078 Y52.31084
G01 X38.95077 Y52.31084
G01 X39.04831 Y52.30124
G01 X39.14209 Y52.27277
G01 X39.22850 Y52.22659
G01 X39.29581 Y52.17135
G01 X39.29581 Y49.55052
G01 X41.83581 Y49.55052
G01 X41.74079 Y49.91095
G01 X41.73598 Y49.86216
G01 X41.72174 Y49.81527
G01 X41.69865 Y49.77204
G01 X41.66756 Y49.73417
G01 X41.62966 Y49.70308
G01 X41.58645 Y49.67996
G01 X41.53954 Y49.66574
G01 X41.49077 Y49.66094
G01 X39.89078 Y49.66094
G01 X39.84201 Y49.66574
G01 X39.79509 Y49.67996
G01 X39.75189 Y49.70308
G01 X39.71399 Y49.73417
G01 X39.68290 Y49.77204
G01 X39.65981 Y49.81527
G01 X39.64559 Y49.86216
G01 X39.64079 Y49.91095
G01 X39.64079 Y51.81095
G01 X39.64559 Y51.85971
G01 X39.65981 Y51.90660
G01 X39.68290 Y51.94981
G01 X39.71399 Y51.98770
G01 X39.75189 Y52.01879
G01 X39.79509 Y52.04191
G01 X39.84201 Y52.05613
G01 X39.89078 Y52.06093
G01 X41.49077 Y52.06093
G01 X41.53954 Y52.05613
G01 X41.58645 Y52.04191
G01 X41.62966 Y52.01879
G01 X41.66756 Y51.98770
G01 X41.69865 Y51.94981
G01 X41.72174 Y51.90660
G01 X41.73598 Y51.85971
G01 X41.74079 Y51.81095
G01 X41.74079 Y49.91095
G01 X41.83581 Y49.55052
G01 X41.76850 Y49.49528
G01 X41.68209 Y49.44910
G01 X41.58831 Y49.42065
G01 X41.49077 Y49.41103
G01 X39.89078 Y49.41103
G01 X39.79324 Y49.42065
G01 X39.69946 Y49.44910
G01 X39.61305 Y49.49528
G01 X39.54572 Y49.55055
G01 X39.54572 Y52.17132
G01 X39.61305 Y52.22659
G01 X39.69946 Y52.27277
G01 X39.79324 Y52.30124
G01 X39.89078 Y52.31084
G01 X41.49077 Y52.31084
G01 X41.58831 Y52.30124
G01 X41.68209 Y52.27277
G01 X41.76850 Y52.22659
G01 X41.83581 Y52.17135
G01 X41.83581 Y49.55052
G01 X44.37581 Y49.55052
G01 X44.28079 Y49.91095
G01 X44.27598 Y49.86216
G01 X44.26174 Y49.81527
G01 X44.23865 Y49.77204
G01 X44.20756 Y49.73417
G01 X44.16966 Y49.70308
G01 X44.12645 Y49.67996
G01 X44.07954 Y49.66574
G01 X44.03077 Y49.66094
G01 X42.43078 Y49.66094
G01 X42.38201 Y49.66574
G01 X42.33509 Y49.67996
G01 X42.29189 Y49.70308
G01 X42.25399 Y49.73417
G01 X42.22290 Y49.77204
G01 X42.19981 Y49.81527
G01 X42.18559 Y49.86216
G01 X42.18079 Y49.91095
G01 X42.18079 Y51.81095
G01 X42.18559 Y51.85971
G01 X42.19981 Y51.90660
G01 X42.22290 Y51.94981
G01 X42.25399 Y51.98770
G01 X42.29189 Y52.01879
G01 X42.33509 Y52.04191
G01 X42.38201 Y52.05613
G01 X42.43078 Y52.06093
G01 X44.03077 Y52.06093
G01 X44.07954 Y52.05613
G01 X44.12645 Y52.04191
G01 X44.16966 Y52.01879
G01 X44.20756 Y51.98770
G01 X44.23865 Y51.94981
G01 X44.26174 Y51.90660
G01 X44.27598 Y51.85971
G01 X44.28079 Y51.81095
G01 X44.28079 Y49.91095
G01 X44.37581 Y49.55052
G01 X44.30850 Y49.49528
G01 X44.22209 Y49.44910
G01 X44.12831 Y49.42065
G01 X44.03077 Y49.41103
G01 X42.43078 Y49.41103
G01 X42.33324 Y49.42065
G01 X42.23946 Y49.44910
G01 X42.15305 Y49.49528
G01 X42.08572 Y49.55055
G01 X42.08572 Y52.17132
G01 X42.15305 Y52.22659
G01 X42.23946 Y52.27277
G01 X42.33324 Y52.30124
G01 X42.43078 Y52.31084
G01 X44.03077 Y52.31084
G01 X44.12831 Y52.30124
G01 X44.22209 Y52.27277
G01 X44.30850 Y52.22659
G01 X44.37581 Y52.17135
G01 X44.37581 Y49.55052
G01 X46.91581 Y49.55052
G01 X46.82079 Y49.91095
G01 X46.81598 Y49.86216
G01 X46.80174 Y49.81527
G01 X46.77865 Y49.77204
G01 X46.74756 Y49.73417
G01 X46.70966 Y49.70308
G01 X46.66645 Y49.67996
G01 X46.61954 Y49.66574
G01 X46.57077 Y49.66094
G01 X44.97078 Y49.66094
G01 X44.92201 Y49.66574
G01 X44.87509 Y49.67996
G01 X44.83189 Y49.70308
G01 X44.79399 Y49.73417
G01 X44.76290 Y49.77204
G01 X44.73981 Y49.81527
G01 X44.72559 Y49.86216
G01 X44.72079 Y49.91095
G01 X44.72079 Y51.81095
G01 X44.72559 Y51.85971
G01 X44.73981 Y51.90660
G01 X44.76290 Y51.94981
G01 X44.79399 Y51.98770
G01 X44.83189 Y52.01879
G01 X44.87509 Y52.04191
G01 X44.92201 Y52.05613
G01 X44.97078 Y52.06093
G01 X46.57077 Y52.06093
G01 X46.61954 Y52.05613
G01 X46.66645 Y52.04191
G01 X46.70966 Y52.01879
G01 X46.74756 Y51.98770
G01 X46.77865 Y51.94981
G01 X46.80174 Y51.90660
G01 X46.81598 Y51.85971
G01 X46.82079 Y51.81095
G01 X46.82079 Y49.91095
G01 X46.91581 Y49.55052
G01 X46.84850 Y49.49528
G01 X46.76209 Y49.44910
G01 X46.66831 Y49.42065
G01 X46.57077 Y49.41103
G01 X44.97078 Y49.41103
G01 X44.87324 Y49.42065
G01 X44.77946 Y49.44910
G01 X44.69305 Y49.49528
G01 X44.62572 Y49.55055
G01 X44.62572 Y52.17132
G01 X44.69305 Y52.22659
G01 X44.77946 Y52.27277
G01 X44.87324 Y52.30124
G01 X44.97078 Y52.31084
G01 X46.57077 Y52.31084
G01 X46.66831 Y52.30124
G01 X46.76209 Y52.27277
G01 X46.84850 Y52.22659
G01 X46.91581 Y52.17135
G01 X46.91581 Y49.55052
G01 X49.45581 Y49.55052
G01 X49.36079 Y49.91095
G01 X49.35598 Y49.86216
G01 X49.34174 Y49.81527
G01 X49.31865 Y49.77204
G01 X49.28756 Y49.73417
G01 X49.24966 Y49.70308
G01 X49.20645 Y49.67996
G01 X49.15954 Y49.66574
G01 X49.11077 Y49.66094
G01 X47.51078 Y49.66094
G01 X47.46201 Y49.66574
G01 X47.41509 Y49.67996
G01 X47.37189 Y49.70308
G01 X47.33399 Y49.73417
G01 X47.30290 Y49.77204
G01 X47.27981 Y49.81527
G01 X47.26559 Y49.86216
G01 X47.26079 Y49.91095
G01 X47.26079 Y51.81095
G01 X47.26559 Y51.85971
G01 X47.27981 Y51.90660
G01 X47.30290 Y51.94981
G01 X47.33399 Y51.98770
G01 X47.37189 Y52.01879
G01 X47.41509 Y52.04191
G01 X47.46201 Y52.05613
G01 X47.51078 Y52.06093
G01 X49.11077 Y52.06093
G01 X49.15954 Y52.05613
G01 X49.20645 Y52.04191
G01 X49.24966 Y52.01879
G01 X49.28756 Y51.98770
G01 X49.31865 Y51.94981
G01 X49.34174 Y51.90660
G01 X49.35598 Y51.85971
G01 X49.36079 Y51.81095
G01 X49.36079 Y49.91095
G01 X49.45581 Y49.55052
G01 X49.38850 Y49.49528
G01 X49.30209 Y49.44910
G01 X49.20831 Y49.42065
G01 X49.11077 Y49.41103
G01 X47.51078 Y49.41103
G01 X47.41324 Y49.42065
G01 X47.31946 Y49.44910
G01 X47.23305 Y49.49528
G01 X47.16572 Y49.55055
G01 X47.16572 Y52.17132
G01 X47.23305 Y52.22659
G01 X47.31946 Y52.27277
G01 X47.41324 Y52.30124
G01 X47.51078 Y52.31084
G01 X49.11077 Y52.31084
G01 X49.20831 Y52.30124
G01 X49.30209 Y52.27277
G01 X49.38850 Y52.22659
G01 X49.45581 Y52.17135
G01 X49.45581 Y49.55052
G01 X51.99581 Y49.55052
G01 X51.90076 Y49.91095
G01 X51.89598 Y49.86216
G01 X51.88171 Y49.81527
G01 X51.85862 Y49.77204
G01 X51.82756 Y49.73417
G01 X51.78963 Y49.70308
G01 X51.74645 Y49.67996
G01 X51.69954 Y49.66574
G01 X51.65075 Y49.66094
G01 X50.05078 Y49.66094
G01 X50.00201 Y49.66574
G01 X49.95509 Y49.67996
G01 X49.91189 Y49.70308
G01 X49.87399 Y49.73417
G01 X49.84290 Y49.77204
G01 X49.81981 Y49.81527
G01 X49.80559 Y49.86216
G01 X49.80079 Y49.91095
G01 X49.80079 Y51.81095
G01 X49.80559 Y51.85971
G01 X49.81981 Y51.90660
G01 X49.84290 Y51.94981
G01 X49.87399 Y51.98770
G01 X49.91189 Y52.01879
G01 X49.95509 Y52.04191
G01 X50.00201 Y52.05613
G01 X50.05078 Y52.06093
G01 X51.65075 Y52.06093
G01 X51.69954 Y52.05613
G01 X51.74645 Y52.04191
G01 X51.78963 Y52.01879
G01 X51.82756 Y51.98770
G01 X51.85862 Y51.94981
G01 X51.88171 Y51.90660
G01 X51.89598 Y51.85971
G01 X51.90076 Y51.81095
G01 X51.90076 Y49.91095
G01 X51.99581 Y49.55052
G01 X51.92850 Y49.49528
G01 X51.84209 Y49.44910
G01 X51.74831 Y49.42065
G01 X51.65075 Y49.41103
G01 X50.05078 Y49.41103
G01 X49.95324 Y49.42065
G01 X49.85946 Y49.44910
G01 X49.77305 Y49.49528
G01 X49.70572 Y49.55055
G01 X49.70572 Y52.17132
G01 X49.77305 Y52.22659
G01 X49.85946 Y52.27277
G01 X49.95324 Y52.30124
G01 X50.05078 Y52.31084
G01 X51.65075 Y52.31084
G01 X51.74831 Y52.30124
G01 X51.84209 Y52.27277
G01 X51.92850 Y52.22659
G01 X51.99581 Y52.17135
G01 X51.99581 Y49.55052
G01 X54.53581 Y49.55052
G01 X54.44079 Y49.91095
G01 X54.43598 Y49.86216
G01 X54.42174 Y49.81527
G01 X54.39865 Y49.77204
G01 X54.36756 Y49.73417
G01 X54.32966 Y49.70308
G01 X54.28645 Y49.67996
G01 X54.23954 Y49.66574
G01 X54.19077 Y49.66094
G01 X52.59078 Y49.66094
G01 X52.54198 Y49.66574
G01 X52.49509 Y49.67996
G01 X52.45189 Y49.70308
G01 X52.41399 Y49.73417
G01 X52.38290 Y49.77204
G01 X52.35981 Y49.81527
G01 X52.34556 Y49.86216
G01 X52.34079 Y49.91095
G01 X52.34079 Y51.81095
G01 X52.34556 Y51.85971
G01 X52.35981 Y51.90660
G01 X52.38290 Y51.94981
G01 X52.41399 Y51.98770
G01 X52.45189 Y52.01879
G01 X52.49509 Y52.04191
G01 X52.54198 Y52.05613
G01 X52.59078 Y52.06093
G01 X54.19077 Y52.06093
G01 X54.23954 Y52.05613
G01 X54.28645 Y52.04191
G01 X54.32966 Y52.01879
G01 X54.36756 Y51.98770
G01 X54.39865 Y51.94981
G01 X54.42174 Y51.90660
G01 X54.43598 Y51.85971
G01 X54.44079 Y51.81095
G01 X54.44079 Y49.91095
G01 X54.53581 Y49.55052
G01 X54.46850 Y49.49528
G01 X54.38209 Y49.44910
G01 X54.28831 Y49.42065
G01 X54.19077 Y49.41103
G01 X52.59078 Y49.41103
G01 X52.49324 Y49.42065
G01 X52.39946 Y49.44910
G01 X52.31305 Y49.49528
G01 X52.24572 Y49.55055
G01 X52.24572 Y52.17132
G01 X52.31305 Y52.22659
G01 X52.39946 Y52.27277
G01 X52.49324 Y52.30124
G01 X52.59078 Y52.31084
G01 X54.19077 Y52.31084
G01 X54.28831 Y52.30124
G01 X54.38209 Y52.27277
G01 X54.46850 Y52.22659
G01 X54.53581 Y52.17135
G01 X54.53581 Y49.55052
G01 X57.07581 Y49.55052
G01 X57.07581 Y52.17135
G01 X57.00850 Y52.22659
G01 X56.92209 Y52.27277
G01 X56.82831 Y52.30124
G01 X56.73077 Y52.31084
G01 X55.13078 Y52.31084
G01 X55.03324 Y52.30124
G01 X54.93946 Y52.27277
G01 X54.85305 Y52.22659
G01 X54.78572 Y52.17132
G01 X54.78572 Y49.55055
G01 X54.85305 Y49.49528
G01 X54.93946 Y49.44910
G01 X55.03324 Y49.42065
G01 X55.13078 Y49.41103
G01 X56.73077 Y49.41103
G01 X56.82831 Y49.42065
G01 X56.92209 Y49.44910
G01 X57.00850 Y49.49528
G01 X57.07581 Y49.55052
G01 X56.98079 Y49.91095
G01 X56.97598 Y49.86216
G01 X56.96174 Y49.81527
G01 X56.93865 Y49.77204
G01 X56.90756 Y49.73417
G01 X56.86966 Y49.70308
G01 X56.82645 Y49.67996
G01 X56.77954 Y49.66574
G01 X56.73077 Y49.66094
G01 X55.13078 Y49.66094
G01 X55.08201 Y49.66574
G01 X55.03509 Y49.67996
G01 X54.99189 Y49.70308
G01 X54.95399 Y49.73417
G01 X54.92290 Y49.77204
G01 X54.89981 Y49.81527
G01 X54.88559 Y49.86216
G01 X54.88079 Y49.91095
G01 X54.88079 Y51.81095
G01 X54.88559 Y51.85971
G01 X54.89981 Y51.90660
G01 X54.92290 Y51.94981
G01 X54.95399 Y51.98770
G01 X54.99189 Y52.01879
G01 X55.03509 Y52.04191
G01 X55.08201 Y52.05613
G01 X55.13078 Y52.06093
G01 X56.73077 Y52.06093
G01 X56.77954 Y52.05613
G01 X56.82645 Y52.04191
G01 X56.86966 Y52.01879
G01 X56.90756 Y51.98770
G01 X56.93865 Y51.94981
G01 X56.96174 Y51.90660
G01 X56.97598 Y51.85971
G01 X56.98079 Y51.81095
G01 X56.98079 Y49.91095
G04 P0 ( dwell for no time -- G64 should not smooth over this point )
G00 Z5.00000 ( retract )

G00 X62.06079 Y49.91095 ( rapid move to begin. )
G01 F75.00000
( Mill infeed pass 1/1 )
G01 Z-0.10000
G04 P0 ( dwell for no time -- G64 should not smooth over this point )
G01 F75.00000
G01 X62.06079 Y49.91095
G01 X62.05598 Y49.86216
G01 X62.04174 Y49.81527
G01 X62.01865 Y49.77204
G01 X61.98756 Y49.73417
G01 X61.94966 Y49.70308
G01 X61.90645 Y49.67996
G01 X61.85954 Y49.66574
G01 X61.81077 Y49.66094
G01 X60.21078 Y49.66094
G01 X60.16201 Y49.66574
G01 X60.11509 Y49.67996
G01 X60.07189 Y49.70308
G01 X60.03399 Y49.73417
G01 X60.00290 Y49.77204
G01 X59.97981 Y49.81527
G01 X59.96559 Y49.86216
G01 X59.96079 Y49.91095
G01 X59.96079 Y51.81095
G01 X59.96559 Y51.85971
G01 X59.97981 Y51.90660
G01 X60.00290 Y51.94981
G01 X60.03399 Y51.98770
G01 X60.07189 Y52.01879
G01 X60.11509 Y52.04191
G01 X60.16201 Y52.05613
G01 X60.21078 Y52.06093
G01 X61.81077 Y52.06093
G01 X61.85954 Y52.05613
G01 X61.90645 Y52.04191
G01 X61.94966 Y52.01879
G01 X61.98756 Y51.98770
G01 X62.01865 Y51.94981
G01 X62.04174 Y51.90660
G01 X62.05598 Y51.85971
G01 X62.06079 Y51.81095
G01 X62.06079 Y49.91095
G01 X62.31067 Y49.91095
G01 X62.31067 Y51.81095
G01 X62.30107 Y51.90846
G01 X62.27262 Y52.00223
G01 X62.22642 Y52.08867
G01 X62.16426 Y52.16439
G01 X62.08850 Y52.22659
G01 X62.00209 Y52.27277
G01 X61.90831 Y52.30124
G01 X61.81077 Y52.31084
G01 X60.21078 Y52.31084
G01 X60.11324 Y52.30124
G01 X60.01946 Y52.27277
G01 X59.93305 Y52.22659
G01 X59.86572 Y52.17132
G01 X59.86572 Y49.55055
G01 X59.93305 Y49.49528
G01 X60.01946 Y49.44910
G01 X60.11324 Y49.42065
G01 X60.21078 Y49.41103
G01 X61.81077 Y49.41103
G01 X61.90831 Y49.42065
G01 X62.00209 Y49.44910
G01 X62.08850 Y49.49528
G01 X62.16426 Y49.55746
G01 X62.22642 Y49.63320
G01 X62.27262 Y49.71964
G01 X62.30107 Y49.81341
G01 X62.31067 Y49.91095
G04 P0 ( dwell for no time -- G64 should not smooth over this point )
G00 Z5.00000 ( retract )

G00 X66.72946 Y45.15584 ( rapid move to begin. )
G01 F75.00000
( Mill infeed pass 1/1 )
G01 Z-0.10000
G04 P0 ( dwell for no time -- G64 should not smooth over this point )
G01 F75.00000
G01 X66.72946 Y45.15584
G01 X66.80457 Y45.13306
G01 X66.89098 Y45.08688
G01 X66.96674 Y45.02470
G01 X67.02890 Y44.94896
G01 X67.07510 Y44.86252
G01 X67.10355 Y44.76874
G01 X67.11315 Y44.67121
G01 X67.11315 Y43.09641
G01 X67.10355 Y42.99890
G01 X67.07510 Y42.90512
G01 X67.02890 Y42.81868
G01 X66.96674 Y42.74294
G01 X66.89098 Y42.68076
G01 X66.80457 Y42.63456
G01 X66.72986 Y42.61190
G01 X66.34383 Y42.61190
G01 X66.72986 Y42.61190
G01 X66.80457 Y42.58925
G01 X66.89098 Y42.54307
G01 X66.96674 Y42.48089
G01 X67.02890 Y42.40515
G01 X67.07510 Y42.31871
G01 X67.10355 Y42.22493
G01 X67.11315 Y42.12740
G01 X67.11315 Y40.55260
G01 X66.86326 Y40.55260
G01 X66.86326 Y42.12740
G01 X66.85846 Y42.17619
G01 X66.84421 Y42.22308
G01 X66.82113 Y42.26631
G01 X66.79004 Y42.30418
G01 X66.75214 Y42.33527
G01 X66.70893 Y42.35839
G01 X66.66202 Y42.37261
G01 X66.61325 Y42.37741
G01 X66.32585 Y42.37741
G01 X66.32585 Y42.84642
G01 X66.61325 Y42.84642
G01 X66.66202 Y42.85122
G01 X66.70893 Y42.86545
G01 X66.75214 Y42.88856
G01 X66.79004 Y42.91965
G01 X66.82113 Y42.95752
G01 X66.84421 Y43.00075
G01 X66.85846 Y43.04764
G01 X66.86326 Y43.09641
G01 X66.86326 Y44.67121
G01 X66.85846 Y44.72000
G01 X66.84421 Y44.76689
G01 X66.82113 Y44.81012
G01 X66.79004 Y44.84799
G01 X66.75214 Y44.87908
G01 X66.70893 Y44.90220
G01 X66.66202 Y44.91642
G01 X66.61325 Y44.92122
G01 X66.32585 Y44.92122
G01 X66.32585 Y45.39049
G01 X66.61325 Y45.39049
G01 X66.66202 Y45.39529
G01 X66.70893 Y45.40951
G01 X66.75214 Y45.43260
G01 X66.79004 Y45.46369
G01 X66.82113 Y45.50159
G01 X66.84421 Y45.54482
G01 X66.85846 Y45.59170
G01 X66.86326 Y45.64047
G01 X66.86326 Y47.21527
G01 X66.85846 Y47.26404
G01 X66.84421 Y47.31095
G01 X66.82113 Y47.35416
G01 X66.79004 Y47.39206
G01 X66.75214 Y47.42315
G01 X66.70893 Y47.44623
G01 X66.66202 Y47.46048
G01 X66.61325 Y47.46528
G01 X65.03845 Y47.46528
G01 X64.98968 Y47.46048
G01 X64.94280 Y47.44623
G01 X64.89957 Y47.42315
G01 X64.86167 Y47.39206
G01 X64.83058 Y47.35416
G01 X64.80749 Y47.31095
G01 X64.79327 Y47.26404
G01 X64.78847 Y47.21527
G01 X64.78847 Y45.64047
G01 X64.79327 Y45.59170
G01 X64.80749 Y45.54482
G01 X64.83058 Y45.50159
G01 X64.86167 Y45.46369
G01 X64.89957 Y45.43260
G01 X64.94280 Y45.40951
G01 X64.98968 Y45.39529
G01 X65.03845 Y45.39049
G01 X65.32583 Y45.39049
G01 X65.32583 Y44.92122
G01 X65.03845 Y44.92122
G01 X64.98968 Y44.91642
G01 X64.94280 Y44.90220
G01 X64.89957 Y44.87908
G01 X64.86167 Y44.84799
G01 X64.83058 Y44.81012
G01 X64.80749 Y44.76689
G01 X64.79327 Y44.72000
G01 X64.78847 Y44.67121
G01 X64.78847 Y44.38381
G01 X61.26300 Y44.38381
G01 X58.97077 Y46.67603
G01 X58.97077 Y49.66094
G01 X59.27077 Y49.66094
G01 X59.31954 Y49.66574
G01 X59.36645 Y49.67996
G01 X59.40966 Y49.70308
G01 X59.44756 Y49.73417
G01 X59.47865 Y49.77204
G01 X59.50174 Y49.81527
G01 X59.51598 Y49.86216
G01 X59.52079 Y49.91095
G01 X59.52079 Y51.81095
G01 X59.51598 Y51.85971
G01 X59.50174 Y51.90660
G01 X59.47865 Y51.94981
G01 X59.44756 Y51.98770
G01 X59.40966 Y52.01879
G01 X59.36645 Y52.04191
G01 X59.31954 Y52.05613
G01 X59.27077 Y52.06093
G01 X57.67078 Y52.06093
G01 X57.62201 Y52.05613
G01 X57.57509 Y52.04191
G01 X57.53189 Y52.01879
G01 X57.49399 Y51.98770
G01 X57.46290 Y51.94981
G01 X57.43981 Y51.90660
G01 X57.42559 Y51.85971
G01 X57.42079 Y51.81095
G01 X57.42079 Y49.91095
G01 X57.42559 Y49.86216
G01 X57.43981 Y49.81527
G01 X57.46290 Y49.77204
G01 X57.49399 Y49.73417
G01 X57.53189 Y49.70308
G01 X57.57509 Y49.67996
G01 X57.62201 Y49.66574
G01 X57.67078 Y49.66094
G01 X57.97075 Y49.66094
G01 X57.97075 Y46.46894
G01 X57.97677 Y46.39567
G01 X57.98632 Y46.34758
G01 X58.00882 Y46.27758
G01 X58.04240 Y46.21220
G01 X58.06963 Y46.17143
G01 X58.11721 Y46.11538
G01 X60.70234 Y43.53024
G01 X60.77811 Y43.46806
G01 X60.84237 Y43.43235
G01 X60.88766 Y43.41358
G01 X60.95835 Y43.39341
G01 X61.05591 Y43.38378
G01 X64.78847 Y43.38378
G01 X64.78847 Y43.09641
G01 X64.79327 Y43.04764
G01 X64.80749 Y43.00075
G01 X64.83058 Y42.95752
G01 X64.86167 Y42.91965
G01 X64.89957 Y42.88856
G01 X64.94280 Y42.86545
G01 X64.98968 Y42.85122
G01 X65.03845 Y42.84642
G01 X65.32583 Y42.84642
G01 X65.32583 Y42.37741
G01 X65.03845 Y42.37741
G01 X64.98968 Y42.37261
G01 X64.94280 Y42.35839
G01 X64.89957 Y42.33527
G01 X64.86167 Y42.30418
G01 X64.83058 Y42.26631
G01 X64.80749 Y42.22308
G01 X64.79327 Y42.17619
G01 X64.78847 Y42.12740
G01 X64.78847 Y40.55260
G01 X64.79327 Y40.50383
G01 X64.80749 Y40.45694
G01 X64.83058 Y40.41371
G01 X64.86167 Y40.37584
G01 X64.89957 Y40.34475
G01 X64.94280 Y40.32164
G01 X64.98968 Y40.30741
G01 X65.03845 Y40.30261
G01 X66.61325 Y40.30261
G01 X66.66202 Y40.30741
G01 X66.70893 Y40.32164
G01 X66.75214 Y40.34475
G01 X66.79004 Y40.37584
G01 X66.82113 Y40.41371
G01 X66.84421 Y40.45694
G01 X66.85846 Y40.50383
G01 X66.86326 Y40.55260
G01 X67.11315 Y40.55260
G01 X67.10355 Y40.45509
G01 X67.07510 Y40.36131
G01 X67.02890 Y40.27488
G01 X66.96674 Y40.19913
G01 X66.89098 Y40.13695
G01 X66.80457 Y40.09075
G01 X66.71079 Y40.06230
G01 X66.61325 Y40.05270
G01 X65.03845 Y40.05270
G01 X64.94094 Y40.06230
G01 X64.84717 Y40.09075
G01 X64.76073 Y40.13695
G01 X64.68499 Y40.19913
G01 X64.62281 Y40.27488
G01 X64.57660 Y40.36131
G01 X64.54816 Y40.45509
G01 X64.53856 Y40.55260
G01 X64.53856 Y42.12740
G01 X64.54816 Y42.22493
G01 X64.57660 Y42.31871
G01 X64.62281 Y42.40515
G01 X64.68499 Y42.48089
G01 X64.76073 Y42.54307
G01 X64.84717 Y42.58925
G01 X64.92184 Y42.61190
G01 X65.30787 Y42.61190
G01 X64.92184 Y42.61190
G01 X64.84717 Y42.63456
G01 X64.76073 Y42.68076
G01 X64.68499 Y42.74294
G01 X64.62281 Y42.81868
G01 X64.57660 Y42.90512
G01 X64.54816 Y42.99890
G01 X64.53856 Y43.09641
G01 X64.53856 Y43.13390
G01 X64.60099 Y43.20093
G01 X64.53856 Y43.13390
G01 X61.05591 Y43.13390
G01 X60.90961 Y43.14830
G01 X60.81512 Y43.17446
G01 X60.72457 Y43.21195
G01 X60.63927 Y43.26029
G01 X60.52563 Y43.35353
G01 X57.94050 Y45.93867
G01 X57.87647 Y46.01291
G01 X57.82203 Y46.09440
G01 X57.77794 Y46.18195
G01 X57.74718 Y46.27504
G01 X57.72808 Y46.37115
G01 X57.72086 Y46.46894
G01 X57.72086 Y49.41103
G01 X57.78840 Y49.47432
G01 X57.72086 Y49.41103
G01 X57.67078 Y49.41103
G01 X57.57324 Y49.42065
G01 X57.47946 Y49.44910
G01 X57.39305 Y49.49528
G01 X57.32572 Y49.55055
G01 X57.32572 Y52.17132
G01 X57.39305 Y52.22659
G01 X57.47946 Y52.27277
G01 X57.57324 Y52.30124
G01 X57.67078 Y52.31084
G01 X59.27077 Y52.31084
G01 X59.36831 Y52.30124
G01 X59.46209 Y52.27277
G01 X59.54850 Y52.22659
G01 X59.61581 Y52.17135
G01 X59.61581 Y49.55052
G01 X59.54850 Y49.49528
G01 X59.46209 Y49.44910
G01 X59.36831 Y49.42065
G01 X59.27077 Y49.41103
G01 X59.22066 Y49.41103
G01 X59.15312 Y49.47432
G01 X59.22066 Y49.41103
G01 X59.22066 Y46.77956
G01 X59.20163 Y46.77166
G01 X59.22066 Y46.77956
G01 X61.36653 Y44.63369
G01 X61.35863 Y44.61467
G01 X61.36653 Y44.63369
G01 X64.53856 Y44.63369
G01 X64.60099 Y44.56666
G01 X64.53856 Y44.63369
G01 X64.53856 Y44.67121
G01 X64.54816 Y44.76874
G01 X64.57660 Y44.86252
G01 X64.62281 Y44.94896
G01 X64.68499 Y45.02470
G01 X64.76073 Y45.08688
G01 X64.84717 Y45.13306
G01 X64.92225 Y45.15584
G01 X65.30868 Y45.15584
G01 X64.92225 Y45.15584
G01 X64.84717 Y45.17862
G01 X64.76073 Y45.22483
G01 X64.68499 Y45.28701
G01 X64.62281 Y45.36275
G01 X64.57660 Y45.44919
G01 X64.54816 Y45.54296
G01 X64.53856 Y45.64047
G01 X64.53856 Y47.21527
G01 X64.54816 Y47.31281
G01 X64.57660 Y47.40659
G01 X64.62281 Y47.49300
G01 X64.68499 Y47.56876
G01 X64.76073 Y47.63092
G01 X64.84717 Y47.67712
G01 X64.94094 Y47.70557
G01 X65.03845 Y47.71517
G01 X66.61325 Y47.71517
G01 X66.71079 Y47.70557
G01 X66.80457 Y47.67712
G01 X66.89098 Y47.63092
G01 X66.96674 Y47.56876
G01 X67.02890 Y47.49300
G01 X67.07510 Y47.40659
G01 X67.10355 Y47.31281
G01 X67.11315 Y47.21527
G01 X67.11315 Y45.64047
G01 X67.10355 Y45.54296
G01 X67.07510 Y45.44919
G01 X67.02890 Y45.36275
G01 X66.96674 Y45.28701
G01 X66.89098 Y45.22483
G01 X66.80457 Y45.17862
G01 X66.72946 Y45.15584
G01 X66.34302 Y45.15584
G04 P0 ( dwell for no time -- G64 should not smooth over this point )
G00 Z5.00000 ( retract )

G00 X66.86403 Y36.41852 ( rapid move to begin. )
G01 F75.00000
( Mill infeed pass 1/1 )
G01 Z-0.10000
G04 P0 ( dwell for no time -- G64 should not smooth over this point )
G01 F75.00000
G01 X66.86403 Y36.41852
G01 X66.86403 Y37.99332
G01 X66.85923 Y38.04209
G01 X66.84498 Y38.08898
G01 X66.82189 Y38.13221
G01 X66.79080 Y38.17008
G01 X66.75290 Y38.20117
G01 X66.70970 Y38.22428
G01 X66.66278 Y38.23851
G01 X66.61401 Y38.24331
G01 X65.03921 Y38.24331
G01 X64.99045 Y38.23851
G01 X64.94356 Y38.22428
G01 X64.90033 Y38.20117
G01 X64.86243 Y38.17008
G01 X64.83134 Y38.13221
G01 X64.80825 Y38.08898
G01 X64.79403 Y38.04209
G01 X64.78923 Y37.99332
G01 X64.78923 Y37.70592
G01 X39.83614 Y37.70592
G01 X33.57207 Y43.96997
G01 X33.57207 Y49.66094
G01 X33.87077 Y49.66094
G01 X33.91954 Y49.66574
G01 X33.96645 Y49.67996
G01 X34.00966 Y49.70308
G01 X34.04756 Y49.73417
G01 X34.07865 Y49.77204
G01 X34.10174 Y49.81527
G01 X34.11598 Y49.86216
G01 X34.12079 Y49.91095
G01 X34.12079 Y51.81095
G01 X34.11598 Y51.85971
G01 X34.10174 Y51.90660
G01 X34.07865 Y51.94981
G01 X34.04756 Y51.98770
G01 X34.00966 Y52.01879
G01 X33.96645 Y52.04191
G01 X33.91954 Y52.05613
G01 X33.87077 Y52.06093
G01 X32.27078 Y52.06093
G01 X32.22201 Y52.05613
G01 X32.17509 Y52.04191
G01 X32.13189 Y52.01879
G01 X32.09399 Y51.98770
G01 X32.06290 Y51.94981
G01 X32.03981 Y51.90660
G01 X32.02559 Y51.85971
G01 X32.02079 Y51.81095
G01 X32.02079 Y49.91095
G01 X32.02559 Y49.86216
G01 X32.03981 Y49.81527
G01 X32.06290 Y49.77204
G01 X32.09399 Y49.73417
G01 X32.13189 Y49.70308
G01 X32.17509 Y49.67996
G01 X32.22201 Y49.66574
G01 X32.27078 Y49.66094
G01 X32.57205 Y49.66094
G01 X32.57205 Y43.76288
G01 X32.58205 Y43.66539
G01 X32.60331 Y43.58993
G01 X32.61832 Y43.55371
G01 X32.65665 Y43.48528
G01 X32.71850 Y43.40931
G01 X39.27549 Y36.85235
G01 X39.33154 Y36.80478
G01 X39.41552 Y36.75446
G01 X39.50769 Y36.72147
G01 X39.55578 Y36.71192
G01 X39.62905 Y36.70590
G01 X64.78923 Y36.70590
G01 X64.78923 Y36.41852
G01 X64.79403 Y36.36973
G01 X64.80825 Y36.32284
G01 X64.83134 Y36.27961
G01 X64.86243 Y36.24174
G01 X64.90033 Y36.21065
G01 X64.94356 Y36.18753
G01 X64.99045 Y36.17331
G01 X65.03921 Y36.16851
G01 X66.61401 Y36.16851
G01 X66.66278 Y36.17331
G01 X66.70970 Y36.18753
G01 X66.75290 Y36.21065
G01 X66.79080 Y36.24174
G01 X66.82189 Y36.27961
G01 X66.84498 Y36.32284
G01 X66.85923 Y36.36973
G01 X66.86403 Y36.41852
G01 X67.11391 Y36.41852
G01 X67.10431 Y36.32098
G01 X67.07586 Y36.22721
G01 X67.02966 Y36.14077
G01 X66.95933 Y36.05832
G01 X64.69390 Y36.05832
G01 X64.62357 Y36.14077
G01 X64.57737 Y36.22721
G01 X64.54892 Y36.32098
G01 X64.53932 Y36.41852
G01 X64.53932 Y36.45601
G01 X64.60175 Y36.52304
G01 X64.53932 Y36.45601
G01 X39.62905 Y36.45601
G01 X39.53126 Y36.46322
G01 X39.43515 Y36.48232
G01 X39.38826 Y36.49657
G01 X39.29771 Y36.53406
G01 X39.25451 Y36.55718
G01 X39.17302 Y36.61161
G01 X39.09878 Y36.67564
G01 X32.54179 Y43.23260
G01 X32.48967 Y43.29125
G01 X32.44357 Y43.35473
G01 X32.38746 Y43.45805
G01 X32.34820 Y43.56892
G01 X32.33905 Y43.60705
G01 X32.32678 Y43.68455
G01 X32.32216 Y43.76288
G01 X32.32216 Y49.41103
G01 X32.38975 Y49.47442
G01 X32.32216 Y49.41103
G01 X32.27078 Y49.41103
G01 X32.17324 Y49.42065
G01 X32.07946 Y49.44910
G01 X31.99305 Y49.49528
G01 X31.92572 Y49.55055
G01 X31.92572 Y52.17132
G01 X31.99305 Y52.22659
G01 X32.07946 Y52.27277
G01 X32.17324 Y52.30124
G01 X32.27078 Y52.31084
G01 X33.87077 Y52.31084
G01 X33.96831 Y52.30124
G01 X34.06209 Y52.27277
G01 X34.14850 Y52.22659
G01 X34.21581 Y52.17135
G01 X34.21581 Y49.55052
G01 X34.14850 Y49.49528
G01 X34.06209 Y49.44910
G01 X33.96831 Y49.42065
G01 X33.87077 Y49.41103
G01 X33.82195 Y49.41103
G01 X33.75447 Y49.47425
G01 X33.82195 Y49.41103
G01 X33.82195 Y44.07350
G01 X33.80293 Y44.06560
G01 X33.82195 Y44.07350
G01 X39.93967 Y37.95580
G01 X39.93177 Y37.93678
G01 X39.93967 Y37.95580
G01 X64.53932 Y37.95580
G01 X64.60175 Y37.88877
G01 X64.53932 Y37.95580
G01 X64.53932 Y37.99332
G01 X64.54892 Y38.09083
G01 X64.57737 Y38.18461
G01 X64.62357 Y38.27104
G01 X64.68572 Y38.34679
G01 X64.76149 Y38.40897
G01 X64.84790 Y38.45514
G01 X64.94170 Y38.48359
G01 X65.03921 Y38.49322
G01 X66.61401 Y38.49322
G01 X66.71155 Y38.48359
G01 X66.80533 Y38.45514
G01 X66.89174 Y38.40897
G01 X66.96751 Y38.34679
G01 X67.02966 Y38.27104
G01 X67.07586 Y38.18461
G01 X67.10431 Y38.09083
G01 X67.11391 Y37.99332
G01 X67.11391 Y31.33087
G01 X66.86403 Y31.33087
G01 X66.86403 Y32.90567
G01 X66.85923 Y32.95444
G01 X66.84498 Y33.00136
G01 X66.82189 Y33.04456
G01 X66.79080 Y33.08246
G01 X66.75290 Y33.11355
G01 X66.70970 Y33.13664
G01 X66.66278 Y33.15089
G01 X66.61401 Y33.15569
G01 X65.03921 Y33.15569
G01 X64.99045 Y33.15089
G01 X64.94356 Y33.13664
G01 X64.90033 Y33.11355
G01 X64.86243 Y33.08246
G01 X64.83134 Y33.04456
G01 X64.80825 Y33.00136
G01 X64.79403 Y32.95444
G01 X64.78923 Y32.90567
G01 X64.78923 Y32.61802
G01 X37.93901 Y32.61802
G01 X28.49207 Y42.06497
G01 X28.49207 Y49.66094
G01 X28.79077 Y49.66094
G01 X28.83954 Y49.66574
G01 X28.88645 Y49.67996
G01 X28.92966 Y49.70308
G01 X28.96756 Y49.73417
G01 X28.99865 Y49.77204
G01 X29.02174 Y49.81527
G01 X29.03598 Y49.86216
G01 X29.04079 Y49.91095
G01 X29.04079 Y51.81095
G01 X29.03598 Y51.85971
G01 X29.02174 Y51.90660
G01 X28.99865 Y51.94981
G01 X28.96756 Y51.98770
G01 X28.92966 Y52.01879
G01 X28.88645 Y52.04191
G01 X28.83954 Y52.05613
G01 X28.79077 Y52.06093
G01 X27.19078 Y52.06093
G01 X27.14201 Y52.05613
G01 X27.09509 Y52.04191
G01 X27.05189 Y52.01879
G01 X27.01399 Y51.98770
G01 X26.98290 Y51.94981
G01 X26.95981 Y51.90660
G01 X26.94559 Y51.85971
G01 X26.94079 Y51.81095
G01 X26.94079 Y49.91095
G01 X26.94559 Y49.86216
G01 X26.95981 Y49.81527
G01 X26.98290 Y49.77204
G01 X27.01399 Y49.73417
G01 X27.05189 Y49.70308
G01 X27.09509 Y49.67996
G01 X27.14201 Y49.66574
G01 X27.19078 Y49.66094
G01 X27.49205 Y49.66094
G01 X27.49205 Y41.85788
G01 X27.49807 Y41.78460
G01 X27.50762 Y41.73652
G01 X27.54061 Y41.64434
G01 X27.59093 Y41.56037
G01 X27.63850 Y41.50431
G01 X37.37836 Y31.76445
G01 X37.43442 Y31.71688
G01 X37.51839 Y31.66656
G01 X37.61057 Y31.63357
G01 X37.65865 Y31.62402
G01 X37.73193 Y31.61800
G01 X64.78923 Y31.61800
G01 X64.78923 Y31.33087
G01 X64.79403 Y31.28211
G01 X64.80825 Y31.23522
G01 X64.83134 Y31.19199
G01 X64.86243 Y31.15409
G01 X64.90033 Y31.12300
G01 X64.94356 Y31.09991
G01 X64.99045 Y31.08569
G01 X65.03921 Y31.08089
G01 X66.61401 Y31.08089
G01 X66.66278 Y31.08569
G01 X66.70970 Y31.09991
G01 X66.75290 Y31.12300
G01 X66.79080 Y31.15409
G01 X66.82189 Y31.19199
G01 X66.84498 Y31.23522
G01 X66.85923 Y31.28211
G01 X66.86403 Y31.33087
G01 X67.11391 Y31.33087
G01 X67.10431 Y31.23336
G01 X67.07586 Y31.13956
G01 X67.02966 Y31.05315
G01 X66.96751 Y30.97738
G01 X66.89174 Y30.91523
G01 X66.80533 Y30.86903
G01 X66.71155 Y30.84058
G01 X66.61401 Y30.83098
G01 X65.03921 Y30.83098
G01 X64.94170 Y30.84058
G01 X64.84790 Y30.86903
G01 X64.76149 Y30.91523
G01 X64.68572 Y30.97738
G01 X64.62357 Y31.05315
G01 X64.57737 Y31.13956
G01 X64.54892 Y31.23336
G01 X64.53932 Y31.33087
G01 X64.53932 Y31.36811
G01 X64.60173 Y31.43512
G01 X64.53932 Y31.36811
G01 X37.73193 Y31.36811
G01 X37.63414 Y31.37532
G01 X37.53802 Y31.39443
G01 X37.44493 Y31.42518
G01 X37.35738 Y31.46928
G01 X37.27590 Y31.52371
G01 X37.20165 Y31.58774
G01 X27.46179 Y41.32760
G01 X27.39776 Y41.40185
G01 X27.34333 Y41.48333
G01 X27.32021 Y41.52654
G01 X27.29923 Y41.57088
G01 X27.26847 Y41.66398
G01 X27.24937 Y41.76009
G01 X27.24216 Y41.85788
G01 X27.24216 Y49.41103
G01 X27.30975 Y49.47442
G01 X27.24216 Y49.41103
G01 X27.19078 Y49.41103
G01 X27.09324 Y49.42065
G01 X26.99946 Y49.44910
G01 X26.91305 Y49.49528
G01 X26.84572 Y49.55055
G01 X26.84572 Y52.17132
G01 X26.91305 Y52.22659
G01 X26.99946 Y52.27277
G01 X27.09324 Y52.30124
G01 X27.19078 Y52.31084
G01 X28.79077 Y52.31084
G01 X28.88831 Y52.30124
G01 X28.98209 Y52.27277
G01 X29.06850 Y52.22659
G01 X29.13581 Y52.17135
G01 X29.13581 Y49.55052
G01 X29.06850 Y49.49528
G01 X28.98209 Y49.44910
G01 X28.88831 Y49.42065
G01 X28.79077 Y49.41103
G01 X28.74195 Y49.41103
G01 X28.67447 Y49.47425
G01 X28.74195 Y49.41103
G01 X28.74195 Y42.16850
G01 X28.72293 Y42.16060
G01 X28.74195 Y42.16850
G01 X38.04255 Y32.86790
G01 X38.03465 Y32.84888
G01 X38.04255 Y32.86790
G01 X64.53932 Y32.86790
G01 X64.60178 Y32.80087
G01 X64.53932 Y32.86790
G01 X64.53932 Y32.90567
G01 X64.54892 Y33.00321
G01 X64.57737 Y33.09699
G01 X64.62357 Y33.18340
G01 X64.69235 Y33.26460
G01 X66.96088 Y33.26460
G01 X67.02966 Y33.18340
G01 X67.07586 Y33.09699
G01 X67.10431 Y33.00321
G01 X67.11391 Y32.90567
G01 X67.11391 Y33.87344
G01 X66.86403 Y33.87344
G01 X66.86403 Y35.44824
G01 X66.85923 Y35.49701
G01 X66.84498 Y35.54390
G01 X66.82189 Y35.58713
G01 X66.79080 Y35.62500
G01 X66.75290 Y35.65609
G01 X66.70970 Y35.67920
G01 X66.66278 Y35.69343
G01 X66.61401 Y35.69823
G01 X65.03921 Y35.69823
G01 X64.99045 Y35.69343
G01 X64.94356 Y35.67920
G01 X64.90033 Y35.65609
G01 X64.86243 Y35.62500
G01 X64.83134 Y35.58713
G01 X64.80825 Y35.54390
G01 X64.79403 Y35.49701
G01 X64.78923 Y35.44824
G01 X64.78923 Y35.16211
G01 X38.94679 Y35.16211
G01 X31.03207 Y43.07683
G01 X31.03207 Y49.66094
G01 X31.33077 Y49.66094
G01 X31.37954 Y49.66574
G01 X31.42645 Y49.67996
G01 X31.46966 Y49.70308
G01 X31.50756 Y49.73417
G01 X31.53865 Y49.77204
G01 X31.56174 Y49.81527
G01 X31.57598 Y49.86216
G01 X31.58079 Y49.91095
G01 X31.58079 Y51.81095
G01 X31.57598 Y51.85971
G01 X31.56174 Y51.90660
G01 X31.53865 Y51.94981
G01 X31.50756 Y51.98770
G01 X31.46966 Y52.01879
G01 X31.42645 Y52.04191
G01 X31.37954 Y52.05613
G01 X31.33077 Y52.06093
G01 X29.73078 Y52.06093
G01 X29.68201 Y52.05613
G01 X29.63509 Y52.04191
G01 X29.59189 Y52.01879
G01 X29.55399 Y51.98770
G01 X29.52290 Y51.94981
G01 X29.49981 Y51.90660
G01 X29.48559 Y51.85971
G01 X29.48079 Y51.81095
G01 X29.48079 Y49.91095
G01 X29.48559 Y49.86216
G01 X29.49981 Y49.81527
G01 X29.52290 Y49.77204
G01 X29.55399 Y49.73417
G01 X29.59189 Y49.70308
G01 X29.63509 Y49.67996
G01 X29.68201 Y49.66574
G01 X29.73078 Y49.66094
G01 X30.03205 Y49.66094
G01 X30.03205 Y42.86974
G01 X30.03807 Y42.79646
G01 X30.04762 Y42.74838
G01 X30.08061 Y42.65620
G01 X30.13093 Y42.57223
G01 X30.17850 Y42.51617
G01 X38.38613 Y34.30854
G01 X38.44219 Y34.26097
G01 X38.52616 Y34.21065
G01 X38.61834 Y34.17766
G01 X38.66642 Y34.16811
G01 X38.73970 Y34.16209
G01 X64.78923 Y34.16209
G01 X64.78923 Y33.87344
G01 X64.79403 Y33.82465
G01 X64.80825 Y33.77776
G01 X64.83134 Y33.73453
G01 X64.86243 Y33.69666
G01 X64.90033 Y33.66557
G01 X64.94356 Y33.64245
G01 X64.99045 Y33.62823
G01 X65.03921 Y33.62343
G01 X66.61401 Y33.62343
G01 X66.66278 Y33.62823
G01 X66.70970 Y33.64245
G01 X66.75290 Y33.66557
G01 X66.79080 Y33.69666
G01 X66.82189 Y33.73453
G01 X66.84498 Y33.77776
G01 X66.85923 Y33.82465
G01 X66.86403 Y33.87344
G01 X67.11391 Y33.87344
G01 X67.10431 Y33.77590
G01 X67.07586 Y33.68213
G01 X67.02966 Y33.59569
G01 X66.96085 Y33.51449
G01 X64.69238 Y33.51449
G01 X64.62357 Y33.59569
G01 X64.57737 Y33.68213
G01 X64.54892 Y33.77590
G01 X64.53932 Y33.87344
G01 X64.53932 Y33.91220
G01 X64.60185 Y33.97928
G01 X64.53932 Y33.91220
G01 X38.73970 Y33.91220
G01 X38.64191 Y33.91941
G01 X38.54580 Y33.93851
G01 X38.45270 Y33.96927
G01 X38.40836 Y33.99025
G01 X38.36515 Y34.01337
G01 X38.28367 Y34.06780
G01 X38.20942 Y34.13183
G01 X30.00179 Y42.33946
G01 X29.93776 Y42.41371
G01 X29.88333 Y42.49519
G01 X29.86021 Y42.53840
G01 X29.83923 Y42.58274
G01 X29.80847 Y42.67584
G01 X29.78937 Y42.77195
G01 X29.78216 Y42.86974
G01 X29.78216 Y49.41103
G01 X29.84975 Y49.47442
G01 X29.78216 Y49.41103
G01 X29.73078 Y49.41103
G01 X29.63324 Y49.42065
G01 X29.53946 Y49.44910
G01 X29.45305 Y49.49528
G01 X29.38572 Y49.55055
G01 X29.38572 Y52.17132
G01 X29.45305 Y52.22659
G01 X29.53946 Y52.27277
G01 X29.63324 Y52.30124
G01 X29.73078 Y52.31084
G01 X31.33077 Y52.31084
G01 X31.42831 Y52.30124
G01 X31.52209 Y52.27277
G01 X31.60850 Y52.22659
G01 X31.67581 Y52.17135
G01 X31.67581 Y49.55052
G01 X31.60850 Y49.49528
G01 X31.52209 Y49.44910
G01 X31.42831 Y49.42065
G01 X31.33077 Y49.41103
G01 X31.28195 Y49.41103
G01 X31.21447 Y49.47425
G01 X31.28195 Y49.41103
G01 X31.28195 Y43.18036
G01 X31.26293 Y43.17246
G01 X31.28195 Y43.18036
G01 X39.05032 Y35.41199
G01 X39.04242 Y35.39297
G01 X39.05032 Y35.41199
G01 X64.53932 Y35.41199
G01 X64.60165 Y35.34501
G01 X64.53932 Y35.41199
G01 X64.53932 Y35.44824
G01 X64.54892 Y35.54575
G01 X64.57737 Y35.63953
G01 X64.62357 Y35.72596
G01 X64.69390 Y35.80841
G01 X66.95933 Y35.80841
G01 X67.02966 Y35.72596
G01 X67.07586 Y35.63953
G01 X67.10431 Y35.54575
G01 X67.11391 Y35.44824
G04 P0 ( dwell for no time -- G64 should not smooth over this point )
G00 Z5.00000 ( retract )

G00 X65.30871 Y26.71188 ( rapid move to begin. )
G01 F75.00000
( Mill infeed pass 1/1 )
G01 Z-0.10000
G04 P0 ( dwell for no time -- G64 should not smooth over this point )
G01 F75.00000
G01 X65.30871 Y26.71188
G01 X64.92227 Y26.71188
G01 X64.84717 Y26.68910
G01 X64.76073 Y26.64290
G01 X64.68499 Y26.58074
G01 X64.62281 Y26.50498
G01 X64.57660 Y26.41857
G01 X64.54816 Y26.32476
G01 X64.53856 Y26.19593
G01 X64.60084 Y26.12855
G01 X64.53856 Y26.19593
G01 X62.31067 Y26.20533
G01 X62.24280 Y26.13558
G01 X62.31067 Y26.20533
G01 X62.31067 Y26.41095
G01 X62.30107 Y26.50843
G01 X62.27262 Y26.60221
G01 X62.22642 Y26.68867
G01 X62.16426 Y26.76441
G01 X62.08850 Y26.82659
G01 X62.00209 Y26.87279
G01 X61.90831 Y26.90124
G01 X61.81077 Y26.91084
G01 X60.21078 Y26.91084
G01 X60.11324 Y26.90124
G01 X60.01946 Y26.87279
G01 X59.93305 Y26.82659
G01 X59.85728 Y26.76441
G01 X59.79513 Y26.68867
G01 X59.74893 Y26.60221
G01 X59.74077 Y26.57533
G01 X59.74077 Y26.24745
G01 X59.74077 Y26.57533
G01 X59.73262 Y26.60221
G01 X59.68642 Y26.68867
G01 X59.62426 Y26.76441
G01 X59.54850 Y26.82659
G01 X59.46209 Y26.87279
G01 X59.36831 Y26.90124
G01 X59.27077 Y26.91084
G01 X57.67078 Y26.91084
G01 X57.57324 Y26.90124
G01 X57.47946 Y26.87279
G01 X57.39305 Y26.82659
G01 X57.32572 Y26.77132
G01 X57.32572 Y24.15055
G01 X57.39305 Y24.09528
G01 X57.47946 Y24.04910
G01 X57.57324 Y24.02065
G01 X57.67078 Y24.01103
G01 X57.72086 Y24.01103
G01 X57.78840 Y24.07432
G01 X57.72086 Y24.01103
G01 X57.72086 Y21.25797
G01 X57.73989 Y21.25007
G01 X57.72086 Y21.25797
G01 X56.89778 Y20.43488
G01 X56.90568 Y20.41586
G01 X56.89778 Y20.43488
G01 X44.62988 Y20.43488
G01 X44.56659 Y20.36735
G01 X44.62988 Y20.43488
G01 X44.62988 Y20.48500
G01 X44.62028 Y20.58251
G01 X44.59183 Y20.67629
G01 X44.54563 Y20.76272
G01 X44.48348 Y20.83846
G01 X44.40771 Y20.90064
G01 X44.32130 Y20.94685
G01 X44.22752 Y20.97529
G01 X44.12999 Y20.98490
G01 X42.22999 Y20.98490
G01 X42.13245 Y20.97529
G01 X42.03868 Y20.94685
G01 X41.95227 Y20.90064
G01 X41.87650 Y20.83846
G01 X41.81434 Y20.76272
G01 X41.76814 Y20.67629
G01 X41.73969 Y20.58251
G01 X41.73009 Y20.48500
G01 X41.73009 Y18.88498
G01 X41.73969 Y18.78747
G01 X41.76814 Y18.69369
G01 X41.81434 Y18.60725
G01 X41.86959 Y18.53992
G01 X44.49039 Y18.53992
G01 X44.54563 Y18.60725
G01 X44.59183 Y18.69369
G01 X44.62028 Y18.78747
G01 X44.62988 Y18.88498
G01 X44.62988 Y18.93509
G01 X44.56659 Y19.00263
G01 X44.62988 Y18.93509
G01 X57.20842 Y18.93509
G01 X57.35470 Y18.94949
G01 X57.44919 Y18.97565
G01 X57.53974 Y19.01314
G01 X57.62503 Y19.06148
G01 X57.73867 Y19.15472
G01 X59.00102 Y20.41708
G01 X59.06506 Y20.49132
G01 X59.11949 Y20.57281
G01 X59.16358 Y20.66036
G01 X59.20626 Y20.80105
G01 X59.22066 Y20.94735
G01 X59.22066 Y24.01103
G01 X59.15312 Y24.07432
G01 X59.22066 Y24.01103
G01 X59.27077 Y24.01103
G01 X59.36831 Y24.02065
G01 X59.46209 Y24.04910
G01 X59.54850 Y24.09528
G01 X59.62426 Y24.15746
G01 X59.68642 Y24.23320
G01 X59.73262 Y24.31964
G01 X59.74077 Y24.34651
G01 X59.74077 Y24.67442
G01 X59.74077 Y24.34651
G01 X59.74893 Y24.31964
G01 X59.79513 Y24.23320
G01 X59.85728 Y24.15746
G01 X59.93305 Y24.09528
G01 X60.01946 Y24.04910
G01 X60.11324 Y24.02065
G01 X60.21078 Y24.01103
G01 X61.81077 Y24.01103
G01 X61.90831 Y24.02065
G01 X62.00209 Y24.04910
G01 X62.08850 Y24.09528
G01 X62.16426 Y24.15746
G01 X62.22642 Y24.23320
G01 X62.27262 Y24.31964
G01 X62.30107 Y24.41341
G01 X62.31067 Y24.51095
G01 X62.31067 Y24.70551
G01 X62.24229 Y24.77651
G01 X62.31067 Y24.70551
G01 X64.53856 Y24.69612
G01 X64.60112 Y24.76279
G01 X64.53856 Y24.69612
G01 X64.53856 Y24.65245
G01 X64.54816 Y24.55494
G01 X64.57660 Y24.46117
G01 X64.62281 Y24.37473
G01 X64.68499 Y24.29899
G01 X64.76073 Y24.23681
G01 X64.84717 Y24.19060
G01 X64.92225 Y24.16782
G01 X65.30868 Y24.16782
G01 X64.92225 Y24.16782
G01 X64.84717 Y24.14504
G01 X64.76073 Y24.09886
G01 X64.68499 Y24.03668
G01 X64.62281 Y23.96094
G01 X64.57660 Y23.87450
G01 X64.54816 Y23.78072
G01 X64.53856 Y23.68319
G01 X64.53856 Y22.10839
G01 X64.54816 Y22.01088
G01 X64.57660 Y21.91710
G01 X64.62281 Y21.83066
G01 X64.68499 Y21.75492
G01 X64.76073 Y21.69274
G01 X64.84717 Y21.64654
G01 X64.94094 Y21.61809
G01 X65.03845 Y21.60849
G01 X66.61325 Y21.60849
G01 X66.71079 Y21.61809
G01 X66.80457 Y21.64654
G01 X66.89098 Y21.69274
G01 X66.96674 Y21.75492
G01 X67.02890 Y21.83066
G01 X67.07510 Y21.91710
G01 X67.10355 Y22.01088
G01 X67.11315 Y22.10839
G01 X66.86326 Y22.10839
G01 X66.85846 Y22.05962
G01 X66.84421 Y22.01273
G01 X66.82113 Y21.96950
G01 X66.79004 Y21.93163
G01 X66.75214 Y21.90054
G01 X66.70893 Y21.87743
G01 X66.66202 Y21.86320
G01 X66.61325 Y21.85840
G01 X65.03845 Y21.85840
G01 X64.98968 Y21.86320
G01 X64.94280 Y21.87743
G01 X64.89957 Y21.90054
G01 X64.86167 Y21.93163
G01 X64.83058 Y21.96950
G01 X64.80749 Y22.01273
G01 X64.79327 Y22.05962
G01 X64.78847 Y22.10839
G01 X64.78847 Y23.68319
G01 X64.79327 Y23.73198
G01 X64.80749 Y23.77887
G01 X64.83058 Y23.82210
G01 X64.86167 Y23.85997
G01 X64.89957 Y23.89106
G01 X64.94280 Y23.91418
G01 X64.98968 Y23.92840
G01 X65.03845 Y23.93320
G01 X65.32557 Y23.93320
G01 X65.32557 Y24.40247
G01 X65.03845 Y24.40247
G01 X64.98968 Y24.40727
G01 X64.94280 Y24.42149
G01 X64.89957 Y24.44458
G01 X64.86167 Y24.47567
G01 X64.83058 Y24.51357
G01 X64.80749 Y24.55680
G01 X64.79327 Y24.60368
G01 X64.78847 Y24.65245
G01 X64.78847 Y24.94496
G01 X62.06079 Y24.95649
G01 X62.06079 Y24.51095
G01 X62.05598 Y24.46216
G01 X62.04174 Y24.41527
G01 X62.01865 Y24.37204
G01 X61.98756 Y24.33417
G01 X61.94966 Y24.30308
G01 X61.90645 Y24.27996
G01 X61.85954 Y24.26574
G01 X61.81077 Y24.26094
G01 X60.21078 Y24.26094
G01 X60.16201 Y24.26574
G01 X60.11509 Y24.27996
G01 X60.07189 Y24.30308
G01 X60.03399 Y24.33417
G01 X60.00290 Y24.37204
G01 X59.97981 Y24.41527
G01 X59.96559 Y24.46216
G01 X59.96079 Y24.51095
G01 X59.96079 Y24.95989
G01 X59.52079 Y24.95989
G01 X59.52079 Y24.51095
G01 X59.51598 Y24.46216
G01 X59.50174 Y24.41527
G01 X59.47865 Y24.37204
G01 X59.44756 Y24.33417
G01 X59.40966 Y24.30308
G01 X59.36645 Y24.27996
G01 X59.31954 Y24.26574
G01 X59.27077 Y24.26094
G01 X58.97077 Y24.26094
G01 X58.97077 Y20.94735
G01 X58.96115 Y20.84979
G01 X58.93270 Y20.75599
G01 X58.89912 Y20.69061
G01 X58.87189 Y20.64984
G01 X58.82432 Y20.59379
G01 X57.56196 Y19.33143
G01 X57.48619 Y19.26925
G01 X57.42193 Y19.23354
G01 X57.37664 Y19.21477
G01 X57.30596 Y19.19460
G01 X57.20842 Y19.18498
G01 X44.38000 Y19.18498
G01 X44.38000 Y18.88498
G01 X44.37517 Y18.83621
G01 X44.36095 Y18.78932
G01 X44.33786 Y18.74609
G01 X44.30677 Y18.70822
G01 X44.26887 Y18.67713
G01 X44.22567 Y18.65401
G01 X44.17875 Y18.63979
G01 X44.12999 Y18.63499
G01 X42.22999 Y18.63499
G01 X42.18122 Y18.63979
G01 X42.13431 Y18.65401
G01 X42.09110 Y18.67713
G01 X42.05321 Y18.70822
G01 X42.02212 Y18.74609
G01 X41.99903 Y18.78932
G01 X41.98480 Y18.83621
G01 X41.97998 Y18.88498
G01 X41.97998 Y20.48500
G01 X41.98480 Y20.53377
G01 X41.99903 Y20.58065
G01 X42.02212 Y20.62389
G01 X42.05321 Y20.66176
G01 X42.09110 Y20.69285
G01 X42.13431 Y20.71596
G01 X42.18122 Y20.73018
G01 X42.22999 Y20.73499
G01 X44.12999 Y20.73499
G01 X44.17875 Y20.73018
G01 X44.22567 Y20.71596
G01 X44.26887 Y20.69285
G01 X44.30677 Y20.66176
G01 X44.33786 Y20.62389
G01 X44.36095 Y20.58065
G01 X44.37517 Y20.53377
G01 X44.38000 Y20.48500
G01 X44.38000 Y20.18500
G01 X57.00131 Y20.18500
G01 X57.97075 Y21.15444
G01 X57.97075 Y24.26094
G01 X57.67078 Y24.26094
G01 X57.62201 Y24.26574
G01 X57.57509 Y24.27996
G01 X57.53189 Y24.30308
G01 X57.49399 Y24.33417
G01 X57.46290 Y24.37204
G01 X57.43981 Y24.41527
G01 X57.42559 Y24.46216
G01 X57.42079 Y24.51095
G01 X57.42079 Y26.41095
G01 X57.42559 Y26.45969
G01 X57.43981 Y26.50658
G01 X57.46290 Y26.54983
G01 X57.49399 Y26.58768
G01 X57.53189 Y26.61879
G01 X57.57509 Y26.64191
G01 X57.62201 Y26.65613
G01 X57.67078 Y26.66093
G01 X59.27077 Y26.66093
G01 X59.31954 Y26.65613
G01 X59.36645 Y26.64191
G01 X59.40966 Y26.61879
G01 X59.44756 Y26.58768
G01 X59.47865 Y26.54983
G01 X59.50174 Y26.50658
G01 X59.51598 Y26.45969
G01 X59.52079 Y26.41095
G01 X59.52079 Y25.95992
G01 X59.96079 Y25.95992
G01 X59.96079 Y26.41095
G01 X59.96559 Y26.45969
G01 X59.97981 Y26.50658
G01 X60.00290 Y26.54983
G01 X60.03399 Y26.58768
G01 X60.07189 Y26.61879
G01 X60.11509 Y26.64191
G01 X60.16201 Y26.65613
G01 X60.21078 Y26.66093
G01 X61.81077 Y26.66093
G01 X61.85954 Y26.65613
G01 X61.90645 Y26.64191
G01 X61.94966 Y26.61879
G01 X61.98756 Y26.58768
G01 X62.01865 Y26.54983
G01 X62.04174 Y26.50658
G01 X62.05598 Y26.45969
G01 X62.06079 Y26.41095
G01 X62.06079 Y25.95649
G01 X64.78847 Y25.94496
G01 X64.78847 Y26.22725
G01 X64.79327 Y26.27602
G01 X64.80749 Y26.32291
G01 X64.83058 Y26.36614
G01 X64.86167 Y26.40401
G01 X64.89957 Y26.43513
G01 X64.94280 Y26.45821
G01 X64.98968 Y26.47244
G01 X65.03845 Y26.47724
G01 X65.32557 Y26.47724
G01 X65.32557 Y26.94653
G01 X65.03845 Y26.94653
G01 X64.98968 Y26.95133
G01 X64.94280 Y26.96555
G01 X64.89957 Y26.98867
G01 X64.86167 Y27.01976
G01 X64.83058 Y27.05763
G01 X64.80749 Y27.10086
G01 X64.79327 Y27.14775
G01 X64.78847 Y27.19652
G01 X64.78847 Y28.77132
G01 X64.79327 Y28.82011
G01 X64.80749 Y28.86700
G01 X64.83058 Y28.91023
G01 X64.86167 Y28.94810
G01 X64.89957 Y28.97919
G01 X64.94280 Y29.00230
G01 X64.98968 Y29.01653
G01 X65.03845 Y29.02133
G01 X66.61325 Y29.02133
G01 X66.66202 Y29.01653
G01 X66.70893 Y29.00230
G01 X66.75214 Y28.97919
G01 X66.79004 Y28.94810
G01 X66.82113 Y28.91023
G01 X66.84421 Y28.86700
G01 X66.85846 Y28.82011
G01 X66.86326 Y28.77132
G01 X66.86326 Y27.19652
G01 X66.85846 Y27.14775
G01 X66.84421 Y27.10086
G01 X66.82113 Y27.05763
G01 X66.79004 Y27.01976
G01 X66.75214 Y26.98867
G01 X66.70893 Y26.96555
G01 X66.66202 Y26.95133
G01 X66.61325 Y26.94653
G01 X66.32560 Y26.94653
G01 X66.32560 Y26.47724
G01 X66.61325 Y26.47724
G01 X66.66202 Y26.47244
G01 X66.70893 Y26.45821
G01 X66.75214 Y26.43513
G01 X66.79004 Y26.40401
G01 X66.82113 Y26.36614
G01 X66.84421 Y26.32291
G01 X66.85846 Y26.27602
G01 X66.86326 Y26.22725
G01 X66.86326 Y24.65245
G01 X66.85846 Y24.60368
G01 X66.84421 Y24.55680
G01 X66.82113 Y24.51357
G01 X66.79004 Y24.47567
G01 X66.75214 Y24.44458
G01 X66.70893 Y24.42149
G01 X66.66202 Y24.40727
G01 X66.61325 Y24.40247
G01 X66.32560 Y24.40247
G01 X66.32560 Y23.93320
G01 X66.61325 Y23.93320
G01 X66.66202 Y23.92840
G01 X66.70893 Y23.91418
G01 X66.75214 Y23.89106
G01 X66.79004 Y23.85997
G01 X66.82113 Y23.82210
G01 X66.84421 Y23.77887
G01 X66.85846 Y23.73198
G01 X66.86326 Y23.68319
G01 X66.86326 Y22.10839
G01 X67.11315 Y22.10839
G01 X67.11315 Y23.68319
G01 X67.10355 Y23.78072
G01 X67.07510 Y23.87450
G01 X67.02890 Y23.96094
G01 X66.96674 Y24.03668
G01 X66.89098 Y24.09886
G01 X66.80457 Y24.14504
G01 X66.72946 Y24.16782
G01 X66.34302 Y24.16782
G01 X66.72946 Y24.16782
G01 X66.80457 Y24.19060
G01 X66.89098 Y24.23681
G01 X66.96674 Y24.29899
G01 X67.02890 Y24.37473
G01 X67.07510 Y24.46117
G01 X67.10355 Y24.55494
G01 X67.11315 Y24.65245
G01 X67.11315 Y26.22725
G01 X67.10355 Y26.32476
G01 X67.07510 Y26.41857
G01 X67.02890 Y26.50498
G01 X66.96674 Y26.58074
G01 X66.89098 Y26.64290
G01 X66.80457 Y26.68910
G01 X66.72943 Y26.71188
G01 X66.34300 Y26.71188
G01 X66.72943 Y26.71188
G01 X66.80457 Y26.73467
G01 X66.89098 Y26.78087
G01 X66.96674 Y26.84305
G01 X67.02890 Y26.91879
G01 X67.07510 Y27.00523
G01 X67.10355 Y27.09901
G01 X67.11315 Y27.19652
G01 X67.11315 Y28.77132
G01 X67.10355 Y28.86885
G01 X67.07510 Y28.96263
G01 X67.02890 Y29.04907
G01 X66.96674 Y29.12481
G01 X66.89098 Y29.18699
G01 X66.80457 Y29.23316
G01 X66.71079 Y29.26161
G01 X66.61325 Y29.27124
G01 X65.03845 Y29.27124
G01 X64.94094 Y29.26161
G01 X64.84717 Y29.23316
G01 X64.76073 Y29.18699
G01 X64.68499 Y29.12481
G01 X64.62281 Y29.04907
G01 X64.57660 Y28.96263
G01 X64.54816 Y28.86885
G01 X64.53856 Y28.77132
G01 X64.53856 Y27.19652
G01 X64.54816 Y27.09901
G01 X64.57660 Y27.00523
G01 X64.62281 Y26.91879
G01 X64.68499 Y26.84305
G01 X64.76073 Y26.78087
G01 X64.84717 Y26.73467
G01 X64.92227 Y26.71188
G04 P0 ( dwell for no time -- G64 should not smooth over this point )
G00 Z5.00000 ( retract )

G00 X56.98079 Y24.51095 ( rapid move to begin. )
G01 F75.00000
( Mill infeed pass 1/1 )
G01 Z-0.10000
G04 P0 ( dwell for no time -- G64 should not smooth over this point )
G01 F75.00000
G01 X56.98079 Y24.51095
G01 X56.98079 Y26.41095
G01 X56.97598 Y26.45969
G01 X56.96174 Y26.50658
G01 X56.93865 Y26.54983
G01 X56.90756 Y26.58768
G01 X56.86966 Y26.61879
G01 X56.82645 Y26.64191
G01 X56.77954 Y26.65613
G01 X56.73077 Y26.66093
G01 X55.13078 Y26.66093
G01 X55.08201 Y26.65613
G01 X55.03509 Y26.64191
G01 X54.99189 Y26.61879
G01 X54.95399 Y26.58768
G01 X54.92290 Y26.54983
G01 X54.89981 Y26.50658
G01 X54.88559 Y26.45969
G01 X54.88079 Y26.41095
G01 X54.88079 Y24.51095
G01 X54.88559 Y24.46216
G01 X54.89981 Y24.41527
G01 X54.92290 Y24.37204
G01 X54.95399 Y24.33417
G01 X54.99189 Y24.30308
G01 X55.03509 Y24.27996
G01 X55.08201 Y24.26574
G01 X55.13078 Y24.26094
G01 X56.73077 Y24.26094
G01 X56.77954 Y24.26574
G01 X56.82645 Y24.27996
G01 X56.86966 Y24.30308
G01 X56.90756 Y24.33417
G01 X56.93865 Y24.37204
G01 X56.96174 Y24.41527
G01 X56.97598 Y24.46216
G01 X56.98079 Y24.51095
G01 X57.07581 Y24.15052
G01 X57.00850 Y24.09528
G01 X56.92209 Y24.04910
G01 X56.82831 Y24.02065
G01 X56.73077 Y24.01103
G01 X55.13078 Y24.01103
G01 X55.03324 Y24.02065
G01 X54.93946 Y24.04910
G01 X54.85305 Y24.09528
G01 X54.78572 Y24.15055
G01 X54.78572 Y26.77132
G01 X54.85305 Y26.82659
G01 X54.93946 Y26.87279
G01 X55.03324 Y26.90124
G01 X55.13078 Y26.91084
G01 X56.73077 Y26.91084
G01 X56.82831 Y26.90124
G01 X56.92209 Y26.87279
G01 X57.00850 Y26.82659
G01 X57.07581 Y26.77135
G01 X57.07581 Y24.15052
G01 X54.53581 Y24.15052
G01 X54.53581 Y26.77135
G01 X54.46850 Y26.82659
G01 X54.38209 Y26.87279
G01 X54.28831 Y26.90124
G01 X54.19077 Y26.91084
G01 X52.59078 Y26.91084
G01 X52.49324 Y26.90124
G01 X52.39946 Y26.87279
G01 X52.31305 Y26.82659
G01 X52.24572 Y26.77132
G01 X52.24572 Y24.15055
G01 X52.31305 Y24.09528
G01 X52.39946 Y24.04910
G01 X52.49324 Y24.02065
G01 X52.59078 Y24.01103
G01 X54.19077 Y24.01103
G01 X54.28831 Y24.02065
G01 X54.38209 Y24.04910
G01 X54.46850 Y24.09528
G01 X54.53581 Y24.15052
G01 X54.44079 Y24.51095
G01 X54.44079 Y26.41095
G01 X54.43598 Y26.45969
G01 X54.42174 Y26.50658
G01 X54.39865 Y26.54983
G01 X54.36756 Y26.58768
G01 X54.32966 Y26.61879
G01 X54.28645 Y26.64191
G01 X54.23954 Y26.65613
G01 X54.19077 Y26.66093
G01 X52.59078 Y26.66093
G01 X52.54198 Y26.65613
G01 X52.49509 Y26.64191
G01 X52.45189 Y26.61879
G01 X52.41399 Y26.58768
G01 X52.38290 Y26.54983
G01 X52.35981 Y26.50658
G01 X52.34556 Y26.45969
G01 X52.34079 Y26.41095
G01 X52.34079 Y24.51095
G01 X52.34556 Y24.46216
G01 X52.35981 Y24.41527
G01 X52.38290 Y24.37204
G01 X52.41399 Y24.33417
G01 X52.45189 Y24.30308
G01 X52.49509 Y24.27996
G01 X52.54198 Y24.26574
G01 X52.59078 Y24.26094
G01 X54.19077 Y24.26094
G01 X54.23954 Y24.26574
G01 X54.28645 Y24.27996
G01 X54.32966 Y24.30308
G01 X54.36756 Y24.33417
G01 X54.39865 Y24.37204
G01 X54.42174 Y24.41527
G01 X54.43598 Y24.46216
G01 X54.44079 Y24.51095
G01 X54.53581 Y24.15052
G01 X51.99581 Y24.15052
G01 X51.99581 Y26.77135
G01 X51.92850 Y26.82659
G01 X51.84209 Y26.87279
G01 X51.74831 Y26.90124
G01 X51.65075 Y26.91084
G01 X50.05078 Y26.91084
G01 X49.95324 Y26.90124
G01 X49.85946 Y26.87279
G01 X49.77305 Y26.82659
G01 X49.70572 Y26.77132
G01 X49.70572 Y24.15055
G01 X49.77305 Y24.09528
G01 X49.85946 Y24.04910
G01 X49.95324 Y24.02065
G01 X50.05078 Y24.01103
G01 X51.65075 Y24.01103
G01 X51.74831 Y24.02065
G01 X51.84209 Y24.04910
G01 X51.92850 Y24.09528
G01 X51.99581 Y24.15052
G01 X51.90076 Y24.51095
G01 X51.90076 Y26.41095
G01 X51.89598 Y26.45969
G01 X51.88171 Y26.50658
G01 X51.85862 Y26.54983
G01 X51.82756 Y26.58768
G01 X51.78963 Y26.61879
G01 X51.74645 Y26.64191
G01 X51.69954 Y26.65613
G01 X51.65075 Y26.66093
G01 X50.05078 Y26.66093
G01 X50.00201 Y26.65613
G01 X49.95509 Y26.64191
G01 X49.91189 Y26.61879
G01 X49.87399 Y26.58768
G01 X49.84290 Y26.54983
G01 X49.81981 Y26.50658
G01 X49.80559 Y26.45969
G01 X49.80079 Y26.41095
G01 X49.80079 Y24.51095
G01 X49.80559 Y24.46216
G01 X49.81981 Y24.41527
G01 X49.84290 Y24.37204
G01 X49.87399 Y24.33417
G01 X49.91189 Y24.30308
G01 X49.95509 Y24.27996
G01 X50.00201 Y24.26574
G01 X50.05078 Y24.26094
G01 X51.65075 Y24.26094
G01 X51.69954 Y24.26574
G01 X51.74645 Y24.27996
G01 X51.78963 Y24.30308
G01 X51.82756 Y24.33417
G01 X51.85862 Y24.37204
G01 X51.88171 Y24.41527
G01 X51.89598 Y24.46216
G01 X51.90076 Y24.51095
G01 X51.99581 Y24.15052
G01 X49.45581 Y24.15052
G01 X49.45581 Y26.77135
G01 X49.38850 Y26.82659
G01 X49.30209 Y26.87279
G01 X49.20831 Y26.90124
G01 X49.11077 Y26.91084
G01 X47.51078 Y26.91084
G01 X47.41324 Y26.90124
G01 X47.31946 Y26.87279
G01 X47.23305 Y26.82659
G01 X47.16572 Y26.77132
G01 X47.16572 Y24.15055
G01 X47.23305 Y24.09528
G01 X47.31946 Y24.04910
G01 X47.41324 Y24.02065
G01 X47.51078 Y24.01103
G01 X49.11077 Y24.01103
G01 X49.20831 Y24.02065
G01 X49.30209 Y24.04910
G01 X49.38850 Y24.09528
G01 X49.45581 Y24.15052
G01 X49.36079 Y24.51095
G01 X49.36079 Y26.41095
G01 X49.35598 Y26.45969
G01 X49.34174 Y26.50658
G01 X49.31865 Y26.54983
G01 X49.28756 Y26.58768
G01 X49.24966 Y26.61879
G01 X49.20645 Y26.64191
G01 X49.15954 Y26.65613
G01 X49.11077 Y26.66093
G01 X47.51078 Y26.66093
G01 X47.46201 Y26.65613
G01 X47.41509 Y26.64191
G01 X47.37189 Y26.61879
G01 X47.33399 Y26.58768
G01 X47.30290 Y26.54983
G01 X47.27981 Y26.50658
G01 X47.26559 Y26.45969
G01 X47.26079 Y26.41095
G01 X47.26079 Y24.51095
G01 X47.26559 Y24.46216
G01 X47.27981 Y24.41527
G01 X47.30290 Y24.37204
G01 X47.33399 Y24.33417
G01 X47.37189 Y24.30308
G01 X47.41509 Y24.27996
G01 X47.46201 Y24.26574
G01 X47.51078 Y24.26094
G01 X49.11077 Y24.26094
G01 X49.15954 Y24.26574
G01 X49.20645 Y24.27996
G01 X49.24966 Y24.30308
G01 X49.28756 Y24.33417
G01 X49.31865 Y24.37204
G01 X49.34174 Y24.41527
G01 X49.35598 Y24.46216
G01 X49.36079 Y24.51095
G01 X49.45581 Y24.15052
G01 X46.91581 Y24.15052
G01 X46.91581 Y26.77135
G01 X46.84850 Y26.82659
G01 X46.76209 Y26.87279
G01 X46.66831 Y26.90124
G01 X46.57077 Y26.91084
G01 X44.97078 Y26.91084
G01 X44.87324 Y26.90124
G01 X44.77946 Y26.87279
G01 X44.69305 Y26.82659
G01 X44.62572 Y26.77132
G01 X44.62572 Y24.15055
G01 X44.69305 Y24.09528
G01 X44.77946 Y24.04910
G01 X44.87324 Y24.02065
G01 X44.97078 Y24.01103
G01 X46.57077 Y24.01103
G01 X46.66831 Y24.02065
G01 X46.76209 Y24.04910
G01 X46.84850 Y24.09528
G01 X46.91581 Y24.15052
G01 X46.82079 Y24.51095
G01 X46.82079 Y26.41095
G01 X46.81598 Y26.45969
G01 X46.80174 Y26.50658
G01 X46.77865 Y26.54983
G01 X46.74756 Y26.58768
G01 X46.70966 Y26.61879
G01 X46.66645 Y26.64191
G01 X46.61954 Y26.65613
G01 X46.57077 Y26.66093
G01 X44.97078 Y26.66093
G01 X44.92201 Y26.65613
G01 X44.87509 Y26.64191
G01 X44.83189 Y26.61879
G01 X44.79399 Y26.58768
G01 X44.76290 Y26.54983
G01 X44.73981 Y26.50658
G01 X44.72559 Y26.45969
G01 X44.72079 Y26.41095
G01 X44.72079 Y24.51095
G01 X44.72559 Y24.46216
G01 X44.73981 Y24.41527
G01 X44.76290 Y24.37204
G01 X44.79399 Y24.33417
G01 X44.83189 Y24.30308
G01 X44.87509 Y24.27996
G01 X44.92201 Y24.26574
G01 X44.97078 Y24.26094
G01 X46.57077 Y24.26094
G01 X46.61954 Y24.26574
G01 X46.66645 Y24.27996
G01 X46.70966 Y24.30308
G01 X46.74756 Y24.33417
G01 X46.77865 Y24.37204
G01 X46.80174 Y24.41527
G01 X46.81598 Y24.46216
G01 X46.82079 Y24.51095
G01 X46.91581 Y24.15052
G01 X44.37581 Y24.15052
G01 X44.37581 Y26.77135
G01 X44.30850 Y26.82659
G01 X44.22209 Y26.87279
G01 X44.12831 Y26.90124
G01 X44.03077 Y26.91084
G01 X42.43078 Y26.91084
G01 X42.33324 Y26.90124
G01 X42.23946 Y26.87279
G01 X42.15305 Y26.82659
G01 X42.08572 Y26.77132
G01 X42.08572 Y24.15055
G01 X42.15305 Y24.09528
G01 X42.23946 Y24.04910
G01 X42.33324 Y24.02065
G01 X42.43078 Y24.01103
G01 X44.03077 Y24.01103
G01 X44.12831 Y24.02065
G01 X44.22209 Y24.04910
G01 X44.30850 Y24.09528
G01 X44.37581 Y24.15052
G01 X44.28079 Y24.51095
G01 X44.28079 Y26.41095
G01 X44.27598 Y26.45969
G01 X44.26174 Y26.50658
G01 X44.23865 Y26.54983
G01 X44.20756 Y26.58768
G01 X44.16966 Y26.61879
G01 X44.12645 Y26.64191
G01 X44.07954 Y26.65613
G01 X44.03077 Y26.66093
G01 X42.43078 Y26.66093
G01 X42.38201 Y26.65613
G01 X42.33509 Y26.64191
G01 X42.29189 Y26.61879
G01 X42.25399 Y26.58768
G01 X42.22290 Y26.54983
G01 X42.19981 Y26.50658
G01 X42.18559 Y26.45969
G01 X42.18079 Y26.41095
G01 X42.18079 Y24.51095
G01 X42.18559 Y24.46216
G01 X42.19981 Y24.41527
G01 X42.22290 Y24.37204
G01 X42.25399 Y24.33417
G01 X42.29189 Y24.30308
G01 X42.33509 Y24.27996
G01 X42.38201 Y24.26574
