( pcb2gcode 2.5.0 )
( Software-independent Gcode )

G94 ( Millimeters per minute feed rate. )
G21 ( Units == Millimeters. )

G90 ( Absolute coordinates. )
G00 S10000 ( RPM spindle speed. )
G01 F200.00000 ( Feedrate. )


G00 Z35.00000 (Retract to tool change height)
T0
M5      (Spindle stop.)
G04 P1.00000 (Wait for spindle to stop)
(MSG, Change tool bit to mill diameter 0.30000mm)
M0      (Temporary machine stop.)
M3 ( Spindle on clockwise. )
G04 P1.00000 (Wait for spindle to get up to speed)
G04 P0 ( dwell for no time -- G64 should not smooth over this point )
G00 Z5.00000 ( retract )

G00 X54.74248 Y22.96663 ( rapid move to begin. )
G01 F200.00000
( Mill infeed pass 1/1 )
G01 Z-0.15000
G04 P0 ( dwell for no time -- G64 should not smooth over this point )
G01 F200.00000
G01 X54.74248 Y22.96663
G01 X54.73402 Y23.03399
G01 X54.73402 Y23.28398
G01 X54.77545 Y23.32650
G01 X54.73402 Y23.28398
G01 X54.39399 Y23.28398
G01 X54.35279 Y23.32639
G01 X54.39399 Y23.28398
G01 X54.39399 Y23.03399
G01 X54.38477 Y22.96401
G01 X54.32607 Y22.89442
G01 X54.38477 Y22.96401
G01 X54.46656 Y22.99017
G01 X54.50542 Y22.99576
G01 X54.54469 Y22.99622
G01 X54.64169 Y22.99101
G01 X54.69981 Y22.98212
G01 X54.74248 Y22.96663
G01 X54.79775 Y22.90417
G01 X55.43402 Y22.68398
G01 X55.43402 Y22.88398
G01 X55.03402 Y22.88398
G01 X55.00476 Y22.88687
G01 X54.97662 Y22.89541
G01 X54.95068 Y22.90928
G01 X54.92795 Y22.92792
G01 X54.90928 Y22.95065
G01 X54.89544 Y22.97659
G01 X54.88690 Y23.00473
G01 X54.88401 Y23.03399
G01 X54.88401 Y23.43396
G01 X54.24400 Y23.43396
G01 X54.24400 Y23.03399
G01 X54.24113 Y23.00473
G01 X54.23260 Y22.97659
G01 X54.21873 Y22.95065
G01 X54.20009 Y22.92792
G01 X54.17735 Y22.90928
G01 X54.15142 Y22.89541
G01 X54.12328 Y22.88687
G01 X54.09402 Y22.88398
G01 X53.69402 Y22.88398
G01 X53.69402 Y22.68398
G01 X54.13382 Y22.68398
G01 X54.16663 Y22.68751
G01 X54.26432 Y22.72393
G01 X54.34847 Y22.78543
G01 X54.38706 Y22.80577
G01 X54.49757 Y22.84341
G01 X54.53664 Y22.84646
G01 X54.63364 Y22.84125
G01 X54.66270 Y22.83681
G01 X54.69033 Y22.82678
G01 X54.77799 Y22.78484
G01 X54.86458 Y22.72363
G01 X54.96143 Y22.68751
G01 X54.99424 Y22.68398
G01 X55.43402 Y22.68398
G04 P0 ( dwell for no time -- G64 should not smooth over this point )
G00 Z5.00000 ( retract )

G00 X56.98403 Y22.99419 ( rapid move to begin. )
G01 F200.00000
( Mill infeed pass 1/1 )
G01 Z-0.15000
G04 P0 ( dwell for no time -- G64 should not smooth over this point )
G01 F200.00000
G01 X56.98403 Y22.99419
G01 X56.98403 Y23.43396
G01 X56.78400 Y23.43396
G01 X56.78400 Y23.03399
G01 X56.78113 Y23.00473
G01 X56.77260 Y22.97659
G01 X56.75873 Y22.95065
G01 X56.74009 Y22.92792
G01 X56.71735 Y22.90928
G01 X56.69142 Y22.89541
G01 X56.66328 Y22.88687
G01 X56.63402 Y22.88398
G01 X56.23402 Y22.88398
G01 X56.23402 Y22.68398
G01 X56.67382 Y22.68398
G01 X56.70663 Y22.68751
G01 X56.80348 Y22.72363
G01 X56.88405 Y22.78393
G01 X56.94438 Y22.86452
G01 X56.98050 Y22.96137
G01 X56.98403 Y22.99419
G04 P0 ( dwell for no time -- G64 should not smooth over this point )
G00 Z5.00000 ( retract )

G00 X56.98403 Y24.23399 ( rapid move to begin. )
G01 F200.00000
( Mill infeed pass 1/1 )
G01 Z-0.15000
G04 P0 ( dwell for no time -- G64 should not smooth over this point )
G01 F200.00000
G01 X56.98403 Y24.23399
G01 X56.98403 Y24.67376
G01 X56.98050 Y24.70658
G01 X56.94438 Y24.80343
G01 X56.88405 Y24.88402
G01 X56.80348 Y24.94432
G01 X56.70663 Y24.98044
G01 X56.67382 Y24.98397
G01 X56.23402 Y24.98397
G01 X56.23402 Y24.78400
G01 X56.63402 Y24.78400
G01 X56.66328 Y24.78110
G01 X56.69142 Y24.77257
G01 X56.71735 Y24.75870
G01 X56.74009 Y24.74006
G01 X56.75873 Y24.71732
G01 X56.77260 Y24.69139
G01 X56.78113 Y24.66325
G01 X56.78400 Y24.63399
G01 X56.78400 Y24.23399
G01 X56.98403 Y24.23399
G04 P0 ( dwell for no time -- G64 should not smooth over this point )
G00 Z5.00000 ( retract )

G00 X55.43402 Y24.78400 ( rapid move to begin. )
G01 F200.00000
( Mill infeed pass 1/1 )
G01 Z-0.15000
G04 P0 ( dwell for no time -- G64 should not smooth over this point )
G01 F200.00000
G01 X55.43402 Y24.78400
G01 X55.03402 Y24.78400
G01 X55.00476 Y24.78110
G01 X54.97662 Y24.77257
G01 X54.95068 Y24.75870
G01 X54.92795 Y24.74006
G01 X54.90928 Y24.71732
G01 X54.89544 Y24.69139
G01 X54.88690 Y24.66325
G01 X54.88401 Y24.63399
G01 X54.88401 Y24.23396
G01 X54.24400 Y24.23396
G01 X54.24400 Y24.63399
G01 X54.24113 Y24.66325
G01 X54.23260 Y24.69139
G01 X54.21873 Y24.71732
G01 X54.20009 Y24.74006
G01 X54.17735 Y24.75870
G01 X54.15142 Y24.77257
G01 X54.12328 Y24.78110
G01 X54.09402 Y24.78400
G01 X53.69402 Y24.78400
G01 X53.69402 Y24.98397
G01 X54.13382 Y24.98397
G01 X54.16663 Y24.98044
G01 X54.26348 Y24.94432
G01 X54.35005 Y24.88314
G01 X54.45589 Y24.83388
G01 X54.49440 Y24.82670
G01 X54.59142 Y24.82149
G01 X54.63049 Y24.82454
G01 X54.74100 Y24.86218
G01 X54.77959 Y24.88253
G01 X54.86374 Y24.94402
G01 X54.96143 Y24.98044
G01 X54.99424 Y24.98397
G01 X55.43402 Y24.98397
G01 X55.43402 Y24.78400
G01 X54.80194 Y24.77351
G01 X54.74324 Y24.70391
G01 X54.66150 Y24.67778
G01 X54.62264 Y24.67219
G01 X54.48637 Y24.67694
G01 X54.44741 Y24.68161
G01 X54.40938 Y24.69131
G01 X54.38573 Y24.70079
G01 X54.33067 Y24.76287
G01 X54.38573 Y24.70079
G01 X54.39399 Y24.63399
G01 X54.39399 Y24.38395
G01 X54.35254 Y24.34140
G01 X54.39399 Y24.38395
G01 X54.73402 Y24.38395
G01 X54.77524 Y24.34153
G01 X54.73402 Y24.38395
G01 X54.73402 Y24.63399
G01 X54.74324 Y24.70391
G04 P0 ( dwell for no time -- G64 should not smooth over this point )
G00 Z5.00000 ( retract )

G00 X52.07962 Y24.55522 ( rapid move to begin. )
G01 F200.00000
( Mill infeed pass 1/1 )
G01 Z-0.15000
G04 P0 ( dwell for no time -- G64 should not smooth over this point )
G01 F200.00000
G01 X52.07962 Y24.55522
G01 X52.09768 Y24.51697
G01 X52.10184 Y24.51798
G01 X52.09768 Y24.51697
G01 X52.09902 Y23.16516
G01 X52.10319 Y23.16416
G01 X52.09902 Y23.16516
G01 X52.09029 Y23.13005
G01 X52.06715 Y23.10270
G01 X52.26331 Y22.88423
G01 X52.06715 Y23.10270
G01 X51.85714 Y22.86813
G01 X51.79847 Y22.81423
G01 X51.72275 Y22.75286
G01 X51.62173 Y22.71250
G01 X51.55404 Y22.70862
G01 X49.90909 Y22.70874
G01 X49.79722 Y22.74555
G01 X49.73891 Y22.78885
G01 X49.69176 Y22.82911
G01 X49.61894 Y22.90206
G01 X49.54317 Y22.99139
G01 X49.42776 Y22.99393
G01 X49.54317 Y22.99139
G01 X49.48422 Y23.05558
G01 X49.31681 Y22.86765
G01 X49.25295 Y22.80950
G01 X49.17330 Y22.74639
G01 X49.08166 Y22.71276
G01 X49.01404 Y22.70862
G01 X47.36909 Y22.70874
G01 X47.25722 Y22.74555
G01 X47.19891 Y22.78885
G01 X47.15176 Y22.82911
G01 X47.07894 Y22.90206
G01 X47.00317 Y22.99139
G01 X46.88776 Y22.99393
G01 X47.00317 Y22.99139
G01 X46.94422 Y23.05558
G01 X46.77681 Y22.86765
G01 X46.71295 Y22.80950
G01 X46.63330 Y22.74639
G01 X46.54166 Y22.71276
G01 X46.47407 Y22.70862
G01 X44.82909 Y22.70874
G01 X44.71722 Y22.74555
G01 X44.65891 Y22.78885
G01 X44.61176 Y22.82911
G01 X44.53894 Y22.90206
G01 X44.46317 Y22.99139
G01 X44.34776 Y22.99393
G01 X44.46317 Y22.99139
G01 X44.40422 Y23.05558
G01 X44.23681 Y22.86765
G01 X44.17295 Y22.80950
G01 X44.09330 Y22.74639
G01 X44.00166 Y22.71276
G01 X43.93404 Y22.70862
G01 X42.28909 Y22.70874
G01 X42.17722 Y22.74555
G01 X42.11891 Y22.78885
G01 X42.07176 Y22.82911
G01 X41.99894 Y22.90206
G01 X41.92317 Y22.99139
G01 X41.80776 Y22.99393
G01 X41.92317 Y22.99139
G01 X41.86422 Y23.05558
G01 X41.69681 Y22.86765
G01 X41.63295 Y22.80950
G01 X41.55330 Y22.74639
G01 X41.46166 Y22.71276
G01 X41.39404 Y22.70862
G01 X39.74909 Y22.70874
G01 X39.63722 Y22.74555
G01 X39.57891 Y22.78885
G01 X39.53176 Y22.82911
G01 X39.45894 Y22.90206
G01 X39.38317 Y22.99139
G01 X39.26776 Y22.99393
G01 X39.38317 Y22.99139
G01 X39.32422 Y23.05558
G01 X39.15681 Y22.86765
G01 X39.09295 Y22.80950
G01 X39.01330 Y22.74639
G01 X38.92166 Y22.71276
G01 X38.85404 Y22.70862
G01 X37.20909 Y22.70874
G01 X37.09722 Y22.74555
G01 X37.03891 Y22.78885
G01 X36.99176 Y22.82911
G01 X36.91894 Y22.90206
G01 X36.84317 Y22.99139
G01 X36.72776 Y22.99393
G01 X36.84317 Y22.99139
G01 X36.78422 Y23.05558
G01 X36.61681 Y22.86765
G01 X36.55295 Y22.80950
G01 X36.47330 Y22.74639
G01 X36.38166 Y22.71276
G01 X36.31404 Y22.70862
G01 X34.66909 Y22.70874
G01 X34.55722 Y22.74555
G01 X34.49891 Y22.78885
G01 X34.45176 Y22.82911
G01 X34.37894 Y22.90206
G01 X34.30317 Y22.99139
G01 X34.18776 Y22.99393
G01 X34.30317 Y22.99139
G01 X34.24422 Y23.05558
G01 X34.07681 Y22.86765
G01 X34.01295 Y22.80950
G01 X33.93330 Y22.74639
G01 X33.84166 Y22.71276
G01 X33.77404 Y22.70862
G01 X32.12909 Y22.70874
G01 X32.01722 Y22.74555
G01 X31.95891 Y22.78885
G01 X31.91176 Y22.82911
G01 X31.83894 Y22.90206
G01 X31.76317 Y22.99139
G01 X31.64776 Y22.99393
G01 X31.76317 Y22.99139
G01 X31.70422 Y23.05558
G01 X31.53681 Y22.86765
G01 X31.47295 Y22.80950
G01 X31.39330 Y22.74639
G01 X31.30166 Y22.71276
G01 X31.23404 Y22.70862
G01 X29.58909 Y22.70874
G01 X29.47722 Y22.74555
G01 X29.41891 Y22.78885
G01 X29.37176 Y22.82911
G01 X29.29894 Y22.90206
G01 X29.22317 Y22.99139
G01 X29.10776 Y22.99393
G01 X29.22317 Y22.99139
G01 X29.16422 Y23.05558
G01 X28.99681 Y22.86765
G01 X28.93295 Y22.80950
G01 X28.85330 Y22.74639
G01 X28.76166 Y22.71276
G01 X28.69404 Y22.70862
G01 X27.04909 Y22.70874
G01 X26.93722 Y22.74555
G01 X26.87891 Y22.78885
G01 X26.83176 Y22.82911
G01 X26.75894 Y22.90206
G01 X26.68317 Y22.99139
G01 X26.56776 Y22.99393
G01 X26.68317 Y22.99139
G01 X26.62422 Y23.05558
G01 X26.45681 Y22.86765
G01 X26.39295 Y22.80950
G01 X26.31330 Y22.74639
G01 X26.22166 Y22.71276
G01 X26.15404 Y22.70862
G01 X24.50909 Y22.70874
G01 X24.39722 Y22.74555
G01 X24.33891 Y22.78885
G01 X24.29176 Y22.82911
G01 X24.21894 Y22.90206
G01 X24.14317 Y22.99139
G01 X24.02776 Y22.99393
G01 X24.14317 Y22.99139
G01 X24.08422 Y23.05558
G01 X23.91681 Y22.86765
G01 X23.85295 Y22.80950
G01 X23.77330 Y22.74639
G01 X23.68166 Y22.71276
G01 X23.61404 Y22.70862
G01 X21.96909 Y22.70874
G01 X21.85722 Y22.74555
G01 X21.79891 Y22.78885
G01 X21.75176 Y22.82911
G01 X21.67894 Y22.90206
G01 X21.60317 Y22.99139
G01 X21.48776 Y22.99393
G01 X21.60317 Y22.99139
G01 X21.54422 Y23.05558
G01 X21.37681 Y22.86765
G01 X21.31295 Y22.80950
G01 X21.23330 Y22.74639
G01 X21.14166 Y22.71276
G01 X21.07404 Y22.70862
G01 X19.42909 Y22.70874
G01 X19.31722 Y22.74555
G01 X19.25893 Y22.78885
G01 X19.21176 Y22.82911
G01 X19.13894 Y22.90206
G01 X19.06317 Y22.99139
G01 X18.94776 Y22.99393
G01 X19.06317 Y22.99139
G01 X19.00425 Y23.05558
G01 X18.83683 Y22.86765
G01 X18.77298 Y22.80953
G01 X18.69332 Y22.74639
G01 X18.60166 Y22.71276
G01 X18.53404 Y22.70862
G01 X16.88909 Y22.70874
G01 X16.77722 Y22.74555
G01 X16.71891 Y22.78885
G01 X16.67176 Y22.82911
G01 X16.59894 Y22.90206
G01 X16.52317 Y22.99139
G01 X16.40776 Y22.99393
G01 X16.52317 Y22.99139
G01 X16.46422 Y23.05558
G01 X16.29681 Y22.86765
G01 X16.23295 Y22.80950
G01 X16.15330 Y22.74639
G01 X16.06166 Y22.71276
G01 X15.99404 Y22.70862
G01 X14.34909 Y22.70874
G01 X14.23722 Y22.74555
G01 X14.17891 Y22.78885
G01 X14.13176 Y22.82911
G01 X14.05894 Y22.90206
G01 X13.98317 Y22.99139
G01 X13.86776 Y22.99393
G01 X13.98317 Y22.99139
G01 X13.92422 Y23.05558
G01 X13.75681 Y22.86765
G01 X13.69295 Y22.80950
G01 X13.61330 Y22.74639
G01 X13.52166 Y22.71276
G01 X13.45404 Y22.70862
G01 X11.80909 Y22.70874
G01 X11.69722 Y22.74555
G01 X11.63891 Y22.78885
G01 X11.59176 Y22.82911
G01 X11.51894 Y22.90206
G01 X11.44317 Y22.99139
G01 X11.32776 Y22.99393
G01 X11.44317 Y22.99139
G01 X11.38422 Y23.05558
G01 X11.21678 Y22.86767
G01 X11.15295 Y22.80950
G01 X11.08173 Y22.75449
G01 X11.08303 Y22.75220
G01 X11.08173 Y22.75449
G01 X11.06187 Y22.74346
G01 X10.98910 Y22.71659
G01 X10.95135 Y22.70793
G01 X9.26909 Y22.70874
G01 X9.15722 Y22.74555
G01 X9.09891 Y22.78885
G01 X9.05176 Y22.82911
G01 X8.97894 Y22.90206
G01 X8.90317 Y22.99139
G01 X8.78776 Y22.99393
G01 X8.90317 Y22.99139
G01 X8.84422 Y23.05558
G01 X8.67678 Y22.86767
G01 X8.61295 Y22.80950
G01 X8.54295 Y22.75238
G01 X8.41905 Y22.70844
G01 X6.73681 Y22.70836
G01 X6.70676 Y22.71418
G01 X6.62685 Y22.74123
G01 X6.55878 Y22.78870
G01 X6.51176 Y22.82911
G01 X6.43894 Y22.90206
G01 X6.36317 Y22.99139
G01 X6.24776 Y22.99393
G01 X6.36317 Y22.99139
G01 X6.30422 Y23.05558
G01 X6.13678 Y22.86767
G01 X6.07295 Y22.80950
G01 X6.00280 Y22.75268
G01 X5.89381 Y22.71014
G01 X4.19704 Y22.70996
G01 X4.16638 Y22.71258
G01 X4.06831 Y22.75139
G01 X3.97100 Y22.82916
G01 X3.89422 Y22.90729
G01 X3.82310 Y22.99167
G01 X3.70499 Y22.99546
G01 X3.66613 Y22.98987
G01 X3.62833 Y22.97925
G01 X3.58472 Y22.96386
G01 X3.52625 Y22.88809
G01 X3.58472 Y22.96386
G01 X3.59399 Y23.03399
G01 X3.59399 Y24.63399
G01 X3.58568 Y24.70094
G01 X3.52472 Y24.78372
G01 X3.58568 Y24.70094
G01 X3.60898 Y24.69162
G01 X3.64700 Y24.68192
G01 X3.68596 Y24.67724
G01 X3.81908 Y24.67244
G01 X3.72091 Y24.56525
G01 X3.70433 Y24.54816
G01 X3.70133 Y24.54994
G01 X3.70433 Y24.54816
G01 X3.69295 Y24.52672
G01 X3.68700 Y24.50313
G01 X3.68904 Y23.16510
G01 X3.69437 Y23.13734
G01 X3.68497 Y23.13381
G01 X3.69437 Y23.13734
G01 X3.70961 Y23.11352
G01 X3.82310 Y22.99167
G01 X3.70085 Y23.12472
G01 X3.69437 Y23.13734
G01 X3.68904 Y23.16510
G01 X3.69003 Y24.51491
G01 X3.70433 Y24.54816
G01 X3.93120 Y24.79954
G01 X3.99440 Y24.85847
G01 X4.07504 Y24.92106
G01 X4.15850 Y24.95380
G01 X4.23402 Y24.95921
G01 X5.87895 Y24.95926
G01 X5.99084 Y24.92238
G01 X6.04918 Y24.87907
G01 X6.09627 Y24.83884
G01 X6.16909 Y24.76594
G01 X6.24491 Y24.67653
G01 X6.36033 Y24.67399
G01 X6.24491 Y24.67653
G01 X6.30381 Y24.61235
G01 X6.47128 Y24.80028
G01 X6.53513 Y24.85847
G01 X6.60508 Y24.91557
G01 X6.72904 Y24.95951
G01 X8.41120 Y24.95959
G01 X8.44128 Y24.95377
G01 X8.52121 Y24.92672
G01 X8.58931 Y24.87922
G01 X8.63627 Y24.83884
G01 X8.70909 Y24.76594
G01 X8.78491 Y24.67653
G01 X8.90008 Y24.67376
G01 X8.90800 Y24.68240
G01 X8.90008 Y24.67376
G01 X8.78491 Y24.67653
G01 X8.84381 Y24.61235
G01 X8.99388 Y24.78131
G01 X9.07808 Y24.86055
G01 X9.15789 Y24.92068
G01 X9.15659 Y24.92309
G01 X9.15789 Y24.92068
G01 X9.27442 Y24.96000
G01 X9.42319 Y25.00117
G01 X9.47599 Y25.02040
G01 X9.52019 Y25.17480
G01 X9.53162 Y25.24938
G01 X9.53871 Y25.35215
G01 X9.53881 Y26.03320
G01 X9.52751 Y26.17051
G01 X9.50759 Y26.26962
G01 X9.48542 Y26.34272
G01 X9.22316 Y26.45283
G01 X9.12875 Y26.51293
G01 X9.03990 Y26.60030
G01 X8.96909 Y26.71453
G01 X8.95082 Y26.75854
G01 X8.92172 Y26.85478
G01 X8.91450 Y26.93579
G01 X8.91382 Y27.76593
G01 X8.92258 Y27.87302
G01 X8.93452 Y27.91691
G01 X8.96289 Y28.00236
G01 X9.03203 Y28.11724
G01 X9.13536 Y28.22080
G01 X9.24214 Y28.28463
G01 X9.28212 Y28.30231
G01 X9.36985 Y28.32776
G01 X9.45087 Y28.33936
G01 X10.73972 Y28.33921
G01 X10.85054 Y28.33129
G01 X10.98636 Y28.28559
G01 X11.09933 Y28.21513
G01 X11.18775 Y28.12735
G01 X11.25991 Y28.01384
G01 X11.30388 Y27.88506
G01 X11.31384 Y27.79215
G01 X11.31427 Y26.96398
G01 X11.30302 Y26.84310
G01 X11.30584 Y26.84249
G01 X11.30302 Y26.84310
G01 X11.26431 Y26.72601
G01 X11.22440 Y26.65219
G01 X11.18702 Y26.60117
G01 X11.10416 Y26.51615
G01 X10.98590 Y26.44272
G01 X10.74285 Y26.34229
G01 X10.73068 Y26.30681
G01 X10.70617 Y26.20439
G01 X10.68966 Y26.05890
G01 X10.68928 Y25.36093
G01 X10.69613 Y25.25334
G01 X10.70533 Y25.18763
G01 X10.75184 Y25.02068
G01 X10.85410 Y24.98545
G01 X10.93667 Y24.96480
G01 X11.06791 Y24.92205
G01 X11.06921 Y24.92446
G01 X11.06791 Y24.92205
G01 X11.14521 Y24.86452
G01 X11.19888 Y24.81636
G01 X11.26840 Y24.74326
G01 X11.32720 Y24.67353
G01 X11.42771 Y24.67206
G01 X11.44124 Y24.67376
G01 X11.44683 Y24.68075
G01 X11.44124 Y24.67376
G01 X11.42771 Y24.67206
G01 X11.32720 Y24.67353
G01 X11.38427 Y24.60937
G01 X11.52285 Y24.76881
G01 X11.61003 Y24.85415
G01 X11.68534 Y24.91506
G01 X11.78633 Y24.95542
G01 X11.85402 Y24.95921
G01 X13.49892 Y24.95921
G01 X13.61084 Y24.92238
G01 X13.66918 Y24.87907
G01 X13.71627 Y24.83884
G01 X13.78909 Y24.76594
G01 X13.86491 Y24.67653
G01 X13.98033 Y24.67399
G01 X13.86491 Y24.67653
G01 X13.92381 Y24.61235
G01 X14.09128 Y24.80028
G01 X14.15513 Y24.85847
G01 X14.22628 Y24.91346
G01 X14.22501 Y24.91575
G01 X14.22628 Y24.91346
G01 X14.24617 Y24.92446
G01 X14.31896 Y24.95136
G01 X14.35676 Y24.96002
G01 X16.03895 Y24.95921
G01 X16.15084 Y24.92238
G01 X16.20918 Y24.87907
G01 X16.25627 Y24.83884
G01 X16.32909 Y24.76594
G01 X16.40491 Y24.67653
G01 X16.52033 Y24.67399
G01 X16.40491 Y24.67653
G01 X16.46381 Y24.61235
G01 X16.63128 Y24.80028
G01 X16.69513 Y24.85847
G01 X16.76508 Y24.91557
G01 X16.88904 Y24.95951
G01 X18.57120 Y24.95959
G01 X18.60128 Y24.95377
G01 X18.68123 Y24.92672
G01 X18.74928 Y24.87925
G01 X18.79630 Y24.83884
G01 X18.86909 Y24.76594
G01 X18.94494 Y24.67653
G01 X19.06033 Y24.67399
G01 X18.94494 Y24.67653
G01 X19.00384 Y24.61235
G01 X19.17130 Y24.80028
G01 X19.23513 Y24.85847
G01 X19.30526 Y24.91524
G01 X19.41423 Y24.95781
G01 X21.11097 Y24.95799
G01 X21.14166 Y24.95535
G01 X21.23970 Y24.91656
G01 X21.33663 Y24.83922
G01 X21.41344 Y24.76119
G01 X21.48491 Y24.67653
G01 X21.60008 Y24.67376
G01 X21.60800 Y24.68240
G01 X21.60008 Y24.67376
G01 X21.48491 Y24.67653
G01 X21.54381 Y24.61235
G01 X21.69019 Y24.77745
G01 X21.73010 Y24.81722
G01 X21.78288 Y24.86454
G01 X21.86012 Y24.92205
G01 X21.85883 Y24.92449
G01 X21.86012 Y24.92205
G01 X21.99139 Y24.96480
G01 X22.06954 Y24.98400
G01 X22.17592 Y25.02024
G01 X22.22019 Y25.17480
G01 X22.23703 Y25.31267
G01 X22.23655 Y26.07892
G01 X22.22751 Y26.17051
G01 X22.20759 Y26.26962
G01 X22.18542 Y26.34272
G01 X21.94366 Y26.44191
G01 X21.82382 Y26.51618
G01 X21.74102 Y26.60117
G01 X21.70366 Y26.65219
G01 X21.66375 Y26.72598
G01 X21.62504 Y26.84310
G01 X21.62222 Y26.84252
G01 X21.62504 Y26.84310
G01 X21.61379 Y26.96398
G01 X21.61379 Y27.76398
G01 X21.62418 Y27.88503
G01 X21.66815 Y28.01386
G01 X21.70531 Y28.07472
G01 X21.74028 Y28.12735
G01 X21.82870 Y28.21511
G01 X21.94171 Y28.28559
G01 X22.07752 Y28.33126
G01 X22.14328 Y28.33792
G01 X23.48702 Y28.33774
G01 X23.55849 Y28.32890
G01 X23.64546 Y28.30083
G01 X23.70218 Y28.27698
G01 X23.84208 Y28.18102
G01 X24.07566 Y27.98412
G01 X24.09245 Y27.98417
G01 X24.07566 Y27.98412
G01 X24.08402 Y27.97696
G01 X24.32306 Y28.17840
G01 X24.41490 Y28.24475
G01 X24.46235 Y28.27523
G01 X24.49166 Y28.28884
G01 X24.57975 Y28.32042
G01 X24.61782 Y28.32946
G01 X24.69095 Y28.33896
G01 X25.97972 Y28.33921
G01 X26.06649 Y28.33500
G01 X26.12811 Y28.31965
G01 X26.21797 Y28.28823
G01 X26.29306 Y28.24561
G01 X26.33926 Y28.21503
G01 X26.42783 Y28.12743
G01 X26.50598 Y28.00264
G01 X26.54302 Y27.88486
G01 X26.55381 Y27.80904
G01 X26.55427 Y26.96398
G01 X26.54759 Y26.85456
G01 X26.51640 Y26.75890
G01 X26.49044 Y26.69769
G01 X26.42768 Y26.60063
G01 X26.34662 Y26.51925
G01 X26.24464 Y26.45331
G01 X26.13949 Y26.40515
G01 X25.98285 Y26.34229
G01 X25.97068 Y26.30681
G01 X25.94617 Y26.20439
G01 X25.92966 Y26.05890
G01 X25.92928 Y25.36093
G01 X25.94210 Y25.20594
G01 X25.95676 Y25.13747
G01 X25.99184 Y25.02068
G01 X26.09506 Y24.98512
G01 X26.19361 Y24.96000
G01 X26.31015 Y24.92068
G01 X26.31145 Y24.92309
G01 X26.31015 Y24.92068
G01 X26.38533 Y24.86442
G01 X26.43888 Y24.81636
G01 X26.50840 Y24.74326
G01 X26.56720 Y24.67353
G01 X26.66771 Y24.67206
G01 X26.68124 Y24.67376
G01 X26.68683 Y24.68075
G01 X26.68124 Y24.67376
G01 X26.66771 Y24.67206
G01 X26.56720 Y24.67353
G01 X26.62427 Y24.60937
G01 X26.80565 Y24.81344
G01 X26.92534 Y24.91506
G01 X27.02633 Y24.95542
G01 X27.09145 Y24.95918
G01 X28.73892 Y24.95921
G01 X28.85084 Y24.92238
G01 X28.90918 Y24.87907
G01 X28.95627 Y24.83884
G01 X29.02909 Y24.76594
G01 X29.10491 Y24.67653
G01 X29.22033 Y24.67399
G01 X29.10491 Y24.67653
G01 X29.16381 Y24.61235
G01 X29.33125 Y24.80031
G01 X29.39513 Y24.85847
G01 X29.47474 Y24.92157
G01 X29.56640 Y24.95520
G01 X29.63145 Y24.95918
G01 X31.27892 Y24.95921
G01 X31.39084 Y24.92238
G01 X31.44918 Y24.87907
G01 X31.49627 Y24.83884
G01 X31.56909 Y24.76594
G01 X31.64491 Y24.67653
G01 X31.76033 Y24.67399
G01 X31.64491 Y24.67653
G01 X31.70381 Y24.61235
G01 X31.87125 Y24.80031
G01 X31.93513 Y24.85847
G01 X32.01474 Y24.92157
G01 X32.10640 Y24.95520
G01 X32.17145 Y24.95918
G01 X33.81892 Y24.95921
G01 X33.93084 Y24.92238
G01 X33.98918 Y24.87907
G01 X34.03627 Y24.83884
G01 X34.10909 Y24.76594
G01 X34.18491 Y24.67653
G01 X34.30033 Y24.67399
G01 X34.18491 Y24.67653
G01 X34.24381 Y24.61235
G01 X34.41125 Y24.80031
G01 X34.47513 Y24.85847
G01 X34.55474 Y24.92157
G01 X34.64640 Y24.95514
G01 X34.71145 Y24.95918
G01 X36.35892 Y24.95921
G01 X36.47084 Y24.92238
G01 X36.52918 Y24.87907
G01 X36.57627 Y24.83884
G01 X36.64909 Y24.76594
G01 X36.72491 Y24.67653
G01 X36.84033 Y24.67399
G01 X36.72491 Y24.67653
G01 X36.78381 Y24.61235
G01 X36.95125 Y24.80031
G01 X37.01513 Y24.85847
G01 X37.09474 Y24.92157
G01 X37.18640 Y24.95514
G01 X37.21709 Y24.95799
G01 X38.89892 Y24.95921
G01 X39.01084 Y24.92238
G01 X39.06918 Y24.87907
G01 X39.11627 Y24.83884
G01 X39.18909 Y24.76594
G01 X39.26491 Y24.67653
G01 X39.38033 Y24.67399
G01 X39.26491 Y24.67653
G01 X39.32381 Y24.61235
G01 X39.49128 Y24.80028
G01 X39.55513 Y24.85847
G01 X39.62628 Y24.91346
G01 X39.62501 Y24.91575
G01 X39.62628 Y24.91346
G01 X39.64617 Y24.92446
G01 X39.71896 Y24.95136
G01 X39.75676 Y24.96002
G01 X41.43895 Y24.95921
G01 X41.55084 Y24.92238
G01 X41.60918 Y24.87907
G01 X41.65627 Y24.83884
G01 X41.72909 Y24.76594
G01 X41.80491 Y24.67653
G01 X41.92033 Y24.67399
G01 X41.80491 Y24.67653
G01 X41.86381 Y24.61235
G01 X42.03128 Y24.80028
G01 X42.09513 Y24.85847
G01 X42.16508 Y24.91557
G01 X42.28904 Y24.95951
G01 X43.97120 Y24.95959
G01 X44.00128 Y24.95377
G01 X44.08121 Y24.92672
G01 X44.14931 Y24.87922
G01 X44.19627 Y24.83884
G01 X44.26909 Y24.76594
G01 X44.34491 Y24.67653
G01 X44.46033 Y24.67399
G01 X44.34491 Y24.67653
G01 X44.40381 Y24.61235
G01 X44.57128 Y24.80028
G01 X44.63513 Y24.85847
G01 X44.70524 Y24.91524
G01 X44.81423 Y24.95781
G01 X46.47661 Y24.95918
G01 X46.54158 Y24.95514
G01 X46.63086 Y24.92230
G01 X46.73665 Y24.83927
G01 X46.81344 Y24.76119
G01 X46.88491 Y24.67653
G01 X47.00033 Y24.67399
G01 X46.88491 Y24.67653
G01 X46.94381 Y24.61235
G01 X47.11128 Y24.80028
G01 X47.17513 Y24.85847
G01 X47.24524 Y24.91524
G01 X47.35423 Y24.95781
G01 X49.01404 Y24.95936
G01 X49.08166 Y24.95540
G01 X49.17970 Y24.91656
G01 X49.27663 Y24.83922
G01 X49.35344 Y24.76119
G01 X49.42491 Y24.67653
G01 X49.54033 Y24.67399
G01 X49.42491 Y24.67653
G01 X49.48381 Y24.61235
G01 X49.65128 Y24.80028
G01 X49.71003 Y24.85415
G01 X49.78531 Y24.91511
G01 X49.88633 Y24.95542
G01 X49.95402 Y24.95921
G01 X51.59895 Y24.95921
G01 X51.71086 Y24.92238
G01 X51.81167 Y24.84303
G01 X51.88950 Y24.76538
G01 X51.99727 Y24.64011
G01 X52.07845 Y24.55443
G01 X52.08721 Y24.54323
G01 X52.09768 Y24.51697
G01 X52.09803 Y23.15304
G01 X52.08373 Y23.11979
G01 X51.96900 Y22.99548
G01 X52.10210 Y22.99071
G01 X52.14106 Y22.98603
G01 X52.17908 Y22.97633
G01 X52.20235 Y22.96704
G01 X52.26331 Y22.88423
G01 X52.89402 Y22.68398
G01 X52.89402 Y22.88398
G01 X52.49402 Y22.88398
G01 X52.46476 Y22.88687
G01 X52.43662 Y22.89541
G01 X52.41068 Y22.90928
G01 X52.38795 Y22.92792
G01 X52.36928 Y22.95065
G01 X52.35544 Y22.97659
G01 X52.34690 Y23.00473
G01 X52.34401 Y23.03399
G01 X52.34401 Y24.63399
G01 X52.34690 Y24.66325
G01 X52.35544 Y24.69139
G01 X52.36928 Y24.71732
G01 X52.38795 Y24.74006
G01 X52.41068 Y24.75870
G01 X52.43662 Y24.77257
G01 X52.46476 Y24.78110
G01 X52.49402 Y24.78400
G01 X52.89402 Y24.78400
G01 X52.89402 Y24.98397
G01 X52.45424 Y24.98397
G01 X52.42143 Y24.98044
G01 X52.32374 Y24.94402
G01 X52.23999 Y24.88281
G01 X52.20141 Y24.86249
G01 X52.09090 Y24.82484
G01 X52.05183 Y24.82179
G01 X51.92577 Y24.83145
G01 X51.79753 Y24.89043
G01 X51.72374 Y24.94476
G01 X51.62674 Y24.98093
G01 X51.59384 Y24.98448
G01 X49.91422 Y24.98448
G01 X49.88132 Y24.98093
G01 X49.78348 Y24.94445
G01 X49.69959 Y24.88314
G01 X49.66098 Y24.86276
G01 X49.56936 Y24.83046
G01 X49.54081 Y24.82345
G01 X49.51147 Y24.82212
G01 X49.41445 Y24.82731
G01 X49.37592 Y24.83449
G01 X49.27005 Y24.88374
G01 X49.18371 Y24.94476
G01 X49.08674 Y24.98093
G01 X49.05384 Y24.98448
G01 X47.37422 Y24.98448
G01 X47.34132 Y24.98093
G01 X47.24348 Y24.94445
G01 X47.15959 Y24.88314
G01 X47.12098 Y24.86276
G01 X47.02936 Y24.83046
G01 X47.00081 Y24.82345
G01 X46.97147 Y24.82212
G01 X46.87445 Y24.82731
G01 X46.83592 Y24.83449
G01 X46.73005 Y24.88374
G01 X46.64371 Y24.94476
G01 X46.54674 Y24.98093
G01 X46.51384 Y24.98448
G01 X44.83422 Y24.98448
G01 X44.80132 Y24.98093
G01 X44.70348 Y24.94445
G01 X44.61959 Y24.88314
G01 X44.58098 Y24.86276
G01 X44.48936 Y24.83046
G01 X44.46081 Y24.82345
G01 X44.43147 Y24.82212
G01 X44.33445 Y24.82731
G01 X44.29592 Y24.83449
G01 X44.19005 Y24.88374
G01 X44.10371 Y24.94476
G01 X44.00674 Y24.98093
G01 X43.97384 Y24.98448
G01 X42.29422 Y24.98448
G01 X42.26132 Y24.98093
G01 X42.16348 Y24.94445
G01 X42.07959 Y24.88314
G01 X42.04098 Y24.86276
G01 X41.94936 Y24.83046
G01 X41.92081 Y24.82345
G01 X41.89147 Y24.82212
G01 X41.79445 Y24.82731
G01 X41.75592 Y24.83449
G01 X41.65005 Y24.88374
G01 X41.56371 Y24.94476
G01 X41.46674 Y24.98093
G01 X41.43384 Y24.98448
G01 X39.75422 Y24.98448
G01 X39.72132 Y24.98093
G01 X39.62348 Y24.94445
G01 X39.53959 Y24.88314
G01 X39.50098 Y24.86276
G01 X39.40936 Y24.83046
G01 X39.38081 Y24.82345
G01 X39.35147 Y24.82212
G01 X39.25445 Y24.82731
G01 X39.21592 Y24.83449
G01 X39.11005 Y24.88374
G01 X39.02371 Y24.94476
G01 X38.92674 Y24.98093
G01 X38.89384 Y24.98448
G01 X37.21422 Y24.98448
G01 X37.18132 Y24.98093
G01 X37.08348 Y24.94445
G01 X36.99959 Y24.88314
G01 X36.96098 Y24.86276
G01 X36.86936 Y24.83046
G01 X36.84081 Y24.82345
G01 X36.81147 Y24.82212
G01 X36.71445 Y24.82731
G01 X36.67592 Y24.83449
G01 X36.57005 Y24.88374
G01 X36.48371 Y24.94476
G01 X36.38674 Y24.98093
G01 X36.35384 Y24.98448
G01 X34.67422 Y24.98448
G01 X34.64132 Y24.98093
G01 X34.54348 Y24.94445
G01 X34.45959 Y24.88314
G01 X34.42098 Y24.86276
G01 X34.32936 Y24.83046
G01 X34.30081 Y24.82345
G01 X34.27147 Y24.82212
G01 X34.17445 Y24.82731
G01 X34.13592 Y24.83449
G01 X34.03005 Y24.88374
G01 X33.94371 Y24.94476
G01 X33.84674 Y24.98093
G01 X33.81384 Y24.98448
G01 X32.13422 Y24.98448
G01 X32.10132 Y24.98093
G01 X32.00348 Y24.94445
G01 X31.91959 Y24.88314
G01 X31.88098 Y24.86276
G01 X31.78936 Y24.83046
G01 X31.76081 Y24.82345
G01 X31.73147 Y24.82212
G01 X31.63445 Y24.82731
G01 X31.59592 Y24.83449
G01 X31.49005 Y24.88374
G01 X31.40371 Y24.94476
G01 X31.30674 Y24.98093
G01 X31.27384 Y24.98448
G01 X29.59422 Y24.98448
G01 X29.56132 Y24.98093
G01 X29.46348 Y24.94445
G01 X29.37959 Y24.88314
G01 X29.34098 Y24.86276
G01 X29.24936 Y24.83046
G01 X29.22081 Y24.82345
G01 X29.19147 Y24.82212
G01 X29.09445 Y24.82731
G01 X29.05592 Y24.83449
G01 X28.95005 Y24.88374
G01 X28.86371 Y24.94476
G01 X28.76674 Y24.98093
G01 X28.73384 Y24.98448
G01 X27.05422 Y24.98448
G01 X27.02132 Y24.98093
G01 X26.92348 Y24.94445
G01 X26.82633 Y24.87447
G01 X26.74612 Y24.83853
G01 X26.66359 Y24.82197
G01 X26.60624 Y24.82040
G01 X26.53725 Y24.82924
G01 X26.45521 Y24.85756
G01 X26.42163 Y24.87394
G01 X26.32407 Y24.94450
G01 X26.20649 Y24.98761
G01 X26.16895 Y25.00577
G01 X26.07723 Y25.07181
G01 X26.03438 Y25.12187
G01 X25.98820 Y25.19942
G01 X25.96771 Y25.26210
G01 X25.95625 Y25.33675
G01 X25.95529 Y26.05870
G01 X25.96059 Y26.09312
G01 X25.99697 Y26.21420
G01 X26.07235 Y26.31570
G01 X26.10027 Y26.34320
G01 X26.20118 Y26.40195
G01 X26.23451 Y26.41603
G01 X26.35402 Y26.48971
G01 X26.45328 Y26.58897
G01 X26.52696 Y26.70846
G01 X26.57146 Y26.84277
G01 X26.57952 Y26.92161
G01 X26.57952 Y27.80635
G01 X26.57146 Y27.88519
G01 X26.52696 Y28.01948
G01 X26.45325 Y28.13896
G01 X26.35402 Y28.23825
G01 X26.23453 Y28.31193
G01 X26.10024 Y28.35641
G01 X26.02138 Y28.36448
G01 X24.68668 Y28.36448
G01 X24.60782 Y28.35641
G01 X24.47447 Y28.31224
G01 X24.23515 Y28.16322
G01 X24.09385 Y28.13380
G01 X24.05478 Y28.13634
G01 X23.93296 Y28.16319
G01 X23.69357 Y28.31224
G01 X23.56024 Y28.35641
G01 X23.48138 Y28.36448
G01 X22.14668 Y28.36448
G01 X22.06782 Y28.35641
G01 X21.93350 Y28.31193
G01 X21.81402 Y28.23822
G01 X21.71476 Y28.13896
G01 X21.64107 Y28.01950
G01 X21.59660 Y27.88519
G01 X21.58852 Y27.80632
G01 X21.58852 Y26.92161
G01 X21.59660 Y26.84277
G01 X21.64107 Y26.70846
G01 X21.71476 Y26.58897
G01 X21.81402 Y26.48971
G01 X21.93452 Y26.41539
G01 X21.99317 Y26.38989
G01 X22.09665 Y26.31722
G01 X22.11531 Y26.29454
G01 X22.18313 Y26.18783
G01 X22.21064 Y26.06439
G01 X22.21354 Y26.03508
G01 X22.21336 Y25.35057
G01 X22.19990 Y25.25944
G01 X22.17516 Y25.18890
G01 X22.13228 Y25.11958
G01 X22.08235 Y25.06383
G01 X22.00053 Y25.00653
G01 X21.84501 Y24.94529
G01 X21.76700 Y24.88687
G01 X21.72845 Y24.86457
G01 X21.59881 Y24.82317
G01 X21.47445 Y24.82731
G01 X21.43592 Y24.83449
G01 X21.33005 Y24.88374
G01 X21.24371 Y24.94476
G01 X21.14674 Y24.98093
G01 X21.11387 Y24.98448
G01 X19.43422 Y24.98448
G01 X19.40132 Y24.98093
G01 X19.30348 Y24.94445
G01 X19.21959 Y24.88314
G01 X19.18098 Y24.86276
G01 X19.08939 Y24.83046
G01 X19.06081 Y24.82345
G01 X19.03147 Y24.82212
G01 X18.93445 Y24.82731
G01 X18.89592 Y24.83449
G01 X18.79007 Y24.88374
G01 X18.70374 Y24.94476
G01 X18.60674 Y24.98093
G01 X18.57384 Y24.98448
G01 X16.89422 Y24.98448
G01 X16.86132 Y24.98093
G01 X16.76348 Y24.94445
G01 X16.67959 Y24.88314
G01 X16.64098 Y24.86276
G01 X16.54936 Y24.83046
G01 X16.52081 Y24.82345
G01 X16.49147 Y24.82212
G01 X16.39445 Y24.82731
G01 X16.35592 Y24.83449
G01 X16.25005 Y24.88374
G01 X16.16371 Y24.94476
G01 X16.06674 Y24.98093
G01 X16.03384 Y24.98448
G01 X14.35422 Y24.98448
G01 X14.32132 Y24.98093
G01 X14.22348 Y24.94445
G01 X14.13959 Y24.88314
G01 X14.10098 Y24.86276
G01 X14.00936 Y24.83046
G01 X13.98081 Y24.82345
G01 X13.95147 Y24.82212
G01 X13.85445 Y24.82731
G01 X13.81592 Y24.83449
G01 X13.71005 Y24.88374
G01 X13.62371 Y24.94476
G01 X13.52674 Y24.98093
G01 X13.49384 Y24.98448
G01 X11.81422 Y24.98448
G01 X11.78132 Y24.98093
G01 X11.68348 Y24.94445
G01 X11.58633 Y24.87447
G01 X11.50612 Y24.83853
G01 X11.45272 Y24.82566
G01 X11.36624 Y24.82040
G01 X11.28282 Y24.83244
G01 X11.18163 Y24.87394
G01 X11.08303 Y24.94529
G01 X10.92636 Y25.00716
G01 X10.83723 Y25.07181
G01 X10.79438 Y25.12187
G01 X10.74820 Y25.19942
G01 X10.72771 Y25.26210
G01 X10.71625 Y25.33675
G01 X10.71529 Y26.05870
G01 X10.72059 Y26.09312
G01 X10.75697 Y26.21420
G01 X10.83235 Y26.31570
G01 X10.86027 Y26.34320
G01 X10.96118 Y26.40195
G01 X10.99451 Y26.41603
G01 X11.11402 Y26.48971
G01 X11.21328 Y26.58897
G01 X11.28696 Y26.70846
G01 X11.33146 Y26.84277
G01 X11.33952 Y26.92161
G01 X11.33952 Y27.80635
G01 X11.33146 Y27.88519
G01 X11.28696 Y28.01948
G01 X11.21325 Y28.13896
G01 X11.11402 Y28.23825
G01 X10.99453 Y28.31193
G01 X10.86024 Y28.35641
G01 X10.78138 Y28.36448
G01 X9.44668 Y28.36448
G01 X9.36782 Y28.35641
G01 X9.23350 Y28.31193
G01 X9.11402 Y28.23822
G01 X9.01476 Y28.13896
G01 X8.94107 Y28.01950
G01 X8.89660 Y27.88519
G01 X8.88852 Y27.80632
G01 X8.88852 Y26.92161
G01 X8.89660 Y26.84277
G01 X8.94107 Y26.70846
G01 X9.01476 Y26.58897
G01 X9.11402 Y26.48971
G01 X9.23452 Y26.41539
G01 X9.29317 Y26.38989
G01 X9.37394 Y26.33591
G01 X9.39665 Y26.31722
G01 X9.41531 Y26.29454
G01 X9.48313 Y26.18783
G01 X9.51064 Y26.06439
G01 X9.51354 Y26.03508
G01 X9.51336 Y25.35057
G01 X9.49990 Y25.25944
G01 X9.48110 Y25.20241
G01 X9.43228 Y25.11958
G01 X9.38044 Y25.06221
G01 X9.27742 Y24.99446
G01 X9.14397 Y24.94450
G01 X9.06700 Y24.88687
G01 X9.02845 Y24.86457
G01 X8.89881 Y24.82317
G01 X8.75494 Y24.82964
G01 X8.71768 Y24.84181
G01 X8.63005 Y24.88374
G01 X8.54371 Y24.94476
G01 X8.44674 Y24.98093
G01 X8.41384 Y24.98448
G01 X6.73422 Y24.98448
G01 X6.70132 Y24.98093
G01 X6.60348 Y24.94445
G01 X6.51959 Y24.88314
G01 X6.48098 Y24.86276
G01 X6.38936 Y24.83046
G01 X6.36081 Y24.82345
G01 X6.33147 Y24.82212
G01 X6.23445 Y24.82731
G01 X6.19592 Y24.83449
G01 X6.09005 Y24.88374
G01 X6.00371 Y24.94476
G01 X5.90674 Y24.98093
G01 X5.87384 Y24.98448
G01 X4.19422 Y24.98448
G01 X4.16132 Y24.98093
G01 X4.06351 Y24.94445
G01 X3.97918 Y24.88283
G01 X3.94060 Y24.86249
G01 X3.83008 Y24.82484
G01 X3.79102 Y24.82179
G01 X3.69399 Y24.82700
G01 X3.65548 Y24.83419
G01 X3.54964 Y24.88344
G01 X3.46348 Y24.94432
G01 X3.36663 Y24.98044
G01 X3.33382 Y24.98397
G01 X2.89402 Y24.98397
G01 X2.89402 Y24.78400
G01 X3.29402 Y24.78400
G01 X3.32328 Y24.78110
G01 X3.35142 Y24.77257
G01 X3.37735 Y24.75870
G01 X3.40009 Y24.74006
G01 X3.41873 Y24.71732
G01 X3.43260 Y24.69139
G01 X3.44113 Y24.66325
G01 X3.44400 Y24.63399
G01 X3.44400 Y23.03399
G01 X3.44113 Y23.00473
G01 X3.43260 Y22.97659
G01 X3.41873 Y22.95065
G01 X3.40009 Y22.92792
G01 X3.37735 Y22.90928
G01 X3.35142 Y22.89541
G01 X3.32328 Y22.88687
G01 X3.29402 Y22.88398
G01 X2.89402 Y22.88398
G01 X2.89402 Y22.68398
G01 X3.33382 Y22.68398
G01 X3.36663 Y22.68751
G01 X3.46432 Y22.72393
G01 X3.54804 Y22.78512
G01 X3.58662 Y22.80547
G01 X3.69714 Y22.84311
G01 X3.73620 Y22.84616
G01 X3.83323 Y22.84095
G01 X3.87174 Y22.83376
G01 X3.97758 Y22.78451
G01 X4.06432 Y22.72320
G01 X4.16130 Y22.68700
G01 X4.19419 Y22.68347
G01 X5.87387 Y22.68347
G01 X5.90674 Y22.68700
G01 X6.00453 Y22.72350
G01 X6.08847 Y22.78484
G01 X6.12708 Y22.80519
G01 X6.21870 Y22.83750
G01 X6.24725 Y22.84451
G01 X6.27661 Y22.84583
G01 X6.37361 Y22.84065
G01 X6.41212 Y22.83346
G01 X6.53094 Y22.77722
G01 X6.60432 Y22.72320
G01 X6.70130 Y22.68700
G01 X6.73419 Y22.68347
G01 X8.41387 Y22.68347
G01 X8.44674 Y22.68700
G01 X8.54453 Y22.72350
G01 X8.62847 Y22.78484
G01 X8.66708 Y22.80519
G01 X8.75870 Y22.83750
G01 X8.78725 Y22.84451
G01 X8.81661 Y22.84583
G01 X8.91361 Y22.84065
G01 X8.95212 Y22.83346
G01 X9.07094 Y22.77722
G01 X9.14432 Y22.72320
G01 X9.24130 Y22.68700
G01 X9.27419 Y22.68347
G01 X10.95387 Y22.68347
G01 X10.98674 Y22.68700
G01 X11.08453 Y22.72350
G01 X11.16847 Y22.78484
G01 X11.20708 Y22.80519
G01 X11.29870 Y22.83750
G01 X11.32725 Y22.84451
G01 X11.35661 Y22.84583
G01 X11.45361 Y22.84065
G01 X11.49212 Y22.83346
G01 X11.61094 Y22.77722
G01 X11.68432 Y22.72320
G01 X11.78130 Y22.68700
G01 X11.81419 Y22.68347
G01 X13.49387 Y22.68347
G01 X13.52674 Y22.68700
G01 X13.62453 Y22.72350
G01 X13.70847 Y22.78484
G01 X13.74708 Y22.80519
G01 X13.83870 Y22.83750
G01 X13.86725 Y22.84451
G01 X13.89661 Y22.84583
G01 X13.99361 Y22.84065
G01 X14.03212 Y22.83346
G01 X14.15094 Y22.77722
G01 X14.22432 Y22.72320
G01 X14.32130 Y22.68700
G01 X14.35419 Y22.68347
G01 X16.03387 Y22.68347
G01 X16.06674 Y22.68700
G01 X16.16453 Y22.72350
G01 X16.24847 Y22.78484
G01 X16.28708 Y22.80519
G01 X16.37870 Y22.83750
G01 X16.40725 Y22.84451
G01 X16.43661 Y22.84583
G01 X16.53361 Y22.84065
G01 X16.57212 Y22.83346
G01 X16.69094 Y22.77722
G01 X16.76432 Y22.72320
G01 X16.86130 Y22.68700
G01 X16.89419 Y22.68347
G01 X18.57387 Y22.68347
G01 X18.60674 Y22.68700
G01 X18.70453 Y22.72350
G01 X18.78847 Y22.78484
G01 X18.82708 Y22.80519
G01 X18.91870 Y22.83750
G01 X18.94727 Y22.84451
G01 X18.97661 Y22.84583
G01 X19.07361 Y22.84065
G01 X19.11215 Y22.83346
G01 X19.23094 Y22.77722
G01 X19.30432 Y22.72320
G01 X19.40130 Y22.68700
G01 X19.43422 Y22.68347
G01 X21.11387 Y22.68347
G01 X21.14674 Y22.68700
G01 X21.24453 Y22.72350
G01 X21.32847 Y22.78484
G01 X21.36708 Y22.80519
G01 X21.45870 Y22.83750
G01 X21.48725 Y22.84451
G01 X21.51661 Y22.84583
G01 X21.61361 Y22.84065
G01 X21.65212 Y22.83346
G01 X21.77094 Y22.77722
G01 X21.84432 Y22.72320
G01 X21.94130 Y22.68700
G01 X21.97419 Y22.68347
G01 X23.65387 Y22.68347
G01 X23.68674 Y22.68700
G01 X23.78453 Y22.72350
G01 X23.86847 Y22.78484
G01 X23.90708 Y22.80519
G01 X23.99870 Y22.83750
G01 X24.02725 Y22.84451
G01 X24.05661 Y22.84583
G01 X24.15361 Y22.84065
G01 X24.19212 Y22.83346
G01 X24.31094 Y22.77722
G01 X24.38432 Y22.72320
G01 X24.48130 Y22.68700
G01 X24.51419 Y22.68347
G01 X26.19387 Y22.68347
G01 X26.22674 Y22.68700
G01 X26.32453 Y22.72350
G01 X26.40847 Y22.78484
G01 X26.44708 Y22.80519
G01 X26.53870 Y22.83750
G01 X26.56725 Y22.84451
G01 X26.59661 Y22.84583
G01 X26.69361 Y22.84065
G01 X26.73212 Y22.83346
G01 X26.85094 Y22.77722
G01 X26.92432 Y22.72320
G01 X27.02130 Y22.68700
G01 X27.05419 Y22.68347
G01 X28.73387 Y22.68347
G01 X28.76674 Y22.68700
G01 X28.86453 Y22.72350
G01 X28.94847 Y22.78484
G01 X28.98708 Y22.80519
G01 X29.07870 Y22.83750
G01 X29.10725 Y22.84451
G01 X29.13661 Y22.84583
G01 X29.23361 Y22.84065
G01 X29.27212 Y22.83346
G01 X29.39094 Y22.77722
G01 X29.46432 Y22.72320
G01 X29.56130 Y22.68700
G01 X29.59419 Y22.68347
G01 X31.27387 Y22.68347
G01 X31.30674 Y22.68700
G01 X31.40453 Y22.72350
G01 X31.48847 Y22.78484
G01 X31.52708 Y22.80519
G01 X31.61870 Y22.83750
G01 X31.64725 Y22.84451
G01 X31.67661 Y22.84583
G01 X31.77361 Y22.84065
G01 X31.81212 Y22.83346
G01 X31.93094 Y22.77722
G01 X32.00432 Y22.72320
G01 X32.10130 Y22.68700
G01 X32.13419 Y22.68347
G01 X33.81387 Y22.68347
G01 X33.84674 Y22.68700
G01 X33.94453 Y22.72350
G01 X34.02847 Y22.78484
G01 X34.06708 Y22.80519
G01 X34.15870 Y22.83750
G01 X34.18725 Y22.84451
G01 X34.21661 Y22.84583
G01 X34.31361 Y22.84065
G01 X34.35212 Y22.83346
G01 X34.47094 Y22.77722
G01 X34.54432 Y22.72320
G01 X34.64130 Y22.68700
G01 X34.67419 Y22.68347
G01 X36.35387 Y22.68347
G01 X36.38674 Y22.68700
G01 X36.48453 Y22.72350
G01 X36.56847 Y22.78484
G01 X36.60708 Y22.80519
G01 X36.69870 Y22.83750
G01 X36.72725 Y22.84451
G01 X36.75661 Y22.84583
G01 X36.85361 Y22.84065
G01 X36.89212 Y22.83346
G01 X37.01094 Y22.77722
G01 X37.08432 Y22.72320
G01 X37.18130 Y22.68700
G01 X37.21419 Y22.68347
G01 X38.89387 Y22.68347
G01 X38.92674 Y22.68700
G01 X39.02453 Y22.72350
G01 X39.10847 Y22.78484
G01 X39.14708 Y22.80519
G01 X39.23870 Y22.83750
G01 X39.26725 Y22.84451
G01 X39.29661 Y22.84583
G01 X39.39361 Y22.84065
G01 X39.43212 Y22.83346
G01 X39.55094 Y22.77722
G01 X39.62432 Y22.72320
G01 X39.72130 Y22.68700
G01 X39.75419 Y22.68347
G01 X41.43387 Y22.68347
G01 X41.46674 Y22.68700
G01 X41.56453 Y22.72350
G01 X41.64847 Y22.78484
G01 X41.68708 Y22.80519
G01 X41.77870 Y22.83750
G01 X41.80725 Y22.84451
G01 X41.83661 Y22.84583
G01 X41.93361 Y22.84065
G01 X41.97212 Y22.83346
G01 X42.09094 Y22.77722
G01 X42.16432 Y22.72320
G01 X42.26130 Y22.68700
G01 X42.29419 Y22.68347
G01 X43.97387 Y22.68347
G01 X44.00674 Y22.68700
G01 X44.10453 Y22.72350
G01 X44.18847 Y22.78484
G01 X44.22708 Y22.80519
G01 X44.31870 Y22.83750
G01 X44.34725 Y22.84451
G01 X44.37661 Y22.84583
G01 X44.47361 Y22.84065
G01 X44.51212 Y22.83346
G01 X44.63094 Y22.77722
G01 X44.70432 Y22.72320
G01 X44.80130 Y22.68700
G01 X44.83419 Y22.68347
G01 X46.51389 Y22.68347
G01 X46.54674 Y22.68700
G01 X46.64453 Y22.72350
G01 X46.72847 Y22.78484
G01 X46.76708 Y22.80519
G01 X46.85870 Y22.83750
G01 X46.88725 Y22.84451
G01 X46.91661 Y22.84583
G01 X47.01361 Y22.84065
G01 X47.05212 Y22.83346
G01 X47.17094 Y22.77722
G01 X47.24432 Y22.72320
G01 X47.34130 Y22.68700
G01 X47.37419 Y22.68347
G01 X49.05387 Y22.68347
G01 X49.08674 Y22.68700
G01 X49.18453 Y22.72350
G01 X49.26847 Y22.78484
G01 X49.30708 Y22.80519
G01 X49.39870 Y22.83750
G01 X49.42725 Y22.84451
G01 X49.45661 Y22.84583
G01 X49.55361 Y22.84065
G01 X49.59212 Y22.83346
G01 X49.71094 Y22.77722
G01 X49.78432 Y22.72320
G01 X49.88130 Y22.68700
G01 X49.91419 Y22.68347
G01 X51.59387 Y22.68347
G01 X51.62674 Y22.68700
G01 X51.72453 Y22.72350
G01 X51.80888 Y22.78515
G01 X51.84746 Y22.80547
G01 X51.95798 Y22.84311
G01 X51.99704 Y22.84616
G01 X52.09407 Y22.84095
G01 X52.13258 Y22.83376
G01 X52.23842 Y22.78451
G01 X52.32458 Y22.72363
G01 X52.42143 Y22.68751
G01 X52.45424 Y22.68398
G01 X52.89402 Y22.68398
G01 X52.26331 Y22.88423
G01 X52.20235 Y22.96704
G01 X52.19979 Y22.97547
G01 X52.19402 Y23.03399
G01 X52.19402 Y24.63399
G01 X52.20332 Y24.70409
G01 X52.26176 Y24.77986
G01 X52.20332 Y24.70409
G01 X52.12191 Y24.67808
G01 X52.08305 Y24.67249
G01 X51.96496 Y24.67628
G01 X51.85399 Y24.57534
G01 X51.85399 Y23.09200
G01 X51.75249 Y22.97618
G01 X51.70400 Y23.03399
G01 X51.70400 Y24.63399
G01 X51.70113 Y24.66325
G01 X51.69260 Y24.69139
G01 X51.67873 Y24.71732
G01 X51.66009 Y24.74006
G01 X51.63735 Y24.75870
G01 X51.61142 Y24.77257
G01 X51.58328 Y24.78110
G01 X51.55402 Y24.78400
G01 X49.95402 Y24.78400
G01 X49.92476 Y24.78110
G01 X49.89662 Y24.77257
G01 X49.87068 Y24.75870
G01 X49.84795 Y24.74006
G01 X49.82928 Y24.71732
G01 X49.81544 Y24.69139
G01 X49.80690 Y24.66325
G01 X49.80401 Y24.63399
G01 X49.80401 Y23.03399
G01 X49.80690 Y23.00473
G01 X49.81544 Y22.97659
G01 X49.82928 Y22.95065
G01 X49.84795 Y22.92792
G01 X49.87068 Y22.90928
G01 X49.89662 Y22.89541
G01 X49.92476 Y22.88687
G01 X49.95402 Y22.88398
G01 X51.55402 Y22.88398
G01 X51.58328 Y22.88687
G01 X51.61142 Y22.89541
G01 X51.63735 Y22.90928
G01 X51.66009 Y22.92792
G01 X51.67873 Y22.95065
G01 X51.69260 Y22.97659
G01 X51.70113 Y23.00473
G01 X51.70400 Y23.03399
G01 X51.75249 Y22.97618
G01 X51.69892 Y22.92645
G01 X51.63911 Y22.88017
G01 X51.58203 Y22.85972
G01 X49.95531 Y22.85870
G01 X49.92318 Y22.86010
G01 X49.86931 Y22.87994
G01 X49.82986 Y22.90887
G01 X49.79547 Y22.93755
G01 X49.72735 Y23.00575
G01 X49.65402 Y23.09241
G01 X49.65402 Y24.57610
G01 X49.65402 Y23.09241
G01 X49.55902 Y23.19470
G01 X49.55902 Y24.47242
G01 X49.75580 Y24.69210
G01 X49.80949 Y24.74184
G01 X49.86890 Y24.78776
G01 X49.92329 Y24.80785
G01 X51.55275 Y24.80925
G01 X51.58483 Y24.80782
G01 X51.63875 Y24.78801
G01 X51.71292 Y24.73010
G01 X51.78099 Y24.66177
G01 X51.84624 Y24.58403
G01 X51.94904 Y24.47295
G01 X51.94904 Y23.19581
G01 X51.84723 Y23.08461
G04 P0 ( dwell for no time -- G64 should not smooth over this point )
G00 Z5.00000 ( retract )

G00 X49.31399 Y24.57557 ( rapid move to begin. )
G01 F200.00000
( Mill infeed pass 1/1 )
G01 Z-0.15000
G04 P0 ( dwell for no time -- G64 should not smooth over this point )
G01 F200.00000
G01 X49.31399 Y24.57557
G01 X49.31399 Y23.09180
G01 X49.30744 Y23.08464
G01 X49.40904 Y23.19553
G01 X49.40904 Y24.47326
G01 X49.30647 Y24.58400
G01 X49.24069 Y24.66223
G01 X49.17259 Y24.73043
G01 X49.09875 Y24.78801
G01 X49.04483 Y24.80785
G01 X49.01275 Y24.80925
G01 X47.41531 Y24.80925
G01 X47.38329 Y24.80785
G01 X47.32890 Y24.78776
G01 X47.26949 Y24.74184
G01 X47.21580 Y24.69210
G01 X47.11402 Y24.57610
G01 X47.11402 Y23.09241
G01 X47.11402 Y24.57610
G01 X47.01902 Y24.47242
G01 X47.01902 Y23.19470
G01 X47.12159 Y23.08395
G01 X47.18735 Y23.00575
G01 X47.25547 Y22.93755
G01 X47.28986 Y22.90887
G01 X47.32931 Y22.87994
G01 X47.38318 Y22.86010
G01 X47.41531 Y22.85870
G01 X49.04203 Y22.85972
G01 X49.09913 Y22.88019
G01 X49.15859 Y22.92614
G01 X49.21226 Y22.97585
G01 X49.16400 Y23.03399
G01 X49.16400 Y24.63399
G01 X49.16113 Y24.66325
G01 X49.15260 Y24.69139
G01 X49.13873 Y24.71732
G01 X49.12009 Y24.74006
G01 X49.09735 Y24.75870
G01 X49.07142 Y24.77257
G01 X49.04328 Y24.78110
G01 X49.01402 Y24.78400
G01 X47.41402 Y24.78400
G01 X47.38476 Y24.78110
G01 X47.35662 Y24.77257
G01 X47.33068 Y24.75870
G01 X47.30795 Y24.74006
G01 X47.28928 Y24.71732
G01 X47.27544 Y24.69139
G01 X47.26690 Y24.66325
G01 X47.26401 Y24.63399
G01 X47.26401 Y23.03399
G01 X47.26690 Y23.00473
G01 X47.27544 Y22.97659
G01 X47.28928 Y22.95065
G01 X47.30795 Y22.92792
G01 X47.33068 Y22.90928
G01 X47.35662 Y22.89541
G01 X47.38476 Y22.88687
G01 X47.41402 Y22.88398
G01 X49.01402 Y22.88398
G01 X49.04328 Y22.88687
G01 X49.07142 Y22.89541
G01 X49.09735 Y22.90928
G01 X49.12009 Y22.92792
G01 X49.13873 Y22.95065
G01 X49.15260 Y22.97659
G01 X49.16113 Y23.00473
G01 X49.16400 Y23.03399
G01 X49.21226 Y22.97585
G01 X49.30744 Y23.08464
G04 P0 ( dwell for no time -- G64 should not smooth over this point )
G00 Z5.00000 ( retract )

G00 X43.01403 Y18.39199 ( rapid move to begin. )
G01 F200.00000
( Mill infeed pass 1/1 )
G01 Z-0.15000
G04 P0 ( dwell for no time -- G64 should not smooth over this point )
G01 F200.00000
G01 X43.01403 Y18.39199
G01 X43.01403 Y18.83176
G01 X43.01050 Y18.86458
G01 X42.97438 Y18.96143
G01 X42.91405 Y19.04202
G01 X42.83348 Y19.10232
G01 X42.73663 Y19.13844
G01 X42.70382 Y19.14197
G01 X42.26402 Y19.14197
G01 X42.26402 Y18.94200
G01 X42.66402 Y18.94200
G01 X42.69328 Y18.93910
G01 X42.72142 Y18.93057
G01 X42.74735 Y18.91670
G01 X42.77009 Y18.89806
G01 X42.78873 Y18.87532
G01 X42.80260 Y18.84939
G01 X42.81113 Y18.82125
G01 X42.81400 Y18.79199
G01 X42.81400 Y18.39199
G01 X43.01403 Y18.39199
G04 P0 ( dwell for no time -- G64 should not smooth over this point )
G00 Z5.00000 ( retract )

G00 X41.46402 Y18.94200 ( rapid move to begin. )
G01 F200.00000
( Mill infeed pass 1/1 )
G01 Z-0.15000
G04 P0 ( dwell for no time -- G64 should not smooth over this point )
G01 F200.00000
G01 X41.46402 Y18.94200
G01 X41.46402 Y19.14197
G01 X41.02424 Y19.14197
G01 X40.99143 Y19.13844
G01 X40.89455 Y19.10232
G01 X40.81398 Y19.04202
G01 X40.75368 Y18.96143
G01 X40.71756 Y18.86461
G01 X40.71403 Y18.83176
G01 X40.71403 Y18.39196
G01 X40.91401 Y18.39196
G01 X40.91401 Y18.79199
G01 X40.91690 Y18.82125
G01 X40.92544 Y18.84939
G01 X40.93928 Y18.87532
G01 X40.95795 Y18.89806
G01 X40.98068 Y18.91670
G01 X41.00662 Y18.93057
G01 X41.03476 Y18.93910
G01 X41.06402 Y18.94200
G01 X41.46402 Y18.94200
G04 P0 ( dwell for no time -- G64 should not smooth over this point )
G00 Z5.00000 ( retract )

G00 X41.12244 Y14.01196 ( rapid move to begin. )
G01 F200.00000
( Mill infeed pass 1/1 )
G01 Z-0.15000
G04 P0 ( dwell for no time -- G64 should not smooth over this point )
G01 F200.00000
G01 X41.12244 Y14.01196
G01 X41.22475 Y14.10698
G01 X42.50247 Y14.10698
G01 X42.72216 Y13.91021
G01 X42.77189 Y13.85651
G01 X42.81781 Y13.79710
G01 X42.83829 Y13.73993
G01 X42.83930 Y12.11326
G01 X42.81400 Y12.11199
G01 X42.81400 Y13.71199
G01 X42.81113 Y13.74125
G01 X42.80260 Y13.76939
G01 X42.78873 Y13.79532
G01 X42.77009 Y13.81806
G01 X42.74735 Y13.83670
G01 X42.72142 Y13.85057
G01 X42.69328 Y13.85910
G01 X42.66402 Y13.86200
G01 X41.06402 Y13.86200
G01 X41.03476 Y13.85910
G01 X41.00662 Y13.85057
G01 X40.98068 Y13.83670
G01 X40.95795 Y13.81806
G01 X40.93928 Y13.79532
G01 X40.92544 Y13.76939
G01 X40.91690 Y13.74125
G01 X40.91401 Y13.71199
G01 X40.91401 Y12.11199
G01 X40.91690 Y12.08273
G01 X40.92544 Y12.05459
G01 X40.93928 Y12.02865
G01 X40.95795 Y12.00592
G01 X40.98068 Y11.98728
G01 X41.00662 Y11.97341
G01 X41.03476 Y11.96487
G01 X41.06402 Y11.96198
G01 X42.66402 Y11.96198
G01 X42.69328 Y11.96487
G01 X42.72142 Y11.97341
G01 X42.74735 Y11.98728
G01 X42.77009 Y12.00592
G01 X42.78873 Y12.02865
G01 X42.80260 Y12.05459
G01 X42.81113 Y12.08273
G01 X42.81400 Y12.11199
G01 X42.83930 Y12.11326
G01 X42.83788 Y12.08118
G01 X42.81807 Y12.02726
G01 X42.76046 Y11.95342
G01 X42.69226 Y11.88529
G01 X42.61405 Y11.81953
G01 X42.50331 Y11.71697
G01 X41.22559 Y11.71697
G01 X41.12188 Y11.81199
G01 X42.60562 Y11.81199
G01 X41.12188 Y11.81199
G01 X41.00590 Y11.91374
G01 X40.95615 Y11.96746
G01 X40.91022 Y12.02687
G01 X40.89016 Y12.08118
G01 X40.88876 Y12.11326
G01 X40.88876 Y13.71069
G01 X40.89018 Y13.74282
G01 X40.90997 Y13.79667
G01 X40.96760 Y13.87058
G01 X41.03580 Y13.93868
G01 X41.12244 Y14.01196
G01 X42.60615 Y14.01196
G01 X42.61337 Y14.00538
G04 P0 ( dwell for no time -- G64 should not smooth over this point )
G00 Z5.00000 ( retract )

G00 X41.12244 Y11.47196 ( rapid move to begin. )
G01 F200.00000
( Mill infeed pass 1/1 )
G01 Z-0.15000
G04 P0 ( dwell for no time -- G64 should not smooth over this point )
G01 F200.00000
G01 X41.12244 Y11.47196
G01 X41.22475 Y11.56698
G01 X42.50247 Y11.56698
G01 X42.72216 Y11.37021
G01 X42.77189 Y11.31651
G01 X42.81781 Y11.25710
G01 X42.83829 Y11.19993
G01 X42.83930 Y9.57326
G01 X42.81400 Y9.57199
G01 X42.81400 Y11.17199
G01 X42.81113 Y11.20125
G01 X42.80260 Y11.22939
G01 X42.78873 Y11.25532
G01 X42.77009 Y11.27806
G01 X42.74735 Y11.29670
G01 X42.72142 Y11.31057
G01 X42.69328 Y11.31910
G01 X42.66402 Y11.32200
G01 X41.06402 Y11.32200
G01 X41.03476 Y11.31910
G01 X41.00662 Y11.31057
G01 X40.98068 Y11.29670
G01 X40.95795 Y11.27806
G01 X40.93928 Y11.25532
G01 X40.92544 Y11.22939
G01 X40.91690 Y11.20125
G01 X40.91401 Y11.17199
G01 X40.91401 Y9.57199
G01 X40.91690 Y9.54273
G01 X40.92544 Y9.51459
G01 X40.93928 Y9.48865
G01 X40.95795 Y9.46592
G01 X40.98068 Y9.44728
G01 X41.00662 Y9.43341
G01 X41.03476 Y9.42487
G01 X41.06402 Y9.42198
G01 X42.66402 Y9.42198
G01 X42.69328 Y9.42487
G01 X42.72142 Y9.43341
G01 X42.74735 Y9.44728
G01 X42.77009 Y9.46592
G01 X42.78873 Y9.48865
G01 X42.80260 Y9.51459
G01 X42.81113 Y9.54273
G01 X42.81400 Y9.57199
G01 X42.83930 Y9.57326
G01 X42.83788 Y9.54118
G01 X42.81807 Y9.48726
G01 X42.76046 Y9.41342
G01 X42.69226 Y9.34530
G01 X42.61405 Y9.27953
G01 X42.50331 Y9.17697
G01 X41.22559 Y9.17697
G01 X41.12188 Y9.27199
G01 X42.60562 Y9.27199
G01 X41.12188 Y9.27199
G01 X41.00590 Y9.37374
G01 X40.95615 Y9.42746
G01 X40.91022 Y9.48687
G01 X40.89016 Y9.54118
G01 X40.88876 Y9.57326
G01 X40.88876 Y11.17069
G01 X40.89018 Y11.20282
G01 X40.90997 Y11.25667
G01 X40.96760 Y11.33058
G01 X41.03580 Y11.39868
G01 X41.12244 Y11.47196
G01 X42.60615 Y11.47196
G01 X42.61337 Y11.46538
G04 P0 ( dwell for no time -- G64 should not smooth over this point )
G00 Z5.00000 ( retract )

G00 X41.12244 Y8.93196 ( rapid move to begin. )
G01 F200.00000
( Mill infeed pass 1/1 )
G01 Z-0.15000
G04 P0 ( dwell for no time -- G64 should not smooth over this point )
G01 F200.00000
G01 X41.12244 Y8.93196
G01 X41.22475 Y9.02698
G01 X42.50247 Y9.02698
G01 X42.72216 Y8.83021
G01 X42.77189 Y8.77651
G01 X42.81781 Y8.71710
G01 X42.83829 Y8.65993
G01 X42.83930 Y7.03326
G01 X42.81400 Y7.03199
G01 X42.81400 Y8.63199
G01 X42.81113 Y8.66125
G01 X42.80260 Y8.68939
G01 X42.78873 Y8.71532
G01 X42.77009 Y8.73806
G01 X42.74735 Y8.75670
G01 X42.72142 Y8.77057
G01 X42.69328 Y8.77910
G01 X42.66402 Y8.78200
G01 X41.06402 Y8.78200
G01 X41.03476 Y8.77910
G01 X41.00662 Y8.77057
G01 X40.98068 Y8.75670
G01 X40.95795 Y8.73806
G01 X40.93928 Y8.71532
G01 X40.92544 Y8.68939
G01 X40.91690 Y8.66125
G01 X40.91401 Y8.63199
G01 X40.91401 Y7.03199
G01 X40.91690 Y7.00273
G01 X40.92544 Y6.97459
G01 X40.93928 Y6.94865
G01 X40.95795 Y6.92592
G01 X40.98068 Y6.90728
G01 X41.00662 Y6.89341
G01 X41.03476 Y6.88487
G01 X41.06402 Y6.88198
G01 X42.66402 Y6.88198
G01 X42.69328 Y6.88487
G01 X42.72142 Y6.89341
G01 X42.74735 Y6.90728
G01 X42.77009 Y6.92592
G01 X42.78873 Y6.94865
G01 X42.80260 Y6.97459
G01 X42.81113 Y7.00273
G01 X42.81400 Y7.03199
G01 X42.83930 Y7.03326
G01 X42.83788 Y7.00118
G01 X42.81807 Y6.94726
G01 X42.76046 Y6.87342
G01 X42.69226 Y6.80530
G01 X42.61405 Y6.73953
G01 X42.50331 Y6.63694
G01 X41.22559 Y6.63694
G01 X41.12188 Y6.73199
G01 X42.60562 Y6.73199
G01 X41.12188 Y6.73199
G01 X41.00590 Y6.83374
G01 X40.95615 Y6.88746
G01 X40.91022 Y6.94687
G01 X40.89016 Y7.00118
G01 X40.88876 Y7.03326
G01 X40.88876 Y8.63069
G01 X40.89018 Y8.66282
G01 X40.90997 Y8.71667
G01 X40.96760 Y8.79058
G01 X41.03580 Y8.85868
G01 X41.12244 Y8.93196
G01 X42.60615 Y8.93196
G01 X42.61337 Y8.92538
G04 P0 ( dwell for no time -- G64 should not smooth over this point )
G00 Z5.00000 ( retract )

G00 X42.60615 Y6.39196 ( rapid move to begin. )
G01 F200.00000
( Mill infeed pass 1/1 )
G01 Z-0.15000
G04 P0 ( dwell for no time -- G64 should not smooth over this point )
G01 F200.00000
G01 X42.60615 Y6.39196
G01 X42.72218 Y6.29018
G01 X42.77189 Y6.23651
G01 X42.81781 Y6.17710
G01 X42.83829 Y6.11993
G01 X42.83930 Y4.49326
G01 X42.81400 Y4.49199
G01 X42.81400 Y6.09199
G01 X42.81113 Y6.12125
G01 X42.80260 Y6.14939
G01 X42.78873 Y6.17532
G01 X42.77009 Y6.19806
G01 X42.74735 Y6.21670
G01 X42.72142 Y6.23057
G01 X42.69328 Y6.23910
G01 X42.66402 Y6.24200
G01 X41.06402 Y6.24200
G01 X41.03476 Y6.23910
G01 X41.00662 Y6.23057
G01 X40.98068 Y6.21670
G01 X40.95795 Y6.19806
G01 X40.93928 Y6.17532
G01 X40.92544 Y6.14939
G01 X40.91690 Y6.12125
G01 X40.91401 Y6.09199
G01 X40.91401 Y4.49199
G01 X40.91690 Y4.46273
G01 X40.92544 Y4.43459
G01 X40.93928 Y4.40865
G01 X40.95795 Y4.38592
G01 X40.98068 Y4.36728
G01 X41.00662 Y4.35341
G01 X41.03476 Y4.34487
G01 X41.06402 Y4.34198
G01 X42.66402 Y4.34198
G01 X42.69328 Y4.34487
G01 X42.72142 Y4.35341
G01 X42.74735 Y4.36728
G01 X42.77009 Y4.38592
G01 X42.78873 Y4.40865
G01 X42.80260 Y4.43459
G01 X42.81113 Y4.46273
G01 X42.81400 Y4.49199
G01 X42.83930 Y4.49326
G01 X42.83788 Y4.46118
G01 X42.81819 Y4.40759
G01 X42.78832 Y4.36771
G01 X42.74839 Y4.33781
G01 X42.69203 Y4.31772
G01 X41.06531 Y4.31670
G01 X41.03321 Y4.31810
G01 X40.97967 Y4.33781
G01 X40.93974 Y4.36771
G01 X40.90987 Y4.40761
G01 X40.88978 Y4.46397
G01 X40.88876 Y6.09069
G01 X40.89018 Y6.12282
G01 X40.90997 Y6.17667
G01 X40.93890 Y6.21609
G01 X40.96760 Y6.25058
G01 X41.03580 Y6.31868
G01 X41.11401 Y6.38444
G01 X41.22475 Y6.48696
G01 X42.50247 Y6.48696
G01 X42.60615 Y6.39196
G01 X41.12244 Y6.39196
G04 P0 ( dwell for no time -- G64 should not smooth over this point )
G00 Z5.00000 ( retract )

G00 X7.60335 Y8.92538 ( rapid move to begin. )
G01 F200.00000
( Mill infeed pass 1/1 )
G01 Z-0.15000
G04 P0 ( dwell for no time -- G64 should not smooth over this point )
G01 F200.00000
G01 X7.60335 Y8.92538
G01 X7.71222 Y8.83013
G01 X7.76190 Y8.77651
G01 X7.80782 Y8.71708
G01 X7.82825 Y8.66013
G01 X7.82830 Y7.03392
G01 X7.80401 Y7.03199
G01 X7.80112 Y7.00273
G01 X7.79258 Y6.97459
G01 X7.77874 Y6.94865
G01 X7.76007 Y6.92592
G01 X7.73734 Y6.90728
G01 X7.71141 Y6.89341
G01 X7.68329 Y6.88487
G01 X7.65400 Y6.88198
G01 X6.05401 Y6.88198
G01 X6.02474 Y6.88487
G01 X5.99660 Y6.89341
G01 X5.97067 Y6.90728
G01 X5.94793 Y6.92592
G01 X5.92929 Y6.94865
G01 X5.91542 Y6.97459
G01 X5.90689 Y7.00273
G01 X5.90402 Y7.03199
G01 X5.90402 Y8.63199
G01 X5.90689 Y8.66125
G01 X5.91542 Y8.68939
G01 X5.92929 Y8.71532
G01 X5.94793 Y8.73806
G01 X5.97067 Y8.75670
G01 X5.99660 Y8.77057
G01 X6.02474 Y8.77910
G01 X6.05401 Y8.78200
G01 X7.65400 Y8.78200
G01 X7.68329 Y8.77910
G01 X7.71141 Y8.77057
G01 X7.73734 Y8.75670
G01 X7.76007 Y8.73806
G01 X7.77874 Y8.71532
G01 X7.79258 Y8.68939
G01 X7.80112 Y8.66125
G01 X7.80401 Y8.63199
G01 X7.80401 Y7.03199
G01 X7.82830 Y7.03392
G01 X7.82639 Y6.99686
G01 X7.80821 Y6.94764
G01 X7.77831 Y6.90771
G01 X7.73838 Y6.87781
G01 X7.68484 Y6.85810
G01 X7.65273 Y6.85670
G01 X6.05530 Y6.85670
G01 X6.02320 Y6.85810
G01 X5.96965 Y6.87781
G01 X5.92972 Y6.90771
G01 X5.89985 Y6.94759
G01 X5.88017 Y7.00113
G01 X5.87877 Y7.03326
G01 X5.87877 Y8.63069
G01 X5.88017 Y8.66282
G01 X5.89998 Y8.71670
G01 X5.92891 Y8.75614
G01 X5.95756 Y8.79053
G01 X6.02576 Y8.85863
G01 X6.11245 Y8.93196
G01 X7.59614 Y8.93196
G01 X7.60335 Y8.92538
G01 X7.49246 Y9.02698
G01 X6.21476 Y9.02698
G01 X6.11245 Y8.93196
G01 X6.11189 Y9.27199
G01 X7.59563 Y9.27199
G01 X6.11189 Y9.27199
G01 X5.99584 Y9.37382
G01 X5.94616 Y9.42744
G01 X5.90023 Y9.48687
G01 X5.87979 Y9.54397
G01 X5.88017 Y11.20282
G01 X5.89998 Y11.25670
G01 X5.95756 Y11.33053
G01 X6.02576 Y11.39863
G01 X6.10399 Y11.46442
G01 X6.21476 Y11.56698
G01 X7.49035 Y11.56698
G01 X7.59490 Y11.47196
G01 X6.11245 Y11.47196
G01 X7.59490 Y11.47196
G01 X7.68588 Y11.39408
G01 X7.76190 Y11.31651
G01 X7.80782 Y11.25708
G01 X7.82827 Y11.19998
G01 X7.82929 Y9.57326
G01 X7.80401 Y9.57199
G01 X7.80401 Y11.17199
G01 X7.80112 Y11.20125
G01 X7.79258 Y11.22939
G01 X7.77874 Y11.25532
G01 X7.76007 Y11.27806
G01 X7.73734 Y11.29670
G01 X7.71141 Y11.31057
G01 X7.68329 Y11.31910
G01 X7.65400 Y11.32200
G01 X6.05401 Y11.32200
G01 X6.02474 Y11.31910
G01 X5.99660 Y11.31057
G01 X5.97067 Y11.29670
G01 X5.94793 Y11.27806
G01 X5.92929 Y11.25532
G01 X5.91542 Y11.22939
G01 X5.90689 Y11.20125
G01 X5.90402 Y11.17199
G01 X5.90402 Y9.57199
G01 X5.90689 Y9.54273
G01 X5.91542 Y9.51459
G01 X5.92929 Y9.48865
G01 X5.94793 Y9.46592
G01 X5.97067 Y9.44728
G01 X5.99660 Y9.43341
G01 X6.02474 Y9.42487
G01 X6.05401 Y9.42198
G01 X7.65400 Y9.42198
G01 X7.68329 Y9.42487
G01 X7.71141 Y9.43341
G01 X7.73734 Y9.44728
G01 X7.76007 Y9.46592
G01 X7.77874 Y9.48865
G01 X7.79258 Y9.51459
G01 X7.80112 Y9.54273
G01 X7.80401 Y9.57199
G01 X7.82929 Y9.57326
G01 X7.82787 Y9.54113
G01 X7.80805 Y9.48726
G01 X7.75047 Y9.41342
G01 X7.68225 Y9.34530
G01 X7.60404 Y9.27951
G01 X7.49330 Y9.17697
G01 X6.21560 Y9.17697
G01 X6.11189 Y9.27199
G04 P0 ( dwell for no time -- G64 should not smooth over this point )
G00 Z5.00000 ( retract )

G00 X8.00401 Y15.85199 ( rapid move to begin. )
G01 F200.00000
( Mill infeed pass 1/1 )
G01 Z-0.15000
G04 P0 ( dwell for no time -- G64 should not smooth over this point )
G01 F200.00000
G01 X8.00401 Y15.85199
G01 X7.80401 Y15.85199
G01 X7.80401 Y16.25199
G01 X7.80112 Y16.28125
G01 X7.79258 Y16.30939
G01 X7.77874 Y16.33532
G01 X7.76007 Y16.35806
G01 X7.73734 Y16.37670
G01 X7.71141 Y16.39057
G01 X7.68329 Y16.39910
G01 X7.65400 Y16.40200
G01 X7.25403 Y16.40200
G01 X7.25403 Y16.60197
G01 X7.69383 Y16.60197
G01 X7.72665 Y16.59844
G01 X7.82347 Y16.56232
G01 X7.90407 Y16.50202
G01 X7.96436 Y16.42146
G01 X8.00048 Y16.32458
G01 X8.00401 Y16.29176
G01 X8.00401 Y15.85199
G04 P0 ( dwell for no time -- G64 should not smooth over this point )
G00 Z5.00000 ( retract )

G00 X6.45403 Y16.40200 ( rapid move to begin. )
G01 F200.00000
( Mill infeed pass 1/1 )
G01 Z-0.15000
G04 P0 ( dwell for no time -- G64 should not smooth over this point )
G01 F200.00000
G01 X6.45403 Y16.40200
G01 X6.05401 Y16.40200
G01 X6.02474 Y16.39910
G01 X5.99660 Y16.39057
G01 X5.97067 Y16.37670
G01 X5.94793 Y16.35806
G01 X5.92929 Y16.33532
G01 X5.91542 Y16.30939
G01 X5.90689 Y16.28125
G01 X5.90402 Y16.25199
G01 X5.90402 Y15.85196
G01 X5.70402 Y15.85196
G01 X5.70402 Y16.29176
G01 X5.70755 Y16.32461
G01 X5.74367 Y16.42143
G01 X5.80399 Y16.50202
G01 X5.88456 Y16.56232
G01 X5.98141 Y16.59844
G01 X6.01423 Y16.60197
G01 X6.45403 Y16.60197
G01 X6.45403 Y16.40200
G04 P0 ( dwell for no time -- G64 should not smooth over this point )
G00 Z5.00000 ( retract )

G00 X6.12744 Y23.08464 ( rapid move to begin. )
G01 F200.00000
( Mill infeed pass 1/1 )
G01 Z-0.15000
G04 P0 ( dwell for no time -- G64 should not smooth over this point )
G01 F200.00000
G01 X6.12744 Y23.08464
G01 X6.03226 Y22.97585
G01 X5.98400 Y23.03399
G01 X5.98113 Y23.00473
G01 X5.97260 Y22.97659
G01 X5.95873 Y22.95065
G01 X5.94009 Y22.92792
G01 X5.91735 Y22.90928
G01 X5.89142 Y22.89541
G01 X5.86328 Y22.88687
G01 X5.83402 Y22.88398
G01 X4.23402 Y22.88398
G01 X4.20476 Y22.88687
G01 X4.17662 Y22.89541
G01 X4.15068 Y22.90928
G01 X4.12795 Y22.92792
G01 X4.10928 Y22.95065
G01 X4.09544 Y22.97659
G01 X4.08690 Y23.00473
G01 X4.08401 Y23.03399
G01 X4.08401 Y24.63399
G01 X4.08690 Y24.66325
G01 X4.09544 Y24.69139
G01 X4.10928 Y24.71732
G01 X4.12795 Y24.74006
G01 X4.15068 Y24.75870
G01 X4.17662 Y24.77257
G01 X4.20476 Y24.78110
G01 X4.23402 Y24.78400
G01 X5.83402 Y24.78400
G01 X5.86328 Y24.78110
G01 X5.89142 Y24.77257
G01 X5.91735 Y24.75870
G01 X5.94009 Y24.74006
G01 X5.95873 Y24.71732
G01 X5.97260 Y24.69139
G01 X5.98113 Y24.66325
G01 X5.98400 Y24.63399
G01 X5.98400 Y23.03399
G01 X6.03226 Y22.97585
G01 X5.97859 Y22.92614
G01 X5.91913 Y22.88019
G01 X5.86203 Y22.85972
G01 X4.23531 Y22.85870
G01 X4.20321 Y22.86010
G01 X4.14934 Y22.87994
G01 X4.10946 Y22.90920
G01 X4.07514 Y22.93785
G01 X4.00710 Y23.00615
G01 X3.94182 Y23.08393
G01 X3.83902 Y23.19500
G01 X3.83902 Y24.47214
G01 X3.93402 Y24.57590
G01 X3.93402 Y23.09264
G01 X3.93402 Y24.57590
G01 X4.03557 Y24.69177
G01 X4.08916 Y24.74153
G01 X4.14893 Y24.78776
G01 X4.20329 Y24.80785
G01 X4.23531 Y24.80925
G01 X5.83275 Y24.80925
G01 X5.86483 Y24.80785
G01 X5.91875 Y24.78801
G01 X5.99259 Y24.73043
G01 X6.06069 Y24.66223
G01 X6.12647 Y24.58400
G01 X6.22904 Y24.47326
G01 X6.22904 Y23.19553
G01 X6.12744 Y23.08464
G01 X6.13399 Y23.09180
G01 X6.13399 Y24.57557
G04 P0 ( dwell for no time -- G64 should not smooth over this point )
G00 Z5.00000 ( retract )

G00 X9.71402 Y29.46397 ( rapid move to begin. )
G01 F200.00000
( Mill infeed pass 1/1 )
G01 Z-0.15000
G04 P0 ( dwell for no time -- G64 should not smooth over this point )
G01 F200.00000
G01 X9.71402 Y29.46397
G01 X9.71402 Y29.66451
G01 X9.44694 Y29.66621
G01 X9.36540 Y29.68356
G01 X9.30300 Y29.71046
G01 X9.22136 Y29.76672
G01 X9.15684 Y29.84205
G01 X9.12360 Y29.90129
G01 X9.10183 Y29.96565
G01 X9.08903 Y30.06397
G01 X8.88903 Y30.06397
G01 X8.88903 Y30.02163
G01 X8.89708 Y29.94287
G01 X8.94153 Y29.80868
G01 X9.01516 Y29.68930
G01 X9.11435 Y29.59011
G01 X9.23373 Y29.51648
G01 X9.36792 Y29.47203
G01 X9.44668 Y29.46397
G01 X9.71402 Y29.46397
G04 P0 ( dwell for no time -- G64 should not smooth over this point )
G00 Z5.00000 ( retract )

G00 X9.71402 Y31.26349 ( rapid move to begin. )
G01 F200.00000
( Mill infeed pass 1/1 )
G01 Z-0.15000
G04 P0 ( dwell for no time -- G64 should not smooth over this point )
G01 F200.00000
G01 X9.71402 Y31.26349
G01 X9.44694 Y31.26176
G01 X9.36540 Y31.24441
G01 X9.30300 Y31.21751
G01 X9.22136 Y31.16125
G01 X9.15684 Y31.08594
G01 X9.12360 Y31.02668
G01 X9.10183 Y30.96232
G01 X9.08900 Y30.86397
G01 X8.88903 Y30.86397
G01 X8.88903 Y30.90634
G01 X8.89708 Y30.98510
G01 X8.94153 Y31.11927
G01 X9.01516 Y31.23865
G01 X9.11435 Y31.33783
G01 X9.23373 Y31.41147
G01 X9.36792 Y31.45592
G01 X9.44668 Y31.46397
G01 X9.71402 Y31.46397
G01 X9.71402 Y31.26349
G04 P0 ( dwell for no time -- G64 should not smooth over this point )
G00 Z5.00000 ( retract )

G00 X11.33903 Y30.86397 ( rapid move to begin. )
G01 F200.00000
( Mill infeed pass 1/1 )
G01 Z-0.15000
G04 P0 ( dwell for no time -- G64 should not smooth over this point )
G01 F200.00000
G01 X11.33903 Y30.86397
G01 X11.13901 Y30.86397
G01 X11.12621 Y30.96232
G01 X11.10444 Y31.02668
G01 X11.07117 Y31.08594
G01 X11.00668 Y31.16125
G01 X10.92501 Y31.21751
G01 X10.86263 Y31.24441
G01 X10.78107 Y31.26176
G01 X10.51402 Y31.26349
G01 X10.51402 Y31.46397
G01 X10.78138 Y31.46397
G01 X10.86014 Y31.45592
G01 X10.99433 Y31.41147
G01 X11.11371 Y31.33783
G01 X11.21287 Y31.23865
G01 X11.28651 Y31.11927
G01 X11.33098 Y30.98508
G01 X11.33903 Y30.90631
G01 X11.33903 Y30.86397
G04 P0 ( dwell for no time -- G64 should not smooth over this point )
G00 Z5.00000 ( retract )

G00 X11.33903 Y30.02163 ( rapid move to begin. )
G01 F200.00000
( Mill infeed pass 1/1 )
G01 Z-0.15000
G04 P0 ( dwell for no time -- G64 should not smooth over this point )
G01 F200.00000
G01 X11.33903 Y30.02163
G01 X11.33098 Y29.94287
G01 X11.28651 Y29.80868
G01 X11.21287 Y29.68930
G01 X11.11371 Y29.59011
G01 X10.99433 Y29.51648
G01 X10.86014 Y29.47203
G01 X10.78138 Y29.46397
G01 X10.51402 Y29.46397
G01 X10.51402 Y29.66451
G01 X10.78107 Y29.66621
G01 X10.87729 Y29.68920
G01 X10.93901 Y29.71757
G01 X10.99446 Y29.75684
G01 X11.06263 Y29.82887
G01 X11.10444 Y29.90129
G01 X11.12621 Y29.96565
G01 X11.13901 Y30.06397
G01 X11.33903 Y30.06397
G01 X11.33903 Y30.02163
G04 P0 ( dwell for no time -- G64 should not smooth over this point )
G00 Z5.00000 ( retract )

G00 X8.67399 Y24.57557 ( rapid move to begin. )
G01 F200.00000
( Mill infeed pass 1/1 )
G01 Z-0.15000
G04 P0 ( dwell for no time -- G64 should not smooth over this point )
G01 F200.00000
G01 X8.67399 Y24.57557
G01 X8.67399 Y23.09180
G01 X8.66744 Y23.08464
G01 X8.76904 Y23.19553
G01 X8.76904 Y24.47326
G01 X8.66647 Y24.58400
G01 X8.60069 Y24.66223
G01 X8.53259 Y24.73043
G01 X8.45875 Y24.78801
G01 X8.40483 Y24.80785
G01 X8.37275 Y24.80925
G01 X6.77531 Y24.80925
G01 X6.74329 Y24.80785
G01 X6.68890 Y24.78776
G01 X6.62949 Y24.74184
G01 X6.57580 Y24.69210
G01 X6.47402 Y24.57610
G01 X6.47402 Y23.09241
G01 X6.47402 Y24.57610
G01 X6.37902 Y24.47242
G01 X6.37902 Y23.19470
G01 X6.48159 Y23.08395
G01 X6.54735 Y23.00575
G01 X6.61547 Y22.93755
G01 X6.64986 Y22.90887
G01 X6.68931 Y22.87994
G01 X6.74318 Y22.86010
G01 X6.77531 Y22.85870
G01 X8.40203 Y22.85972
G01 X8.45913 Y22.88019
G01 X8.51859 Y22.92614
G01 X8.57226 Y22.97585
G01 X8.52400 Y23.03399
G01 X8.52400 Y24.63399
G01 X8.52113 Y24.66325
G01 X8.51260 Y24.69139
G01 X8.49873 Y24.71732
G01 X8.48009 Y24.74006
G01 X8.45735 Y24.75870
G01 X8.43142 Y24.77257
G01 X8.40328 Y24.78110
G01 X8.37402 Y24.78400
G01 X6.77402 Y24.78400
G01 X6.74476 Y24.78110
G01 X6.71662 Y24.77257
G01 X6.69068 Y24.75870
G01 X6.66795 Y24.74006
G01 X6.64928 Y24.71732
G01 X6.63544 Y24.69139
G01 X6.62690 Y24.66325
G01 X6.62401 Y24.63399
G01 X6.62401 Y23.03399
G01 X6.62690 Y23.00473
G01 X6.63544 Y22.97659
G01 X6.64928 Y22.95065
G01 X6.66795 Y22.92792
G01 X6.69068 Y22.90928
G01 X6.71662 Y22.89541
G01 X6.74476 Y22.88687
G01 X6.77402 Y22.88398
G01 X8.37402 Y22.88398
G01 X8.40328 Y22.88687
G01 X8.43142 Y22.89541
G01 X8.45735 Y22.90928
G01 X8.48009 Y22.92792
G01 X8.49873 Y22.95065
G01 X8.51260 Y22.97659
G01 X8.52113 Y23.00473
G01 X8.52400 Y23.03399
G01 X8.57226 Y22.97585
G01 X8.66744 Y23.08464
G04 P0 ( dwell for no time -- G64 should not smooth over this point )
G00 Z5.00000 ( retract )

G00 X11.20744 Y23.08464 ( rapid move to begin. )
G01 F200.00000
( Mill infeed pass 1/1 )
G01 Z-0.15000
G04 P0 ( dwell for no time -- G64 should not smooth over this point )
G01 F200.00000
G01 X11.20744 Y23.08464
G01 X11.11226 Y22.97585
G01 X11.05859 Y22.92614
G01 X10.99913 Y22.88019
G01 X10.94203 Y22.85972
G01 X9.28603 Y22.85972
G01 X9.22931 Y22.87994
G01 X9.15547 Y22.93755
G01 X9.08735 Y23.00575
G01 X9.02159 Y23.08395
G01 X8.91902 Y23.19470
G01 X8.91902 Y24.47242
G01 X9.01402 Y24.57610
G01 X9.01402 Y23.09241
G01 X9.01402 Y24.57610
G01 X9.10053 Y24.67582
G01 X9.17638 Y24.74722
G01 X9.22834 Y24.78705
G01 X9.31727 Y24.81621
G01 X9.47259 Y24.85921
G01 X9.56446 Y24.89426
G01 X9.58857 Y24.91085
G01 X9.59799 Y24.90201
G01 X9.58857 Y24.91085
G01 X9.60449 Y24.93538
G01 X9.63231 Y25.01374
G01 X9.66657 Y25.14204
G01 X9.68052 Y25.23112
G01 X9.68725 Y25.30465
G01 X9.68666 Y26.08819
G01 X9.67531 Y26.19639
G01 X9.65430 Y26.30279
G01 X9.61872 Y26.41956
G01 X9.62184 Y26.42128
G01 X9.61872 Y26.41956
G01 X9.59893 Y26.45138
G01 X9.57810 Y26.46543
G01 X9.58036 Y26.46860
G01 X9.57810 Y26.46543
G01 X9.31029 Y26.57696
G01 X9.22352 Y26.63038
G01 X9.15438 Y26.69962
G01 X9.13320 Y26.73162
G01 X9.10236 Y26.78364
G01 X9.07064 Y26.87963
G01 X9.06375 Y26.96494
G01 X9.06375 Y27.76299
G01 X9.07064 Y27.84833
G01 X9.10236 Y27.94429
G01 X9.15435 Y28.02832
G01 X9.22354 Y28.09758
G01 X9.29850 Y28.14477
G01 X9.38108 Y28.17541
G01 X9.45654 Y28.18849
G01 X10.75069 Y28.18907
G01 X10.80731 Y28.18437
G01 X10.84699 Y28.17541
G01 X10.91973 Y28.14996
G01 X10.97119 Y28.11991
G01 X11.00449 Y28.09761
G01 X11.07365 Y28.02834
G01 X11.12570 Y27.94427
G01 X11.15742 Y27.84836
G01 X11.16428 Y27.76299
G01 X11.16428 Y26.96494
G01 X11.13901 Y26.96398
G01 X11.12621 Y26.86566
G01 X11.10444 Y26.80129
G01 X11.07117 Y26.74203
G01 X11.00668 Y26.66672
G01 X10.93901 Y26.61757
G01 X10.86263 Y26.58356
G01 X10.77300 Y26.56553
G01 X10.51404 Y26.56395
G01 X10.51404 Y24.78400
G01 X10.91402 Y24.78400
G01 X10.94328 Y24.78110
G01 X10.97142 Y24.77257
G01 X10.99735 Y24.75870
G01 X11.02009 Y24.74006
G01 X11.03873 Y24.71732
G01 X11.05260 Y24.69139
G01 X11.06113 Y24.66325
G01 X11.06400 Y24.63399
G01 X11.06400 Y23.03399
G01 X11.06113 Y23.00473
G01 X11.05260 Y22.97659
G01 X11.03873 Y22.95065
G01 X11.02009 Y22.92792
G01 X10.99735 Y22.90928
G01 X10.97142 Y22.89541
G01 X10.94328 Y22.88687
G01 X10.91402 Y22.88398
G01 X9.31402 Y22.88398
G01 X9.28476 Y22.88687
G01 X9.25662 Y22.89541
G01 X9.23068 Y22.90928
G01 X9.20795 Y22.92792
G01 X9.18928 Y22.95065
G01 X9.17544 Y22.97659
G01 X9.16690 Y23.00473
G01 X9.16401 Y23.03399
G01 X9.16401 Y24.63399
G01 X9.16690 Y24.66325
G01 X9.17544 Y24.69139
G01 X9.18928 Y24.71732
G01 X9.20795 Y24.74006
G01 X9.23068 Y24.75870
G01 X9.25662 Y24.77257
G01 X9.28476 Y24.78110
G01 X9.31402 Y24.78400
G01 X9.71402 Y24.78400
G01 X9.71402 Y26.56395
G01 X9.45504 Y26.56553
G01 X9.36540 Y26.58356
G01 X9.28900 Y26.61757
G01 X9.22136 Y26.66672
G01 X9.16540 Y26.72888
G01 X9.12360 Y26.80129
G01 X9.09530 Y26.89634
G01 X9.08900 Y26.96398
G01 X9.08900 Y27.76398
G01 X9.09776 Y27.84716
G01 X9.12360 Y27.92669
G01 X9.16540 Y27.99911
G01 X9.22136 Y28.06123
G01 X9.28900 Y28.11041
G01 X9.36540 Y28.14442
G01 X9.46271 Y28.16261
G01 X10.77300 Y28.16240
G01 X10.86263 Y28.14442
G01 X10.95219 Y28.10185
G01 X11.00668 Y28.06123
G01 X11.05275 Y28.01130
G01 X11.09730 Y27.94066
G01 X11.13027 Y27.84716
G01 X11.13820 Y27.77968
G01 X11.13901 Y26.96398
G01 X11.16428 Y26.96494
G01 X11.15742 Y26.87960
G01 X11.12570 Y26.78366
G01 X11.09486 Y26.73162
G01 X11.07365 Y26.69959
G01 X11.00452 Y26.63038
G01 X10.91803 Y26.57709
G01 X10.72583 Y26.49903
G01 X10.64907 Y26.46337
G01 X10.64683 Y26.46647
G01 X10.64907 Y26.46337
G01 X10.62209 Y26.44110
G01 X10.61110 Y26.42037
G01 X10.60767 Y26.42222
G01 X10.61110 Y26.42037
G01 X10.58564 Y26.34524
G01 X10.55897 Y26.23571
G01 X10.53992 Y26.06810
G01 X10.53934 Y25.35664
G01 X10.54673 Y25.24011
G01 X10.55786 Y25.15598
G01 X10.59403 Y25.01976
G01 X10.62319 Y24.93589
G01 X10.63500 Y24.91562
G01 X10.62507 Y24.90709
G01 X10.63500 Y24.91562
G01 X10.66284 Y24.89441
G01 X10.73401 Y24.86640
G01 X10.99827 Y24.78796
G01 X11.05179 Y24.74714
G01 X11.11617 Y24.68689
G01 X11.30904 Y24.47026
G01 X11.30904 Y23.19553
G01 X11.20744 Y23.08464
G01 X11.21399 Y23.09180
G01 X11.21399 Y24.57511
G04 P0 ( dwell for no time -- G64 should not smooth over this point )
G00 Z5.00000 ( retract )

G00 X13.74744 Y23.08464 ( rapid move to begin. )
G01 F200.00000
( Mill infeed pass 1/1 )
G01 Z-0.15000
G04 P0 ( dwell for no time -- G64 should not smooth over this point )
G01 F200.00000
G01 X13.74744 Y23.08464
G01 X13.65226 Y22.97585
G01 X13.60400 Y23.03399
G01 X13.60113 Y23.00473
G01 X13.59260 Y22.97659
G01 X13.57873 Y22.95065
G01 X13.56009 Y22.92792
G01 X13.53735 Y22.90928
G01 X13.51142 Y22.89541
G01 X13.48328 Y22.88687
G01 X13.45402 Y22.88398
G01 X11.85402 Y22.88398
G01 X11.82476 Y22.88687
G01 X11.79662 Y22.89541
G01 X11.77068 Y22.90928
G01 X11.74795 Y22.92792
G01 X11.72928 Y22.95065
G01 X11.71544 Y22.97659
G01 X11.70690 Y23.00473
G01 X11.70401 Y23.03399
G01 X11.70401 Y24.63399
G01 X11.70690 Y24.66325
G01 X11.71544 Y24.69139
G01 X11.72928 Y24.71732
G01 X11.74795 Y24.74006
G01 X11.77068 Y24.75870
G01 X11.79662 Y24.77257
G01 X11.82476 Y24.78110
G01 X11.85402 Y24.78400
G01 X13.45402 Y24.78400
G01 X13.48328 Y24.78110
G01 X13.51142 Y24.77257
G01 X13.53735 Y24.75870
G01 X13.56009 Y24.74006
G01 X13.57873 Y24.71732
G01 X13.59260 Y24.69139
G01 X13.60113 Y24.66325
G01 X13.60400 Y24.63399
G01 X13.60400 Y23.03399
G01 X13.65226 Y22.97585
G01 X13.59859 Y22.92614
G01 X13.53913 Y22.88019
G01 X13.48203 Y22.85972
G01 X11.85531 Y22.85870
G01 X11.82318 Y22.86010
G01 X11.76931 Y22.87994
G01 X11.72986 Y22.90887
G01 X11.69547 Y22.93755
G01 X11.62735 Y23.00575
G01 X11.56159 Y23.08395
G01 X11.45902 Y23.19470
G01 X11.45902 Y24.47031
G01 X11.55402 Y24.57483
G01 X11.55402 Y23.09241
G01 X11.55402 Y24.57483
G01 X11.63177 Y24.66569
G01 X11.70949 Y24.74184
G01 X11.76890 Y24.78776
G01 X11.82329 Y24.80785
G01 X11.85531 Y24.80925
G01 X13.45275 Y24.80925
G01 X13.48483 Y24.80785
G01 X13.53875 Y24.78801
G01 X13.61259 Y24.73043
G01 X13.68069 Y24.66223
G01 X13.74647 Y24.58400
G01 X13.84904 Y24.47326
G01 X13.84904 Y23.19553
G01 X13.74744 Y23.08464
G01 X13.75399 Y23.09180
G01 X13.75399 Y24.57557
G04 P0 ( dwell for no time -- G64 should not smooth over this point )
G00 Z5.00000 ( retract )

G00 X16.28744 Y23.08464 ( rapid move to begin. )
G01 F200.00000
( Mill infeed pass 1/1 )
G01 Z-0.15000
G04 P0 ( dwell for no time -- G64 should not smooth over this point )
G01 F200.00000
G01 X16.28744 Y23.08464
G01 X16.19226 Y22.97585
G01 X16.14400 Y23.03399
G01 X16.14113 Y23.00473
G01 X16.13260 Y22.97659
G01 X16.11873 Y22.95065
G01 X16.10009 Y22.92792
G01 X16.07735 Y22.90928
G01 X16.05142 Y22.89541
G01 X16.02328 Y22.88687
G01 X15.99402 Y22.88398
G01 X14.39402 Y22.88398
G01 X14.36476 Y22.88687
G01 X14.33662 Y22.89541
G01 X14.31068 Y22.90928
G01 X14.28795 Y22.92792
G01 X14.26928 Y22.95065
G01 X14.25544 Y22.97659
G01 X14.24690 Y23.00473
G01 X14.24401 Y23.03399
G01 X14.24401 Y24.63399
G01 X14.24690 Y24.66325
G01 X14.25544 Y24.69139
G01 X14.26928 Y24.71732
G01 X14.28795 Y24.74006
G01 X14.31068 Y24.75870
G01 X14.33662 Y24.77257
G01 X14.36476 Y24.78110
G01 X14.39402 Y24.78400
G01 X15.99402 Y24.78400
G01 X16.02328 Y24.78110
G01 X16.05142 Y24.77257
G01 X16.07735 Y24.75870
G01 X16.10009 Y24.74006
G01 X16.11873 Y24.71732
G01 X16.13260 Y24.69139
G01 X16.14113 Y24.66325
G01 X16.14400 Y24.63399
G01 X16.14400 Y23.03399
G01 X16.19226 Y22.97585
G01 X16.13859 Y22.92614
G01 X16.07913 Y22.88019
G01 X16.02203 Y22.85972
G01 X14.39531 Y22.85870
G01 X14.36318 Y22.86010
G01 X14.30931 Y22.87994
G01 X14.26986 Y22.90887
G01 X14.23547 Y22.93755
G01 X14.16735 Y23.00575
G01 X14.10159 Y23.08395
G01 X13.99902 Y23.19470
G01 X13.99902 Y24.47242
G01 X14.09402 Y24.57610
G01 X14.09402 Y23.09241
G01 X14.09402 Y24.57610
G01 X14.19580 Y24.69210
G01 X14.24949 Y24.74184
G01 X14.30890 Y24.78776
G01 X14.36329 Y24.80785
G01 X14.39531 Y24.80925
G01 X15.99275 Y24.80925
G01 X16.02483 Y24.80785
G01 X16.07875 Y24.78801
G01 X16.15259 Y24.73043
G01 X16.22069 Y24.66223
G01 X16.28647 Y24.58400
G01 X16.38904 Y24.47326
G01 X16.38904 Y23.19553
G01 X16.28744 Y23.08464
G01 X16.29399 Y23.09180
G01 X16.29399 Y24.57557
G04 P0 ( dwell for no time -- G64 should not smooth over this point )
G00 Z5.00000 ( retract )

G00 X18.82744 Y23.08464 ( rapid move to begin. )
G01 F200.00000
( Mill infeed pass 1/1 )
G01 Z-0.15000
G04 P0 ( dwell for no time -- G64 should not smooth over this point )
G01 F200.00000
G01 X18.82744 Y23.08464
G01 X18.73226 Y22.97585
G01 X18.68400 Y23.03399
G01 X18.68113 Y23.00473
G01 X18.67260 Y22.97659
G01 X18.65873 Y22.95065
G01 X18.64009 Y22.92792
G01 X18.61735 Y22.90928
G01 X18.59142 Y22.89541
G01 X18.56328 Y22.88687
G01 X18.53402 Y22.88398
G01 X16.93402 Y22.88398
G01 X16.90476 Y22.88687
G01 X16.87662 Y22.89541
G01 X16.85068 Y22.90928
G01 X16.82795 Y22.92792
G01 X16.80928 Y22.95065
G01 X16.79544 Y22.97659
G01 X16.78690 Y23.00473
G01 X16.78401 Y23.03399
G01 X16.78401 Y24.63399
G01 X16.78690 Y24.66325
G01 X16.79544 Y24.69139
G01 X16.80928 Y24.71732
G01 X16.82795 Y24.74006
G01 X16.85068 Y24.75870
G01 X16.87662 Y24.77257
G01 X16.90476 Y24.78110
G01 X16.93402 Y24.78400
G01 X18.53402 Y24.78400
G01 X18.56328 Y24.78110
G01 X18.59142 Y24.77257
G01 X18.61735 Y24.75870
G01 X18.64009 Y24.74006
G01 X18.65873 Y24.71732
G01 X18.67260 Y24.69139
G01 X18.68113 Y24.66325
G01 X18.68400 Y24.63399
G01 X18.68400 Y23.03399
G01 X18.73226 Y22.97585
G01 X18.67862 Y22.92614
G01 X18.61916 Y22.88019
G01 X18.56480 Y22.86010
G01 X16.93531 Y22.85870
G01 X16.90318 Y22.86010
G01 X16.84931 Y22.87994
G01 X16.80986 Y22.90887
G01 X16.77547 Y22.93755
G01 X16.70735 Y23.00575
G01 X16.64159 Y23.08395
G01 X16.53902 Y23.19470
G01 X16.53902 Y24.47242
G01 X16.63402 Y24.57610
G01 X16.63402 Y23.09241
G01 X16.63402 Y24.57610
G01 X16.73580 Y24.69210
G01 X16.78949 Y24.74184
G01 X16.84890 Y24.78776
G01 X16.90329 Y24.80785
G01 X16.93531 Y24.80925
G01 X18.53275 Y24.80925
G01 X18.56483 Y24.80782
G01 X18.61875 Y24.78801
G01 X18.69259 Y24.73043
G01 X18.76071 Y24.66223
G01 X18.82647 Y24.58400
G01 X18.92904 Y24.47326
G01 X18.92904 Y23.19553
G01 X18.82744 Y23.08464
G01 X18.83399 Y23.09180
G01 X18.83399 Y24.57557
G04 P0 ( dwell for no time -- G64 should not smooth over this point )
G00 Z5.00000 ( retract )

G00 X21.36744 Y23.08464 ( rapid move to begin. )
G01 F200.00000
( Mill infeed pass 1/1 )
G01 Z-0.15000
G04 P0 ( dwell for no time -- G64 should not smooth over this point )
G01 F200.00000
G01 X21.36744 Y23.08464
G01 X21.27226 Y22.97585
G01 X21.22400 Y23.03399
G01 X21.22113 Y23.00473
G01 X21.21260 Y22.97659
G01 X21.19876 Y22.95065
G01 X21.18009 Y22.92792
G01 X21.15735 Y22.90928
G01 X21.13142 Y22.89541
G01 X21.10330 Y22.88687
G01 X21.07402 Y22.88398
G01 X19.47402 Y22.88398
G01 X19.44478 Y22.88687
G01 X19.41662 Y22.89541
G01 X19.39071 Y22.90928
G01 X19.36795 Y22.92792
G01 X19.34928 Y22.95065
G01 X19.33544 Y22.97659
G01 X19.32690 Y23.00473
G01 X19.32401 Y23.03399
G01 X19.32401 Y24.63399
G01 X19.32690 Y24.66325
G01 X19.33544 Y24.69139
G01 X19.34928 Y24.71732
G01 X19.36795 Y24.74006
G01 X19.39071 Y24.75870
G01 X19.41662 Y24.77257
G01 X19.44478 Y24.78110
G01 X19.47402 Y24.78400
G01 X21.07402 Y24.78400
G01 X21.10330 Y24.78110
G01 X21.13142 Y24.77257
G01 X21.15735 Y24.75870
G01 X21.18009 Y24.74006
G01 X21.19876 Y24.71732
G01 X21.21260 Y24.69139
G01 X21.22113 Y24.66325
G01 X21.22400 Y24.63399
G01 X21.22400 Y23.03399
G01 X21.27226 Y22.97585
G01 X21.21859 Y22.92614
G01 X21.15913 Y22.88019
G01 X21.10203 Y22.85972
G01 X19.47531 Y22.85870
G01 X19.44318 Y22.86010
G01 X19.38934 Y22.87994
G01 X19.34989 Y22.90887
G01 X19.31550 Y22.93755
G01 X19.24735 Y23.00575
G01 X19.18159 Y23.08395
G01 X19.07905 Y23.19470
G01 X19.07905 Y24.47242
G01 X19.17405 Y24.57610
G01 X19.17405 Y23.09241
G01 X19.17405 Y24.57610
G01 X19.27580 Y24.69210
G01 X19.32949 Y24.74184
G01 X19.38890 Y24.78776
G01 X19.44329 Y24.80785
G01 X19.47531 Y24.80925
G01 X21.07275 Y24.80925
G01 X21.10483 Y24.80785
G01 X21.15875 Y24.78801
G01 X21.23259 Y24.73043
G01 X21.30069 Y24.66223
G01 X21.36647 Y24.58400
G01 X21.46904 Y24.47326
G01 X21.46904 Y23.19553
G01 X21.36744 Y23.08464
G01 X21.37399 Y23.09180
G01 X21.37399 Y24.57557
G04 P0 ( dwell for no time -- G64 should not smooth over this point )
G00 Z5.00000 ( retract )

G00 X23.97830 Y27.87002 ( rapid move to begin. )
G01 F200.00000
( Mill infeed pass 1/1 )
G01 Z-0.15000
G04 P0 ( dwell for no time -- G64 should not smooth over this point )
G01 F200.00000
G01 X23.97830 Y27.87002
G01 X23.98900 Y27.76398
G01 X23.98900 Y26.96398
G01 X23.97698 Y26.84963
G01 X23.94145 Y26.74028
G01 X23.88397 Y26.64071
G01 X23.82923 Y26.57747
G01 X23.78262 Y26.53551
G01 X23.71402 Y26.48765
G01 X23.68602 Y26.47343
G01 X23.60896 Y26.44089
G01 X23.52750 Y26.42192
G01 X23.48084 Y26.41577
G01 X23.36400 Y26.41399
G01 X23.32263 Y26.45344
G01 X23.36400 Y26.41399
G01 X23.36400 Y24.93396
G01 X23.32009 Y24.89004
G01 X23.36400 Y24.93396
G01 X23.61402 Y24.93396
G01 X23.67254 Y24.92822
G01 X23.72882 Y24.91113
G01 X23.78067 Y24.88341
G01 X23.82613 Y24.84610
G01 X23.86344 Y24.80066
G01 X23.89116 Y24.74879
G01 X23.90822 Y24.69251
G01 X23.91399 Y24.63399
G01 X23.91399 Y23.09180
G01 X23.90744 Y23.08464
G01 X24.00904 Y23.19553
G01 X24.00904 Y25.26909
G01 X23.90101 Y25.32685
G01 X23.81396 Y25.35324
G01 X23.78445 Y25.33134
G01 X23.81396 Y25.35324
G01 X23.81396 Y26.03830
G01 X23.79283 Y26.05087
G01 X23.81396 Y26.03830
G01 X23.82131 Y26.04112
G01 X23.93898 Y26.09802
G01 X24.00904 Y26.14384
G01 X24.00904 Y26.55832
G01 X23.98900 Y26.96398
G01 X23.83901 Y26.96398
G01 X23.83901 Y27.76398
G01 X23.83027 Y27.84716
G01 X23.80444 Y27.92669
G01 X23.75275 Y28.01130
G01 X23.70668 Y28.06123
G01 X23.63901 Y28.11041
G01 X23.56263 Y28.14442
G01 X23.49634 Y28.15933
G01 X23.43886 Y28.16398
G01 X22.14712 Y28.16179
G01 X22.06540 Y28.14442
G01 X21.97584 Y28.10185
G01 X21.92136 Y28.06123
G01 X21.87528 Y28.01130
G01 X21.82360 Y27.92669
G01 X21.79776 Y27.84716
G01 X21.78900 Y27.76398
G01 X21.78900 Y26.96398
G01 X21.79776 Y26.88082
G01 X21.82360 Y26.80129
G01 X21.86540 Y26.72888
G01 X21.92136 Y26.66672
G01 X21.98900 Y26.61757
G01 X22.05075 Y26.58920
G01 X22.08057 Y26.57950
G01 X22.15504 Y26.56553
G01 X22.41402 Y26.56395
G01 X22.41402 Y24.78400
G01 X22.01402 Y24.78400
G01 X21.98476 Y24.78110
G01 X21.95662 Y24.77257
G01 X21.93068 Y24.75870
G01 X21.90795 Y24.74006
G01 X21.88928 Y24.71732
G01 X21.87544 Y24.69139
G01 X21.86690 Y24.66325
G01 X21.86401 Y24.63399
G01 X21.86401 Y23.03399
G01 X21.86690 Y23.00473
G01 X21.87544 Y22.97659
G01 X21.88928 Y22.95065
G01 X21.90795 Y22.92792
G01 X21.93068 Y22.90928
G01 X21.95662 Y22.89541
G01 X21.98476 Y22.88687
G01 X22.01402 Y22.88398
G01 X23.61402 Y22.88398
G01 X23.64328 Y22.88687
G01 X23.67142 Y22.89541
G01 X23.69735 Y22.90928
G01 X23.72009 Y22.92792
G01 X23.73873 Y22.95065
G01 X23.75260 Y22.97659
G01 X23.76113 Y23.00473
G01 X23.76400 Y23.03399
G01 X23.76400 Y24.63399
G01 X23.76113 Y24.66325
G01 X23.75260 Y24.69139
G01 X23.73873 Y24.71732
G01 X23.72009 Y24.74006
G01 X23.69735 Y24.75870
G01 X23.67142 Y24.77257
G01 X23.64328 Y24.78110
G01 X23.61402 Y24.78400
G01 X23.21404 Y24.78400
G01 X23.21404 Y26.56395
G01 X23.47300 Y26.56553
G01 X23.56263 Y26.58356
G01 X23.63901 Y26.61757
G01 X23.71777 Y26.67782
G01 X23.76263 Y26.72888
G01 X23.79730 Y26.78730
G01 X23.83027 Y26.88082
G01 X23.83901 Y26.96398
G01 X23.98900 Y26.96398
G01 X24.00904 Y26.55832
G01 X24.00904 Y26.33365
G01 X23.91666 Y26.26210
G01 X23.86400 Y26.22789
G01 X23.80805 Y26.19939
G01 X23.70167 Y26.15562
G01 X23.66398 Y26.14554
G01 X23.63863 Y26.16248
G01 X23.66398 Y26.14554
G01 X23.66398 Y25.22903
G01 X23.63121 Y25.20285
G01 X23.66398 Y25.22903
G01 X23.73106 Y25.22240
G01 X23.84361 Y25.18827
G01 X23.94734 Y25.13284
G01 X24.00904 Y25.08220
G01 X24.00904 Y24.84491
G01 X23.98816 Y24.88397
G01 X23.93220 Y24.95217
G01 X23.86400 Y25.00813
G01 X23.78620 Y25.04971
G01 X23.70180 Y25.07531
G01 X23.61402 Y25.08395
G01 X23.51399 Y25.08395
G01 X23.47249 Y25.04430
G01 X23.51399 Y25.08395
G01 X23.51399 Y26.26934
G01 X23.48023 Y26.29690
G01 X23.51399 Y26.26934
G01 X23.55869 Y26.27521
G01 X23.65532 Y26.29827
G01 X23.74704 Y26.33642
G01 X23.82849 Y26.38344
G01 X23.90739 Y26.44381
G01 X23.97566 Y26.51595
G01 X24.00904 Y26.55832
G01 X24.00904 Y27.84371
G01 X23.74968 Y28.06261
G01 X23.67038 Y28.11963
G01 X23.61790 Y28.15067
G01 X23.59311 Y28.16024
G01 X23.52293 Y28.18191
G01 X23.47178 Y28.18851
G01 X22.16307 Y28.18856
G01 X22.12067 Y28.18435
G01 X22.08108 Y28.17541
G01 X22.00830 Y28.14996
G01 X21.92354 Y28.09758
G01 X21.85435 Y28.02832
G01 X21.80236 Y27.94429
G01 X21.77064 Y27.84833
G01 X21.76375 Y27.76299
G01 X21.76375 Y26.96494
G01 X21.77064 Y26.87963
G01 X21.77739 Y26.85669
G01 X21.80236 Y26.78364
G01 X21.83320 Y26.73162
G01 X21.85438 Y26.69962
G01 X21.92352 Y26.63038
G01 X22.01029 Y26.57696
G01 X22.27810 Y26.46543
G01 X22.30729 Y26.44193
G01 X22.31674 Y26.45021
G01 X22.30729 Y26.44193
G01 X22.31872 Y26.41956
G01 X22.35461 Y26.30287
G01 X22.37531 Y26.19639
G01 X22.38902 Y26.03876
G01 X22.38689 Y25.30150
G01 X22.36708 Y25.14191
G01 X22.33342 Y25.01730
G01 X22.30449 Y24.93538
G01 X22.31016 Y24.93162
G01 X22.30449 Y24.93538
G01 X22.28857 Y24.91085
G01 X22.27732 Y24.90137
G01 X22.24386 Y24.88550
G01 X22.24521 Y24.88301
G01 X22.24386 Y24.88550
G01 X22.11277 Y24.84036
G01 X22.03228 Y24.82042
G01 X21.92979 Y24.78796
G01 X21.87630 Y24.74717
G01 X21.80053 Y24.67582
G01 X21.61902 Y24.47242
G01 X21.61902 Y23.19470
G01 X21.71402 Y23.09241
G01 X21.71402 Y24.57610
G01 X21.71402 Y23.09241
G01 X21.78735 Y23.00575
G01 X21.85547 Y22.93755
G01 X21.92931 Y22.87994
G01 X21.98318 Y22.86010
G01 X22.01531 Y22.85870
G01 X23.64203 Y22.85972
G01 X23.69913 Y22.88019
G01 X23.75859 Y22.92614
G01 X23.81226 Y22.97585
G01 X23.90744 Y23.08464
G01 X24.25402 Y23.09241
G01 X24.25402 Y24.63399
G01 X24.25979 Y24.69251
G01 X24.27685 Y24.74879
G01 X24.30459 Y24.80066
G01 X24.34190 Y24.84610
G01 X24.38734 Y24.88341
G01 X24.43921 Y24.91113
G01 X24.49550 Y24.92822
G01 X24.55402 Y24.93396
G01 X24.80406 Y24.93396
G01 X24.84797 Y24.89004
G01 X24.80406 Y24.93396
G01 X24.80406 Y26.41399
G01 X24.84716 Y26.45646
G01 X24.80406 Y26.41399
G01 X24.71330 Y26.41443
G01 X24.64051 Y26.42192
G01 X24.58938 Y26.43279
G01 X24.55905 Y26.44089
G01 X24.48201 Y26.47343
G01 X24.42768 Y26.50480
G01 X24.36100 Y26.55524
G01 X24.33880 Y26.57747
G01 X24.28407 Y26.64071
G01 X24.22659 Y26.74028
G01 X24.19105 Y26.84963
G01 X24.17904 Y26.96398
G01 X24.17904 Y27.76398
G01 X24.18973 Y27.87000
G01 X24.15902 Y27.84371
G01 X24.15902 Y26.14381
G01 X24.22905 Y26.09802
G01 X24.34673 Y26.04112
G01 X24.35410 Y26.03830
G01 X24.37523 Y26.05087
G01 X24.35410 Y26.03830
G01 X24.35410 Y25.35326
G01 X24.38361 Y25.33137
G01 X24.35410 Y25.35326
G01 X24.26702 Y25.32685
G01 X24.15902 Y25.26911
G01 X24.15902 Y24.84496
G01 X24.15902 Y25.08222
G01 X24.22069 Y25.13284
G01 X24.32443 Y25.18827
G01 X24.43698 Y25.22240
G01 X24.50408 Y25.22903
G01 X24.53685 Y25.20285
G01 X24.50408 Y25.22903
G01 X24.50408 Y26.14549
G01 X24.52943 Y26.16248
G01 X24.50408 Y26.14549
G01 X24.46636 Y26.15562
G01 X24.35999 Y26.19939
G01 X24.30403 Y26.22789
G01 X24.25138 Y26.26210
G01 X24.15902 Y26.33360
G01 X24.15902 Y26.55827
G01 X24.19237 Y26.51595
G01 X24.26065 Y26.44381
G01 X24.33952 Y26.38344
G01 X24.42100 Y26.33642
G01 X24.51272 Y26.29827
G01 X24.60931 Y26.27521
G01 X24.65407 Y26.26934
G01 X24.68783 Y26.29690
G01 X24.65407 Y26.26934
G01 X24.65407 Y25.08395
G01 X24.69557 Y25.04430
G01 X24.65407 Y25.08395
G01 X24.55402 Y25.08395
G01 X24.46624 Y25.07531
G01 X24.38181 Y25.04971
G01 X24.30403 Y25.00813
G01 X24.23583 Y24.95217
G01 X24.17988 Y24.88397
G01 X24.15902 Y24.84496
G01 X24.15902 Y23.19470
G01 X24.26159 Y23.08395
G01 X24.32735 Y23.00575
G01 X24.39547 Y22.93755
G01 X24.46931 Y22.87994
G01 X24.52318 Y22.86010
G01 X26.15275 Y22.85870
G01 X26.18478 Y22.86010
G01 X26.23913 Y22.88019
G01 X26.29859 Y22.92614
G01 X26.35226 Y22.97585
G01 X26.54904 Y23.19553
G01 X26.54904 Y24.47026
G01 X26.45399 Y24.57511
G01 X26.45399 Y23.09180
G01 X26.44744 Y23.08464
G01 X26.45399 Y23.09180
G01 X26.45399 Y24.57511
G01 X26.35617 Y24.68689
G01 X26.29171 Y24.74719
G01 X26.23969 Y24.78705
G01 X25.97401 Y24.86642
G01 X25.90284 Y24.89441
G01 X25.87500 Y24.91562
G01 X25.86507 Y24.90709
G01 X25.87500 Y24.91562
G01 X25.86319 Y24.93589
G01 X25.83403 Y25.01976
G01 X25.79786 Y25.15598
G01 X25.78081 Y25.31847
G01 X25.77992 Y26.06810
G01 X25.79897 Y26.23571
G01 X25.82564 Y26.34524
G01 X25.85110 Y26.42037
G01 X25.84767 Y26.42222
G01 X25.85110 Y26.42037
G01 X25.86580 Y26.44564
G01 X25.88907 Y26.46337
G01 X25.88683 Y26.46647
G01 X25.88907 Y26.46337
G01 X25.96583 Y26.49903
G01 X26.15803 Y26.57709
G01 X26.24452 Y26.63038
G01 X26.27947 Y26.66352
G01 X26.31365 Y26.69959
G01 X26.33486 Y26.73162
G01 X26.36570 Y26.78366
G01 X26.37515 Y26.80940
G01 X26.39742 Y26.87960
G01 X26.40428 Y26.96494
G01 X26.37901 Y26.96398
G01 X26.37027 Y26.88082
G01 X26.33730 Y26.78730
G01 X26.30263 Y26.72888
G01 X26.25777 Y26.67782
G01 X26.17901 Y26.61757
G01 X26.10263 Y26.58356
G01 X26.01300 Y26.56553
G01 X25.75404 Y26.56395
G01 X25.75404 Y24.78400
G01 X26.15402 Y24.78400
G01 X26.18328 Y24.78110
G01 X26.21142 Y24.77257
G01 X26.23735 Y24.75870
G01 X26.26009 Y24.74006
G01 X26.27873 Y24.71732
G01 X26.29260 Y24.69139
G01 X26.30113 Y24.66325
G01 X26.30400 Y24.63399
G01 X26.30400 Y23.03399
G01 X26.30113 Y23.00473
G01 X26.29260 Y22.97659
G01 X26.27873 Y22.95065
G01 X26.26009 Y22.92792
G01 X26.23735 Y22.90928
G01 X26.21142 Y22.89541
G01 X26.18328 Y22.88687
G01 X26.15402 Y22.88398
G01 X24.55402 Y22.88398
G01 X24.52476 Y22.88687
G01 X24.49662 Y22.89541
G01 X24.47068 Y22.90928
G01 X24.44795 Y22.92792
G01 X24.42928 Y22.95065
G01 X24.41544 Y22.97659
G01 X24.40690 Y23.00473
G01 X24.40401 Y23.03399
G01 X24.40401 Y24.63399
G01 X24.40690 Y24.66325
G01 X24.41544 Y24.69139
G01 X24.42928 Y24.71732
G01 X24.44795 Y24.74006
G01 X24.47068 Y24.75870
G01 X24.49662 Y24.77257
G01 X24.52476 Y24.78110
G01 X24.55402 Y24.78400
G01 X24.95402 Y24.78400
G01 X24.95402 Y26.56395
G01 X24.69504 Y26.56553
G01 X24.62057 Y26.57950
G01 X24.59075 Y26.58920
G01 X24.52900 Y26.61757
G01 X24.46136 Y26.66672
G01 X24.40540 Y26.72888
G01 X24.36360 Y26.80129
G01 X24.33776 Y26.88082
G01 X24.32900 Y26.96398
G01 X24.32900 Y27.76398
G01 X24.33776 Y27.84716
G01 X24.36360 Y27.92669
G01 X24.41528 Y28.01130
G01 X24.46136 Y28.06123
G01 X24.51584 Y28.10185
G01 X24.60540 Y28.14442
G01 X24.68712 Y28.16179
G01 X25.98686 Y28.16377
G01 X26.03634 Y28.15933
G01 X26.08744 Y28.14848
G01 X26.16501 Y28.11752
G01 X26.24668 Y28.06123
G01 X26.30263 Y27.99911
G01 X26.34444 Y27.92669
G01 X26.37027 Y27.84716
G01 X26.37901 Y27.76398
G01 X26.37901 Y26.96398
G01 X26.40428 Y26.96494
G01 X26.40365 Y27.78724
G01 X26.39742 Y27.84836
G01 X26.36570 Y27.94427
G01 X26.31365 Y28.02834
G01 X26.27947 Y28.06443
G01 X26.24449 Y28.09761
G01 X26.15973 Y28.14996
G01 X26.06293 Y28.18191
G01 X26.01178 Y28.18851
G01 X24.70307 Y28.18856
G01 X24.64513 Y28.18191
G01 X24.55011 Y28.15064
G01 X24.45765 Y28.09243
G01 X24.18973 Y27.87000
G04 P0 ( dwell for no time -- G64 should not smooth over this point )
G00 Z5.00000 ( retract )

G00 X26.40428 Y30.06496 ( rapid move to begin. )
G01 F200.00000
( Mill infeed pass 1/1 )
G01 Z-0.15000
G04 P0 ( dwell for no time -- G64 should not smooth over this point )
G01 F200.00000
G01 X26.40428 Y30.06496
G01 X26.39742 Y29.97959
G01 X26.37515 Y29.90936
G01 X26.36578 Y29.88384
G01 X26.31363 Y29.79958
G01 X26.24449 Y29.73034
G01 X26.16959 Y29.68320
G01 X26.08699 Y29.65254
G01 X26.01152 Y29.63946
G01 X24.70332 Y29.63939
G01 X24.64513 Y29.64604
G01 X24.55011 Y29.67731
G01 X24.49761 Y29.70835
G01 X24.41838 Y29.76535
G01 X24.21216 Y29.93700
G01 X24.21389 Y29.94055
G01 X24.21216 Y29.93700
G01 X24.19067 Y29.94640
G01 X24.15016 Y29.95231
G01 X24.01066 Y29.95061
G01 X23.96626 Y29.94254
G01 X23.96360 Y29.94965
G01 X23.96626 Y29.94254
G01 X23.94650 Y29.92989
G01 X23.71036 Y29.73550
G01 X23.61790 Y29.67731
G01 X23.52293 Y29.64604
G01 X23.43853 Y29.63870
G01 X22.18953 Y29.63870
G01 X22.10513 Y29.64604
G01 X22.03497 Y29.66768
G01 X21.99850 Y29.68318
G01 X21.92494 Y29.72943
G01 X21.88936 Y29.76357
G01 X21.82466 Y29.83639
G01 X21.72713 Y29.96839
G01 X21.69682 Y29.99196
G01 X21.70145 Y30.00024
G01 X21.69682 Y29.99196
G01 X21.56266 Y30.02262
G01 X21.41798 Y30.03824
G01 X13.64495 Y30.03870
G01 X13.60230 Y30.04025
G01 X13.53888 Y30.05191
G01 X13.50253 Y30.06293
G01 X13.44332 Y30.08848
G01 X13.37393 Y30.13484
G01 X13.34269 Y30.16392
G01 X12.35399 Y31.15262
G01 X12.32488 Y31.18388
G01 X12.28833 Y31.23692
G01 X12.27043 Y31.27042
G01 X12.24660 Y31.33037
G01 X12.23032 Y31.41223
G01 X12.22877 Y31.45490
G01 X12.22890 Y34.71327
G01 X12.21696 Y34.86721
G01 X12.19217 Y34.98792
G01 X12.17698 Y35.01918
G01 X12.18257 Y35.02256
G01 X12.17698 Y35.01918
G01 X12.03532 Y35.14707
G01 X11.95580 Y35.20684
G01 X11.91828 Y35.24222
G01 X11.83616 Y35.32876
G01 X11.79893 Y35.37473
G01 X11.73820 Y35.46358
G01 X11.66060 Y35.61179
G01 X11.60688 Y35.77714
G01 X11.58254 Y35.94265
G01 X11.57947 Y36.00171
G01 X11.58254 Y36.10930
G01 X11.59811 Y36.22759
G01 X11.60688 Y36.27481
G01 X11.66060 Y36.44016
G01 X11.73820 Y36.58834
G01 X11.79893 Y36.67722
G01 X11.83619 Y36.72322
G01 X11.95313 Y36.84280
G01 X12.09377 Y36.94499
G01 X12.13596 Y36.96790
G01 X12.24366 Y37.01926
G01 X12.34505 Y37.05545
G01 X12.40220 Y37.07077
G01 X12.56710 Y37.09878
G01 X12.74096 Y37.09878
G01 X12.78856 Y37.09251
G01 X12.90586 Y37.07077
G01 X13.00916 Y37.04046
G01 X13.06441 Y37.01926
G01 X13.21427 Y36.94499
G01 X13.35493 Y36.84280
G01 X13.47187 Y36.72319
G01 X13.53763 Y36.63798
G01 X13.56987 Y36.58834
G01 X13.64746 Y36.44016
G01 X13.70118 Y36.27481
G01 X13.72552 Y36.10930
G01 X13.72859 Y36.05025
G01 X13.72552 Y35.94265
G01 X13.70118 Y35.77714
G01 X13.64746 Y35.61179
G01 X13.56987 Y35.46361
G01 X13.53763 Y35.41398
G01 X13.47187 Y35.32876
G01 X13.35493 Y35.20915
G01 X13.26994 Y35.14395
G01 X13.13014 Y35.02033
G01 X13.12341 Y35.02449
G01 X13.13014 Y35.02033
G01 X13.11488 Y34.98835
G01 X13.08828 Y34.85040
G01 X13.07929 Y34.71324
G01 X13.07929 Y31.86798
G01 X13.09163 Y31.71419
G01 X13.10266 Y31.64639
G01 X13.09839 Y31.64484
G01 X13.10266 Y31.64639
G01 X13.11378 Y31.62468
G01 X13.14698 Y31.57903
G01 X13.24746 Y31.46194
G01 X13.65181 Y31.05721
G01 X13.76946 Y30.95742
G01 X13.82516 Y30.91726
G01 X13.82280 Y30.91165
G01 X13.82516 Y30.91726
G01 X13.84838 Y30.90979
G01 X13.90426 Y30.90159
G01 X14.05803 Y30.88897
G01 X21.38816 Y30.88919
G01 X21.54572 Y30.90230
G01 X21.65207 Y30.92407
G01 X21.69911 Y30.93893
G01 X21.70305 Y30.93242
G01 X21.69911 Y30.93893
G01 X21.72619 Y30.96115
G01 X21.84381 Y31.11675
G01 X21.92354 Y31.19758
G01 X22.00830 Y31.24995
G01 X22.10513 Y31.28190
G01 X22.15628 Y31.28851
G01 X23.43853 Y31.28924
G01 X23.50731 Y31.28437
G01 X23.54699 Y31.27540
G01 X23.61793 Y31.25064
G01 X23.67038 Y31.21965
G01 X23.74968 Y31.16260
G01 X23.83307 Y31.09051
G01 X23.96629 Y30.98541
G01 X23.96362 Y30.97830
G01 X23.96629 Y30.98541
G01 X24.01074 Y30.97736
G01 X24.15006 Y30.97566
G01 X24.19067 Y30.98155
G01 X24.21216 Y30.99095
G01 X24.21386 Y30.98739
G01 X24.21216 Y30.99095
G01 X24.41838 Y31.16260
G01 X24.49761 Y31.21960
G01 X24.55011 Y31.25064
G01 X24.64513 Y31.28190
G01 X24.72976 Y31.28924
G01 X26.00499 Y31.28856
G01 X26.06293 Y31.28190
G01 X26.15973 Y31.24995
G01 X26.24452 Y31.19758
G01 X26.27947 Y31.16443
G01 X26.31365 Y31.12833
G01 X26.36570 Y31.04429
G01 X26.39742 Y30.94835
G01 X26.40322 Y30.89537
G01 X26.40428 Y30.06496
G01 X26.37901 Y30.06400
G01 X26.37027 Y29.98081
G01 X26.34444 Y29.90129
G01 X26.30263 Y29.82887
G01 X26.25777 Y29.77784
G01 X26.19219 Y29.72613
G01 X26.16501 Y29.71046
G01 X26.10263 Y29.68356
G01 X26.02082 Y29.66618
G01 X24.70289 Y29.66535
G01 X24.62057 Y29.67949
G01 X24.54300 Y29.71046
G01 X24.51584 Y29.72613
G01 X24.46136 Y29.76672
G01 X24.40540 Y29.82887
G01 X24.35796 Y29.91594
G01 X24.33776 Y29.98081
G01 X24.32900 Y30.06397
G01 X23.83901 Y30.06397
G01 X23.83027 Y29.98081
G01 X23.81005 Y29.91594
G01 X23.79730 Y29.88729
G01 X23.75275 Y29.81668
G01 X23.70668 Y29.76672
G01 X23.63901 Y29.71757
G01 X23.56263 Y29.68356
G01 X23.49634 Y29.66862
G01 X23.43901 Y29.66400
G01 X22.18903 Y29.66400
G01 X22.13170 Y29.66862
G01 X22.06540 Y29.68356
G01 X21.98900 Y29.71757
G01 X21.92136 Y29.76672
G01 X21.86540 Y29.82887
G01 X21.82360 Y29.90129
G01 X21.79776 Y29.98081
G01 X21.78900 Y30.06397
G01 X13.64401 Y30.06397
G01 X13.56598 Y30.07167
G01 X13.47764 Y30.10073
G01 X13.42178 Y30.13138
G01 X13.36118 Y30.18114
G01 X12.37119 Y31.17113
G01 X12.31389 Y31.24436
G01 X12.27952 Y31.31477
G01 X12.26171 Y31.37593
G01 X12.25402 Y31.45399
G01 X12.25402 Y35.06010
G01 X12.12902 Y35.11667
G01 X11.96362 Y35.23579
G01 X11.94033 Y35.25677
G01 X11.81442 Y35.39660
G01 X11.79601 Y35.42198
G01 X11.69479 Y35.59891
G01 X11.63103 Y35.79251
G01 X11.62450 Y35.82319
G01 X11.60401 Y36.02599
G01 X11.62697 Y36.24430
G01 X11.69479 Y36.45306
G01 X11.80454 Y36.64316
G01 X11.95143 Y36.80630
G01 X12.12902 Y36.93531
G01 X12.32953 Y37.02459
G01 X12.54426 Y37.07023
G01 X12.76377 Y37.07023
G01 X12.96331 Y37.02865
G01 X12.99313 Y37.01898
G01 X13.16501 Y36.94245
G01 X13.19219 Y36.92677
G01 X13.35661 Y36.80630
G01 X13.50347 Y36.64316
G01 X13.61322 Y36.45306
G01 X13.68107 Y36.24430
G01 X13.70400 Y36.02599
G01 X13.68353 Y35.82319
G01 X13.67700 Y35.79251
G01 X13.61886 Y35.61357
G01 X13.60611 Y35.58492
G01 X13.50347 Y35.40882
G01 X13.35661 Y35.24567
G01 X13.17901 Y35.11667
G01 X13.05404 Y35.06013
G01 X13.05404 Y31.61967
G01 X13.80972 Y30.86400
G01 X21.78900 Y30.86400
G01 X21.79776 Y30.94716
G01 X21.82360 Y31.02668
G01 X21.86540 Y31.09910
G01 X21.92136 Y31.16125
G01 X21.98900 Y31.21040
G01 X22.06540 Y31.24441
G01 X22.13170 Y31.25935
G01 X22.18903 Y31.26400
G01 X23.43901 Y31.26400
G01 X23.49634 Y31.25935
G01 X23.56263 Y31.24441
G01 X23.63901 Y31.21040
G01 X23.70668 Y31.16125
G01 X23.75275 Y31.11129
G01 X23.79730 Y31.04068
G01 X23.81005 Y31.01203
G01 X23.83027 Y30.94716
G01 X23.83901 Y30.86400
G01 X24.32900 Y30.86400
G01 X24.33776 Y30.94716
G01 X24.35796 Y31.01203
G01 X24.40540 Y31.09910
G01 X24.46136 Y31.16125
G01 X24.51584 Y31.20184
G01 X24.54300 Y31.21751
G01 X24.62057 Y31.24848
G01 X24.67170 Y31.25935
G01 X24.72918 Y31.26400
G01 X26.02089 Y31.26179
G01 X26.11729 Y31.23877
G01 X26.17901 Y31.21040
G01 X26.23446 Y31.17113
G01 X26.30263 Y31.09910
G01 X26.34444 Y31.02668
G01 X26.37027 Y30.94716
G01 X26.37901 Y30.86400
G01 X26.37901 Y30.06400
G01 X26.57952 Y30.02161
G01 X26.57146 Y29.94276
G01 X26.52704 Y29.80868
G01 X26.45325 Y29.68897
G01 X26.35402 Y29.58970
G01 X26.23453 Y29.51602
G01 X26.10024 Y29.47154
G01 X26.02138 Y29.46347
G01 X24.68668 Y29.46347
G01 X24.60782 Y29.47154
G01 X24.47447 Y29.51571
G01 X24.23512 Y29.66474
G01 X24.09385 Y29.69415
G01 X24.05473 Y29.69158
G01 X23.93291 Y29.66474
G01 X23.69357 Y29.51571
G01 X23.56024 Y29.47154
G01 X23.48138 Y29.46347
G01 X22.14668 Y29.46347
G01 X22.06782 Y29.47154
G01 X21.93350 Y29.51602
G01 X21.81486 Y29.58920
G01 X21.61661 Y29.78897
G01 X21.48230 Y29.85122
G01 X21.38445 Y29.86347
G01 X13.58488 Y29.86347
G01 X13.46887 Y29.88655
G01 X13.35958 Y29.93182
G01 X13.26123 Y29.99753
G01 X12.18757 Y31.07118
G01 X12.12186 Y31.16953
G01 X12.07660 Y31.27880
G01 X12.05354 Y31.39483
G01 X12.05282 Y34.72797
G01 X12.02313 Y34.86597
G01 X11.95531 Y34.97268
G01 X11.92204 Y35.00821
G01 X11.84084 Y35.07069
G01 X11.70020 Y35.21133
G01 X11.58450 Y35.37057
G01 X11.49514 Y35.54593
G01 X11.43433 Y35.73315
G01 X11.40352 Y35.92756
G01 X11.40352 Y36.12439
G01 X11.43433 Y36.31880
G01 X11.49514 Y36.50602
G01 X11.58450 Y36.68136
G01 X11.70020 Y36.84062
G01 X11.83939 Y36.97981
G01 X11.99865 Y37.09551
G01 X12.17398 Y37.18486
G01 X12.36121 Y37.24567
G01 X12.55559 Y37.27648
G01 X12.75247 Y37.27648
G01 X12.94685 Y37.24567
G01 X13.13408 Y37.18486
G01 X13.30941 Y37.09551
G01 X13.46867 Y36.97981
G01 X13.60786 Y36.84062
G01 X13.72356 Y36.68136
G01 X13.81292 Y36.50602
G01 X13.87373 Y36.31880
G01 X13.90454 Y36.12439
G01 X13.90454 Y35.92756
G01 X13.87373 Y35.73315
G01 X13.81292 Y35.54593
G01 X13.72356 Y35.37059
G01 X13.60786 Y35.21133
G01 X13.46867 Y35.07214
G01 X13.40753 Y35.02683
G01 X13.33105 Y34.94517
G01 X13.31333 Y34.92172
G01 X13.30050 Y34.89528
G01 X13.26687 Y34.80415
G01 X13.25805 Y34.76401
G01 X13.25452 Y34.71327
G01 X13.25452 Y31.86798
G01 X13.25739 Y31.83872
G01 X13.28142 Y31.72447
G01 X13.29875 Y31.68934
G01 X13.37139 Y31.58587
G01 X13.77591 Y31.18134
G01 X13.87939 Y31.10870
G01 X13.91452 Y31.09138
G01 X14.02879 Y31.06735
G01 X14.05803 Y31.06448
G01 X21.38445 Y31.06448
G01 X21.50899 Y31.08630
G01 X21.53713 Y31.09483
G01 X21.56307 Y31.10870
G01 X21.66225 Y31.17715
G01 X21.70856 Y31.23273
G01 X21.81404 Y31.33824
G01 X21.93350 Y31.41193
G01 X22.06782 Y31.45640
G01 X22.14668 Y31.46448
G01 X23.48138 Y31.46448
G01 X23.56024 Y31.45640
G01 X23.69357 Y31.41223
G01 X23.93296 Y31.26321
G01 X24.05478 Y31.23636
G01 X24.08402 Y31.23349
G01 X24.11328 Y31.23636
G01 X24.23512 Y31.26321
G01 X24.47447 Y31.41223
G01 X24.60782 Y31.45640
G01 X24.68668 Y31.46448
G01 X26.02138 Y31.46448
G01 X26.10024 Y31.45640
G01 X26.23453 Y31.41193
G01 X26.35402 Y31.33824
G01 X26.45328 Y31.23898
G01 X26.52696 Y31.11950
G01 X26.57146 Y30.98518
G01 X26.57952 Y30.90636
G01 X26.57952 Y30.02161
G01 X26.55290 Y30.02285
G01 X26.55376 Y30.89415
G01 X26.54388 Y30.98505
G01 X26.49991 Y31.11386
G01 X26.42780 Y31.22742
G01 X26.33260 Y31.32071
G01 X26.24134 Y31.37647
G01 X26.18599 Y31.40220
G01 X26.09821 Y31.42775
G01 X26.02491 Y31.43893
G01 X24.72834 Y31.43921
G01 X24.63873 Y31.43430
G01 X24.57995 Y31.41965
G01 X24.49128 Y31.38975
G01 X24.41798 Y31.34721
G01 X24.32610 Y31.28084
G01 X24.14104 Y31.12696
G01 X24.02702 Y31.12696
G01 X23.84196 Y31.28084
G01 X23.75001 Y31.34726
G01 X23.67673 Y31.38957
G01 X23.55052 Y31.43118
G01 X23.44000 Y31.43921
G01 X22.14397 Y31.43804
G01 X22.03952 Y31.42120
G01 X21.95009 Y31.38823
G01 X21.87399 Y31.34700
G01 X21.82494 Y31.31063
G01 X21.74361 Y31.23049
G01 X21.62131 Y31.07111
G01 X21.51981 Y31.05048
G01 X21.38263 Y31.03921
G01 X14.05988 Y31.03921
G01 X13.88899 Y31.05539
G01 X13.75673 Y31.16478
G01 X13.35483 Y31.56669
G01 X13.26458 Y31.67314
G01 X13.24546 Y31.69892
G01 X13.22928 Y31.86981
G01 X13.22928 Y34.71250
G01 X13.23812 Y34.83150
G01 X13.25658 Y34.93336
G01 X13.36821 Y35.03061
G01 X13.45638 Y35.09835
G01 X13.58688 Y35.23181
G01 X13.62930 Y35.28497
G01 X13.69763 Y35.38416
G01 X13.78970 Y35.56193
G01 X13.84736 Y35.74334
G01 X13.85851 Y35.79881
G01 X13.87512 Y35.93186
G01 X13.87936 Y36.05220
G01 X13.87512 Y36.12010
G01 X13.84883 Y36.30491
G01 X13.78780 Y36.49563
G01 X13.69725 Y36.66757
G01 X13.63009 Y36.76757
G01 X13.58658 Y36.81989
G01 X13.44629 Y36.96264
G01 X13.29184 Y37.07399
G01 X13.12105 Y37.15860
G01 X13.00748 Y37.19871
G01 X12.94193 Y37.21679
G01 X12.75031 Y37.24905
G01 X12.55402 Y37.24874
G01 X12.37193 Y37.21796
G01 X12.30055 Y37.19871
G01 X12.18714 Y37.15822
G01 X12.06570 Y37.10135
G01 X12.00837 Y37.06833
G01 X11.85758 Y36.95847
G01 X11.81305 Y36.91778
G01 X11.72146 Y36.81989
G01 X11.68087 Y36.77028
G01 X11.60756 Y36.66264
G01 X11.52039 Y36.49556
G01 X11.46319 Y36.31791
G01 X11.44955 Y36.25314
G01 X11.43347 Y36.12596
G01 X11.42959 Y36.05611
G01 X11.42867 Y35.99975
G01 X11.43347 Y35.92599
G01 X11.46067 Y35.73950
G01 X11.52247 Y35.55322
G01 X11.54604 Y35.50178
G01 X11.60779 Y35.38944
G01 X11.67823 Y35.28461
G01 X11.72534 Y35.22764
G01 X11.81338 Y35.13455
G01 X11.86022 Y35.09122
G01 X11.93827 Y35.03267
G01 X12.05097 Y34.93105
G01 X12.06751 Y34.84867
G01 X12.07881 Y34.71141
G01 X12.07843 Y31.45394
G01 X12.08143 Y31.39387
G01 X12.10086 Y31.29003
G01 X12.14711 Y31.17883
G01 X12.19207 Y31.11122
G01 X12.22869 Y31.06598
G01 X13.23834 Y30.05564
G01 X13.30428 Y29.99986
G01 X13.36877 Y29.95691
G01 X13.40139 Y29.94249
G01 X13.48010 Y29.91079
G01 X13.58394 Y29.89135
G01 X13.64398 Y29.88836
G01 X21.41031 Y29.88795
G01 X21.53927 Y29.87444
G01 X21.62421 Y29.85592
G01 X21.74501 Y29.69730
G01 X21.82471 Y29.61782
G01 X21.87396 Y29.58094
G01 X21.95006 Y29.53972
G01 X22.03579 Y29.50802
G01 X22.09896 Y29.49519
G01 X22.17490 Y29.48849
G01 X23.44000 Y29.48874
G01 X23.52943 Y29.49329
G01 X23.64175 Y29.52580
G01 X23.70599 Y29.55216
G01 X23.84196 Y29.64711
G01 X24.02699 Y29.80098
G01 X24.14107 Y29.80098
G01 X24.32610 Y29.64711
G01 X24.46227 Y29.55262
G01 X24.52636 Y29.52577
G01 X24.61782 Y29.49849
G01 X24.68323 Y29.48945
G01 X26.01711 Y29.48902
G01 X26.09024 Y29.49849
