( pcb2gcode 2.5.0 )
( Software-independent Gcode )

G94 ( Millimeters per minute feed rate. )
G21 ( Units == Millimeters. )

G90 ( Absolute coordinates. )
G00 S10000 ( RPM spindle speed. )
G01 F200.00000 ( Feedrate. )


G00 Z35.00000 (Retract to tool change height)
T0
M5      (Spindle stop.)
G04 P1.00000 (Wait for spindle to stop)
(MSG, Change tool bit to mill diameter 0.30000mm)
M0      (Temporary machine stop.)
M3 ( Spindle on clockwise. )
G04 P1.00000 (Wait for spindle to get up to speed)
G04 P0 ( dwell for no time -- G64 should not smooth over this point )
G00 Z5.00000 ( retract )

G00 X28.58605 Y17.19199 ( rapid move to begin. )
G01 F200.00000
( Mill infeed pass 1/1 )
G01 Z-0.15000
G04 P0 ( dwell for no time -- G64 should not smooth over this point )
G01 F200.00000
G01 X28.58605 Y17.19199
G01 X28.58605 Y18.79199
G01 X28.60045 Y18.93829
G01 X28.64312 Y19.07898
G01 X28.71244 Y19.20862
G01 X28.80571 Y19.32226
G01 X28.91935 Y19.41553
G01 X29.04899 Y19.48485
G01 X29.18968 Y19.52752
G01 X29.33598 Y19.54192
G01 X30.93598 Y19.54192
G01 X31.08228 Y19.52752
G01 X31.22298 Y19.48485
G01 X31.35264 Y19.41553
G01 X31.46628 Y19.32226
G01 X31.55955 Y19.20862
G01 X31.62884 Y19.07898
G01 X31.67151 Y18.93829
G01 X31.68592 Y18.79199
G01 X31.68592 Y17.19199
G01 X31.67151 Y17.04569
G01 X31.62884 Y16.90500
G01 X31.57111 Y16.79697
G01 X31.38419 Y16.79697
G01 X31.43484 Y16.85867
G01 X31.49029 Y16.96240
G01 X31.52442 Y17.07495
G01 X31.53595 Y17.19199
G01 X31.53595 Y18.79199
G01 X31.52442 Y18.90903
G01 X31.49029 Y19.02158
G01 X31.43484 Y19.12531
G01 X31.36021 Y19.21622
G01 X31.26930 Y19.29084
G01 X31.16557 Y19.34627
G01 X31.05302 Y19.38040
G01 X30.93598 Y19.39193
G01 X29.33598 Y19.39193
G01 X29.21894 Y19.38040
G01 X29.10639 Y19.34627
G01 X29.00266 Y19.29084
G01 X28.91175 Y19.21622
G01 X28.83715 Y19.12531
G01 X28.78171 Y19.02158
G01 X28.74757 Y18.90903
G01 X28.73604 Y18.79199
G01 X28.73604 Y17.19199
G01 X28.74757 Y17.07495
G01 X28.78171 Y16.96240
G01 X28.83715 Y16.85867
G01 X28.88778 Y16.79697
G01 X29.12506 Y16.79697
G01 X29.08600 Y16.81785
G01 X29.01780 Y16.87380
G01 X28.96184 Y16.94200
G01 X28.92026 Y17.01980
G01 X28.89466 Y17.10421
G01 X28.88602 Y17.19199
G01 X28.88602 Y18.79199
G01 X28.89466 Y18.87977
G01 X28.92026 Y18.96417
G01 X28.96184 Y19.04197
G01 X29.01780 Y19.11017
G01 X29.08600 Y19.16613
G01 X29.16380 Y19.20771
G01 X29.24820 Y19.23331
G01 X29.33598 Y19.24195
G01 X30.93598 Y19.24195
G01 X31.02376 Y19.23331
G01 X31.10819 Y19.20771
G01 X31.18597 Y19.16613
G01 X31.25417 Y19.11017
G01 X31.31012 Y19.04197
G01 X31.35170 Y18.96417
G01 X31.37731 Y18.87977
G01 X31.38597 Y18.79199
G01 X31.38597 Y17.19199
G01 X31.37731 Y17.10421
G01 X31.35170 Y17.01980
G01 X31.31012 Y16.94200
G01 X31.25417 Y16.87380
G01 X31.18597 Y16.81785
G01 X31.14690 Y16.79697
G01 X31.38419 Y16.79697
G01 X28.70088 Y16.79697
G01 X28.64312 Y16.90500
G01 X28.60045 Y17.04569
G01 X28.58605 Y17.19199
G01 X29.03601 Y17.19199
G01 X29.03601 Y18.79199
G01 X29.04178 Y18.85051
G01 X29.05884 Y18.90679
G01 X29.08656 Y18.95866
G01 X29.12387 Y19.00410
G01 X29.16933 Y19.04141
G01 X29.22118 Y19.06913
G01 X29.27746 Y19.08622
G01 X29.33598 Y19.09196
G01 X30.93598 Y19.09196
G01 X30.99450 Y19.08622
G01 X31.05079 Y19.06913
G01 X31.10266 Y19.04141
G01 X31.14810 Y19.00410
G01 X31.18541 Y18.95866
G01 X31.21315 Y18.90679
G01 X31.23021 Y18.85051
G01 X31.23598 Y18.79199
G01 X31.23598 Y17.19199
G01 X31.23021 Y17.13347
G01 X31.21315 Y17.07718
G01 X31.18541 Y17.02532
G01 X31.14810 Y16.97987
G01 X31.10266 Y16.94256
G01 X31.05079 Y16.91483
G01 X30.99450 Y16.89776
G01 X30.93598 Y16.89199
G01 X29.33598 Y16.89199
G01 X29.27746 Y16.89776
G01 X29.22118 Y16.91483
G01 X29.16933 Y16.94256
G01 X29.12387 Y16.97987
G01 X29.08656 Y17.02532
G01 X29.05884 Y17.07718
G01 X29.04178 Y17.13347
G01 X29.03601 Y17.19199
G01 X29.18600 Y17.19199
G01 X29.18887 Y17.16273
G01 X29.19740 Y17.13459
G01 X29.21127 Y17.10865
G01 X29.22991 Y17.08592
G01 X29.25265 Y17.06728
G01 X29.27858 Y17.05341
G01 X29.30672 Y17.04487
G01 X29.33598 Y17.04198
G01 X30.93598 Y17.04198
G01 X30.96524 Y17.04487
G01 X30.99338 Y17.05341
G01 X31.01932 Y17.06728
G01 X31.04205 Y17.08592
G01 X31.06072 Y17.10865
G01 X31.07456 Y17.13459
G01 X31.08310 Y17.16273
G01 X31.08599 Y17.19199
G01 X31.08599 Y18.79199
G01 X31.08310 Y18.82125
G01 X31.07456 Y18.84939
G01 X31.06072 Y18.87532
G01 X31.04205 Y18.89806
G01 X31.01932 Y18.91670
G01 X30.99338 Y18.93057
G01 X30.96524 Y18.93910
G01 X30.93598 Y18.94200
G01 X29.33598 Y18.94200
G01 X29.30672 Y18.93910
G01 X29.27858 Y18.93057
G01 X29.25265 Y18.91670
G01 X29.22991 Y18.89806
G01 X29.21127 Y18.87532
G01 X29.19740 Y18.84939
G01 X29.18887 Y18.82125
G01 X29.18600 Y18.79199
G01 X29.18600 Y17.19199
G04 P0 ( dwell for no time -- G64 should not smooth over this point )
G00 Z5.00000 ( retract )

G00 X29.18600 Y7.03199 ( rapid move to begin. )
G01 F200.00000
( Mill infeed pass 1/1 )
G01 Z-0.15000
G04 P0 ( dwell for no time -- G64 should not smooth over this point )
G01 F200.00000
G01 X29.18600 Y7.03199
G01 X29.18600 Y8.63199
G01 X29.18887 Y8.66125
G01 X29.19740 Y8.68939
G01 X29.21127 Y8.71532
G01 X29.22991 Y8.73806
G01 X29.25265 Y8.75670
G01 X29.27858 Y8.77057
G01 X29.30672 Y8.77910
G01 X29.33598 Y8.78200
G01 X30.93598 Y8.78200
G01 X30.96524 Y8.77910
G01 X30.99338 Y8.77057
G01 X31.01932 Y8.75670
G01 X31.04205 Y8.73806
G01 X31.06072 Y8.71532
G01 X31.07456 Y8.68939
G01 X31.08310 Y8.66125
G01 X31.08599 Y8.63199
G01 X31.08599 Y7.03199
G01 X31.08310 Y7.00273
G01 X31.07456 Y6.97459
G01 X31.06072 Y6.94865
G01 X31.04205 Y6.92592
G01 X31.01932 Y6.90728
G01 X30.99338 Y6.89341
G01 X30.96524 Y6.88487
G01 X30.93598 Y6.88198
G01 X29.33598 Y6.88198
G01 X29.30672 Y6.88487
G01 X29.27858 Y6.89341
G01 X29.25265 Y6.90728
G01 X29.22991 Y6.92592
G01 X29.21127 Y6.94865
G01 X29.19740 Y6.97459
G01 X29.18887 Y7.00273
G01 X29.18600 Y7.03199
G01 X29.03601 Y7.03199
G01 X29.04178 Y6.97347
G01 X29.05884 Y6.91718
G01 X29.08656 Y6.86532
G01 X29.12387 Y6.81987
G01 X29.16933 Y6.78256
G01 X29.22118 Y6.75483
G01 X29.27746 Y6.73776
G01 X29.33598 Y6.73199
G01 X30.93598 Y6.73199
G01 X30.99450 Y6.73776
G01 X31.05079 Y6.75483
G01 X31.10266 Y6.78256
G01 X31.14810 Y6.81987
G01 X31.18541 Y6.86532
G01 X31.21315 Y6.91718
G01 X31.23021 Y6.97347
G01 X31.23598 Y7.03199
G01 X31.23598 Y8.63199
G01 X31.23021 Y8.69051
G01 X31.21315 Y8.74679
G01 X31.18541 Y8.79866
G01 X31.14810 Y8.84410
G01 X31.10266 Y8.88141
G01 X31.05079 Y8.90913
G01 X30.99450 Y8.92622
G01 X30.93598 Y8.93196
G01 X29.33598 Y8.93196
G01 X29.27746 Y8.92622
G01 X29.22118 Y8.90913
G01 X29.16933 Y8.88141
G01 X29.12387 Y8.84410
G01 X29.08656 Y8.79866
G01 X29.05884 Y8.74679
G01 X29.04178 Y8.69051
G01 X29.03601 Y8.63199
G01 X29.03601 Y7.03199
G01 X28.58605 Y7.03199
G01 X28.60045 Y6.88569
G01 X28.64312 Y6.74500
G01 X28.70088 Y6.63694
G01 X31.57111 Y6.63694
G01 X31.62884 Y6.74500
G01 X31.67151 Y6.88569
G01 X31.68592 Y7.03199
G01 X31.68592 Y8.63199
G01 X31.67151 Y8.77829
G01 X31.62884 Y8.91898
G01 X31.57111 Y9.02698
G01 X31.14695 Y9.02698
G01 X31.38421 Y9.02698
G01 X31.43484 Y8.96531
G01 X31.49029 Y8.86158
G01 X31.52442 Y8.74903
G01 X31.53595 Y8.63199
G01 X31.53595 Y7.03199
G01 X31.52442 Y6.91495
G01 X31.49029 Y6.80240
G01 X31.43484 Y6.69867
G01 X31.38419 Y6.63694
G01 X31.14690 Y6.63694
G01 X31.18597 Y6.65785
G01 X31.25417 Y6.71380
G01 X31.31012 Y6.78200
G01 X31.35170 Y6.85980
G01 X31.37731 Y6.94421
G01 X31.38597 Y7.03199
G01 X31.38597 Y8.63199
G01 X31.37731 Y8.71977
G01 X31.35170 Y8.80417
G01 X31.31012 Y8.88197
G01 X31.25417 Y8.95017
G01 X31.18597 Y9.00613
G01 X31.14695 Y9.02698
G01 X28.88775 Y9.02698
G01 X29.12501 Y9.02698
G01 X29.08600 Y9.00613
G01 X29.01780 Y8.95017
G01 X28.96184 Y8.88197
G01 X28.92026 Y8.80417
G01 X28.89466 Y8.71977
G01 X28.88602 Y8.63199
G01 X28.88602 Y7.03199
G01 X28.89466 Y6.94421
G01 X28.92026 Y6.85980
G01 X28.96184 Y6.78200
G01 X29.01780 Y6.71380
G01 X29.08600 Y6.65785
G01 X29.12506 Y6.63694
G01 X28.88778 Y6.63694
G01 X28.83715 Y6.69867
G01 X28.78171 Y6.80240
G01 X28.74757 Y6.91495
G01 X28.73604 Y7.03199
G01 X28.73604 Y8.63199
G01 X28.74757 Y8.74903
G01 X28.78171 Y8.86158
G01 X28.83715 Y8.96531
G01 X28.88775 Y9.02698
G01 X28.70086 Y9.02698
G01 X28.64312 Y8.91898
G01 X28.60045 Y8.77829
G01 X28.58605 Y8.63199
G01 X28.58605 Y4.49199
G01 X29.18600 Y4.49199
G01 X29.18600 Y6.09199
G01 X29.18887 Y6.12125
G01 X29.19740 Y6.14939
G01 X29.21127 Y6.17532
G01 X29.22991 Y6.19806
G01 X29.25265 Y6.21670
G01 X29.27858 Y6.23057
G01 X29.30672 Y6.23910
G01 X29.33598 Y6.24200
G01 X30.93598 Y6.24200
G01 X30.96524 Y6.23910
G01 X30.99338 Y6.23057
G01 X31.01932 Y6.21670
G01 X31.04205 Y6.19806
G01 X31.06072 Y6.17532
G01 X31.07456 Y6.14939
G01 X31.08310 Y6.12125
G01 X31.08599 Y6.09199
G01 X31.08599 Y4.49199
G01 X31.08310 Y4.46273
G01 X31.07456 Y4.43459
G01 X31.06072 Y4.40865
G01 X31.04205 Y4.38592
G01 X31.01932 Y4.36728
G01 X30.99338 Y4.35341
G01 X30.96524 Y4.34487
G01 X30.93598 Y4.34198
G01 X29.33598 Y4.34198
G01 X29.30672 Y4.34487
G01 X29.27858 Y4.35341
G01 X29.25265 Y4.36728
G01 X29.22991 Y4.38592
G01 X29.21127 Y4.40865
G01 X29.19740 Y4.43459
G01 X29.18887 Y4.46273
G01 X29.18600 Y4.49199
G01 X29.03601 Y4.49199
G01 X29.04178 Y4.43347
G01 X29.05884 Y4.37718
G01 X29.08656 Y4.32532
G01 X29.12387 Y4.27987
G01 X29.16933 Y4.24256
G01 X29.22118 Y4.21483
G01 X29.27746 Y4.19776
G01 X29.33598 Y4.19199
G01 X30.93598 Y4.19199
G01 X30.99450 Y4.19776
G01 X31.05079 Y4.21483
G01 X31.10266 Y4.24256
G01 X31.14810 Y4.27987
G01 X31.18541 Y4.32532
G01 X31.21315 Y4.37718
G01 X31.23021 Y4.43347
G01 X31.23598 Y4.49199
G01 X31.23598 Y6.09199
G01 X31.23021 Y6.15051
G01 X31.21315 Y6.20679
G01 X31.18541 Y6.25866
G01 X31.14810 Y6.30410
G01 X31.10266 Y6.34141
G01 X31.05079 Y6.36913
G01 X30.99450 Y6.38619
G01 X30.93598 Y6.39196
G01 X29.33598 Y6.39196
G01 X29.27746 Y6.38619
G01 X29.22118 Y6.36913
G01 X29.16933 Y6.34141
G01 X29.12387 Y6.30410
G01 X29.08656 Y6.25866
G01 X29.05884 Y6.20679
G01 X29.04178 Y6.15051
G01 X29.03601 Y6.09199
G01 X29.03601 Y4.49199
G01 X28.58605 Y4.49199
G01 X28.60045 Y4.34569
G01 X28.64312 Y4.20500
G01 X28.71244 Y4.07535
G01 X28.80571 Y3.96169
G01 X28.91935 Y3.86845
G01 X29.04899 Y3.79913
G01 X29.18968 Y3.75646
G01 X29.33598 Y3.74206
G01 X30.93598 Y3.74206
G01 X31.08228 Y3.75646
G01 X31.22298 Y3.79913
G01 X31.35264 Y3.86845
G01 X31.46628 Y3.96169
G01 X31.55955 Y4.07535
G01 X31.62884 Y4.20500
G01 X31.67151 Y4.34569
G01 X31.68592 Y4.49199
G01 X31.68592 Y6.09199
G01 X31.67151 Y6.23829
G01 X31.62884 Y6.37898
G01 X31.57111 Y6.48696
G01 X28.88775 Y6.48696
G01 X29.12501 Y6.48696
G01 X29.08600 Y6.46613
G01 X29.01780 Y6.41017
G01 X28.96184 Y6.34197
G01 X28.92026 Y6.26417
G01 X28.89466 Y6.17977
G01 X28.88602 Y6.09199
G01 X28.88602 Y4.49199
G01 X28.89466 Y4.40421
G01 X28.92026 Y4.31980
G01 X28.96184 Y4.24200
G01 X29.01780 Y4.17380
G01 X29.08600 Y4.11785
G01 X29.16380 Y4.07627
G01 X29.24820 Y4.05066
G01 X29.33598 Y4.04203
G01 X30.93598 Y4.04203
G01 X31.02376 Y4.05066
G01 X31.10819 Y4.07627
G01 X31.18597 Y4.11785
G01 X31.25417 Y4.17380
G01 X31.31012 Y4.24200
G01 X31.35170 Y4.31980
G01 X31.37731 Y4.40421
G01 X31.38597 Y4.49199
G01 X31.38597 Y6.09199
G01 X31.37731 Y6.17977
G01 X31.35170 Y6.26417
G01 X31.31012 Y6.34197
G01 X31.25417 Y6.41017
G01 X31.18597 Y6.46613
G01 X31.14695 Y6.48696
G01 X31.38421 Y6.48696
G01 X31.43484 Y6.42531
G01 X31.49029 Y6.32158
G01 X31.52442 Y6.20903
G01 X31.53595 Y6.09199
G01 X31.53595 Y4.49199
G01 X31.52442 Y4.37495
G01 X31.49029 Y4.26240
G01 X31.43484 Y4.15867
G01 X31.36021 Y4.06776
G01 X31.26930 Y3.99313
G01 X31.16557 Y3.93771
G01 X31.05302 Y3.90355
G01 X30.93598 Y3.89204
G01 X29.33598 Y3.89204
G01 X29.21894 Y3.90355
G01 X29.10639 Y3.93771
G01 X29.00266 Y3.99313
G01 X28.91175 Y4.06776
G01 X28.83715 Y4.15867
G01 X28.78171 Y4.26240
G01 X28.74757 Y4.37495
G01 X28.73604 Y4.49199
G01 X28.73604 Y6.09199
G01 X28.74757 Y6.20903
G01 X28.78171 Y6.32158
G01 X28.83715 Y6.42531
G01 X28.88775 Y6.48696
G01 X28.70086 Y6.48696
G01 X28.64312 Y6.37898
G01 X28.60045 Y6.23829
G01 X28.58605 Y6.09199
G04 P0 ( dwell for no time -- G64 should not smooth over this point )
G00 Z5.00000 ( retract )

G00 X47.41250 Y18.89907 ( rapid move to begin. )
G01 F200.00000
( Mill infeed pass 1/1 )
G01 Z-0.15000
G04 P0 ( dwell for no time -- G64 should not smooth over this point )
G01 F200.00000
G01 X47.41250 Y18.89907
G01 X47.30095 Y18.75836
G01 X47.22729 Y18.67934
G01 X40.87846 Y12.33048
G01 X40.73947 Y12.20607
G01 X40.59598 Y12.10188
G01 X40.46921 Y12.02596
G01 X40.36217 Y11.97150
G01 X40.22593 Y11.91202
G01 X31.65523 Y11.91202
G01 X31.63334 Y11.94153
G01 X31.65523 Y11.91202
G01 X31.62884 Y11.82500
G01 X31.57108 Y11.71697
G01 X29.12509 Y11.71697
G01 X29.08600 Y11.73785
G01 X29.01780 Y11.79380
G01 X28.96184 Y11.86200
G01 X28.92026 Y11.93980
G01 X28.89466 Y12.02421
G01 X28.88602 Y12.11199
G01 X28.58605 Y12.11199
G01 X29.03601 Y12.11199
G01 X29.03601 Y13.71199
G01 X29.04178 Y13.77051
G01 X29.05884 Y13.82679
G01 X29.08656 Y13.87866
G01 X29.12387 Y13.92410
G01 X29.16933 Y13.96141
G01 X29.22118 Y13.98913
G01 X29.27746 Y14.00622
G01 X29.33598 Y14.01196
G01 X30.93598 Y14.01196
G01 X30.99450 Y14.00622
G01 X31.05079 Y13.98913
G01 X31.10266 Y13.96141
G01 X31.14810 Y13.92410
G01 X31.18541 Y13.87866
G01 X31.21315 Y13.82679
G01 X31.23021 Y13.77051
G01 X31.23598 Y13.71199
G01 X31.23598 Y13.46192
G01 X31.19204 Y13.41801
G01 X31.23598 Y13.46192
G01 X40.06817 Y13.46192
G01 X40.07289 Y13.45052
G01 X40.06817 Y13.46192
G01 X46.09600 Y19.48978
G01 X46.10740 Y19.48505
G01 X46.09600 Y19.48978
G01 X46.09600 Y22.73399
G01 X46.13991 Y22.77793
G01 X46.09600 Y22.73399
G01 X45.84598 Y22.73399
G01 X45.78746 Y22.73976
G01 X45.73118 Y22.75683
G01 X45.67933 Y22.78456
G01 X45.63387 Y22.82187
G01 X45.59656 Y22.86732
G01 X45.56884 Y22.91918
G01 X45.55178 Y22.97547
G01 X45.54601 Y23.03399
G01 X45.54601 Y24.63399
G01 X45.55178 Y24.69251
G01 X45.56884 Y24.74879
G01 X45.59656 Y24.80066
G01 X45.63387 Y24.84610
G01 X45.67933 Y24.88341
G01 X45.73118 Y24.91113
G01 X45.78746 Y24.92822
G01 X45.84598 Y24.93396
G01 X47.44598 Y24.93396
G01 X47.50450 Y24.92822
G01 X47.56079 Y24.91113
G01 X47.61266 Y24.88341
G01 X47.65810 Y24.84610
G01 X47.69541 Y24.80066
G01 X47.72315 Y24.74879
G01 X47.74021 Y24.69251
G01 X47.74598 Y24.63399
G01 X47.74598 Y23.03399
G01 X47.74021 Y22.97547
G01 X47.72315 Y22.91918
G01 X47.69541 Y22.86732
G01 X47.65810 Y22.82187
G01 X47.61266 Y22.78456
G01 X47.56079 Y22.75683
G01 X47.50450 Y22.73976
G01 X47.44598 Y22.73399
G01 X47.19594 Y22.73399
G01 X47.15203 Y22.77793
G01 X47.19594 Y22.73399
G01 X47.19594 Y19.26199
G01 X47.18969 Y19.18381
G01 X47.17824 Y19.12612
G01 X47.16402 Y19.07924
G01 X47.14151 Y19.02490
G01 X47.11840 Y18.98167
G01 X47.08573 Y18.93278
G01 X47.03486 Y18.87309
G01 X40.68486 Y12.52306
G01 X40.63774 Y12.48159
G01 X40.56621 Y12.43343
G01 X40.48803 Y12.39703
G01 X40.40510 Y12.37333
G01 X40.29598 Y12.36198
G01 X31.23598 Y12.36198
G01 X31.19204 Y12.40589
G01 X31.23598 Y12.36198
G01 X31.23598 Y12.11199
G01 X31.23021 Y12.05347
G01 X31.21315 Y11.99718
G01 X31.18541 Y11.94532
G01 X31.14810 Y11.89987
G01 X31.10266 Y11.86256
G01 X31.05079 Y11.83483
G01 X30.99450 Y11.81776
G01 X30.93598 Y11.81199
G01 X29.33598 Y11.81199
G01 X29.27746 Y11.81776
G01 X29.22118 Y11.83483
G01 X29.16933 Y11.86256
G01 X29.12387 Y11.89987
G01 X29.08656 Y11.94532
G01 X29.05884 Y11.99718
G01 X29.04178 Y12.05347
G01 X29.03601 Y12.11199
G01 X29.18600 Y12.11199
G01 X29.18887 Y12.08273
G01 X29.19740 Y12.05459
G01 X29.21127 Y12.02865
G01 X29.22991 Y12.00592
G01 X29.25265 Y11.98728
G01 X29.27858 Y11.97341
G01 X29.30672 Y11.96487
G01 X29.33598 Y11.96198
G01 X30.93598 Y11.96198
G01 X30.96524 Y11.96487
G01 X30.99338 Y11.97341
G01 X31.01932 Y11.98728
G01 X31.04205 Y12.00592
G01 X31.06072 Y12.02865
G01 X31.07456 Y12.05459
G01 X31.08310 Y12.08273
G01 X31.08599 Y12.11199
G01 X31.08599 Y12.51194
G01 X40.29598 Y12.51194
G01 X40.34686 Y12.51549
G01 X40.40825 Y12.52832
G01 X40.46687 Y12.55062
G01 X40.52128 Y12.58179
G01 X40.57881 Y12.62911
G01 X46.92881 Y18.97913
G01 X46.98611 Y19.05236
G01 X47.00923 Y19.09559
G01 X47.03470 Y19.16966
G01 X47.04598 Y19.26199
G01 X47.04598 Y22.88398
G01 X47.44598 Y22.88398
G01 X47.47524 Y22.88687
G01 X47.50338 Y22.89541
G01 X47.52932 Y22.90928
G01 X47.55205 Y22.92792
G01 X47.57072 Y22.95065
G01 X47.58456 Y22.97659
G01 X47.59310 Y23.00473
G01 X47.59599 Y23.03399
G01 X47.59599 Y24.63399
G01 X47.59310 Y24.66325
G01 X47.58456 Y24.69139
G01 X47.57072 Y24.71732
G01 X47.55205 Y24.74006
G01 X47.52932 Y24.75870
G01 X47.50338 Y24.77257
G01 X47.47524 Y24.78110
G01 X47.44598 Y24.78400
G01 X45.84598 Y24.78400
G01 X45.81672 Y24.78110
G01 X45.78858 Y24.77257
G01 X45.76265 Y24.75870
G01 X45.73991 Y24.74006
G01 X45.72127 Y24.71732
G01 X45.70740 Y24.69139
G01 X45.69887 Y24.66325
G01 X45.69600 Y24.63399
G01 X45.69600 Y23.03399
G01 X45.69887 Y23.00473
G01 X45.70740 Y22.97659
G01 X45.72127 Y22.95065
G01 X45.73991 Y22.92792
G01 X45.76265 Y22.90928
G01 X45.78858 Y22.89541
G01 X45.81672 Y22.88687
G01 X45.84598 Y22.88398
G01 X46.24596 Y22.88398
G01 X46.24596 Y19.42767
G01 X40.13027 Y13.31196
G01 X31.08599 Y13.31196
G01 X31.08599 Y13.71199
G01 X31.08310 Y13.74125
G01 X31.07456 Y13.76939
G01 X31.06072 Y13.79532
G01 X31.04205 Y13.81806
G01 X31.01932 Y13.83670
G01 X30.99338 Y13.85057
G01 X30.96524 Y13.85910
G01 X30.93598 Y13.86200
G01 X29.33598 Y13.86200
G01 X29.30672 Y13.85910
G01 X29.27858 Y13.85057
G01 X29.25265 Y13.83670
G01 X29.22991 Y13.81806
G01 X29.21127 Y13.79532
G01 X29.19740 Y13.76939
G01 X29.18887 Y13.74125
G01 X29.18600 Y13.71199
G01 X29.18600 Y12.11199
G01 X28.88602 Y12.11199
G01 X28.88602 Y13.71199
G01 X28.89466 Y13.79977
G01 X28.92026 Y13.88417
G01 X28.96184 Y13.96197
G01 X29.01780 Y14.03017
G01 X29.08600 Y14.08613
G01 X29.12501 Y14.10698
G01 X28.88775 Y14.10698
G01 X28.83715 Y14.04531
G01 X28.78171 Y13.94158
G01 X28.74757 Y13.82903
G01 X28.73604 Y13.71199
G01 X28.73604 Y12.11199
G01 X28.74757 Y11.99495
G01 X28.78171 Y11.88240
G01 X28.83715 Y11.77867
G01 X28.88778 Y11.71697
G01 X29.12509 Y11.71697
G01 X28.70088 Y11.71697
G01 X28.64312 Y11.82500
G01 X28.60045 Y11.96569
G01 X28.58605 Y12.11199
G01 X28.58605 Y13.71199
G01 X28.60045 Y13.85829
G01 X28.64312 Y13.99898
G01 X28.70086 Y14.10698
G01 X31.14695 Y14.10698
G01 X31.18597 Y14.08613
G01 X31.25417 Y14.03017
G01 X31.31012 Y13.96197
G01 X31.35170 Y13.88417
G01 X31.37731 Y13.79977
G01 X31.38597 Y13.71199
G01 X31.38597 Y13.61191
G01 X31.34632 Y13.57041
G01 X31.38597 Y13.61191
G01 X40.00604 Y13.61191
G01 X40.01077 Y13.60051
G01 X40.00604 Y13.61191
G01 X45.94601 Y19.55190
G01 X45.95741 Y19.54718
G01 X45.94601 Y19.55190
G01 X45.94601 Y22.58403
G01 X45.98751 Y22.62368
G01 X45.94601 Y22.58403
G01 X45.84598 Y22.58403
G01 X45.75820 Y22.59267
G01 X45.67380 Y22.61827
G01 X45.59600 Y22.65985
G01 X45.52780 Y22.71580
G01 X45.47184 Y22.78400
G01 X45.45096 Y22.82307
G01 X45.45096 Y22.58578
G01 X45.51266 Y22.53513
G01 X45.61639 Y22.47971
G01 X45.72894 Y22.44555
G01 X45.79602 Y22.43894
G01 X45.82879 Y22.46513
G01 X45.79602 Y22.43894
G01 X45.79602 Y19.61403
G01 X45.80743 Y19.60931
G01 X45.79602 Y19.61403
G01 X39.94391 Y13.76190
G01 X39.94864 Y13.75049
G01 X39.94391 Y13.76190
G01 X31.53103 Y13.76190
G01 X31.50484 Y13.72913
G01 X31.53103 Y13.76190
G01 X31.52442 Y13.82903
G01 X31.49029 Y13.94158
G01 X31.43484 Y14.04531
G01 X31.38421 Y14.10698
G01 X31.14695 Y14.10698
G01 X31.57111 Y14.10698
G01 X31.62884 Y13.99898
G01 X31.65526 Y13.91188
G01 X31.63336 Y13.88237
G01 X31.65526 Y13.91188
G01 X39.88178 Y13.91188
G01 X39.88651 Y13.90048
G01 X39.88178 Y13.91188
G01 X45.64604 Y19.67616
G01 X45.65744 Y19.67144
G01 X45.64604 Y19.67616
G01 X45.64604 Y22.31474
G01 X45.67555 Y22.33663
G01 X45.64604 Y22.31474
G01 X45.55899 Y22.34113
G01 X45.45096 Y22.39889
G01 X45.45096 Y24.84491
G01 X45.47184 Y24.88397
G01 X45.52780 Y24.95217
G01 X45.59600 Y25.00813
G01 X45.67380 Y25.04971
G01 X45.75820 Y25.07531
G01 X45.84598 Y25.08395
G01 X47.44598 Y25.08395
G01 X47.53376 Y25.07531
G01 X47.61819 Y25.04971
G01 X47.69597 Y25.00813
G01 X47.76417 Y24.95217
G01 X47.82012 Y24.88397
G01 X47.84098 Y24.84496
G01 X47.82012 Y24.88397
G01 X47.76417 Y24.95217
G01 X47.69597 Y25.00813
G01 X47.61819 Y25.04971
G01 X47.53376 Y25.07531
G01 X47.44598 Y25.08395
G01 X45.84598 Y25.08395
G01 X45.75820 Y25.07531
G01 X45.67380 Y25.04971
G01 X45.59600 Y25.00813
G01 X45.52780 Y24.95217
G01 X45.47184 Y24.88397
G01 X45.45096 Y24.84491
G01 X45.45096 Y25.08220
G01 X45.49544 Y25.11869
G01 X45.45096 Y25.08220
G01 X45.45096 Y25.10602
G01 X45.62493 Y25.15563
G01 X45.84954 Y25.17699
G01 X47.44240 Y25.17699
G01 X47.66701 Y25.15563
G01 X47.79655 Y25.11867
G01 X47.84098 Y25.08222
G01 X47.79655 Y25.11867
G01 X47.84098 Y25.10602
G01 X47.84098 Y22.39886
G01 X47.73298 Y22.34113
G01 X47.64590 Y22.31471
G01 X47.61639 Y22.33661
G01 X47.64590 Y22.31471
G01 X47.64590 Y19.33202
G01 X47.57529 Y19.17299
G01 X47.50633 Y19.04370
G01 X47.41250 Y18.89907
G01 X47.45106 Y18.99214
G01 X47.46528 Y19.03905
G01 X47.48822 Y19.15439
G01 X47.49592 Y19.26199
G01 X47.49592 Y22.43894
G01 X47.46315 Y22.46513
G01 X47.49592 Y22.43894
G01 X47.56302 Y22.44555
G01 X47.67557 Y22.47971
G01 X47.77931 Y22.53513
G01 X47.84098 Y22.58576
G01 X47.84098 Y22.82299
G01 X47.82012 Y22.78400
G01 X47.76417 Y22.71580
G01 X47.69597 Y22.65985
G01 X47.61819 Y22.61827
G01 X47.53376 Y22.59267
G01 X47.44598 Y22.58403
G01 X47.34593 Y22.58403
G01 X47.30443 Y22.62368
G01 X47.34593 Y22.58403
G01 X47.34593 Y19.26199
G01 X47.33897 Y19.16910
G01 X47.32175 Y19.08259
G01 X47.30753 Y19.03567
G01 X47.27377 Y18.95419
G01 X47.25068 Y18.91096
G01 X47.20166 Y18.83763
G01 X47.14093 Y18.76702
G01 X40.79093 Y12.41699
G01 X40.73515 Y12.36754
G01 X40.67802 Y12.32604
G01 X40.58166 Y12.27348
G01 X40.54541 Y12.25847
G01 X40.44013 Y12.22748
G01 X40.37038 Y12.21643
G01 X40.29598 Y12.21199
G01 X31.38597 Y12.21199
G01 X31.34632 Y12.25349
G01 X31.38597 Y12.21199
G01 X31.38597 Y12.11199
G01 X31.37731 Y12.02421
G01 X31.35170 Y11.93980
G01 X31.31012 Y11.86200
G01 X31.25417 Y11.79380
G01 X31.18597 Y11.73785
G01 X31.14690 Y11.71697
G01 X31.38419 Y11.71697
G01 X31.43484 Y11.77867
G01 X31.49029 Y11.88240
G01 X31.52442 Y11.99495
G01 X31.53103 Y12.06200
G01 X31.50484 Y12.09477
G01 X31.53103 Y12.06200
G01 X40.29598 Y12.06200
G01 X40.38214 Y12.06693
G01 X40.47513 Y12.08166
G01 X40.60281 Y12.11989
G01 X40.65539 Y12.14323
G01 X40.74465 Y12.02268
G01 X39.94391 Y11.22192
G01 X39.94864 Y11.21052
G01 X39.94391 Y11.22192
G01 X31.53103 Y11.22192
G01 X31.50484 Y11.18916
G01 X31.53103 Y11.22192
G01 X31.52442 Y11.28903
G01 X31.49029 Y11.40158
G01 X31.43484 Y11.50531
G01 X31.38421 Y11.56698
G01 X29.12501 Y11.56698
G01 X29.08600 Y11.54613
G01 X29.01780 Y11.49017
G01 X28.96184 Y11.42197
G01 X28.92026 Y11.34417
G01 X28.89466 Y11.25977
G01 X28.88602 Y11.17199
G01 X28.88602 Y9.57199
G01 X28.58605 Y9.57199
G01 X29.03601 Y9.57199
G01 X29.03601 Y11.17199
G01 X29.04178 Y11.23051
G01 X29.05884 Y11.28679
G01 X29.08656 Y11.33866
G01 X29.12387 Y11.38410
G01 X29.16933 Y11.42141
G01 X29.22118 Y11.44913
G01 X29.27746 Y11.46622
G01 X29.33598 Y11.47196
G01 X30.93598 Y11.47196
G01 X30.99450 Y11.46622
G01 X31.05079 Y11.44913
G01 X31.10266 Y11.42141
G01 X31.14810 Y11.38410
G01 X31.18541 Y11.33866
G01 X31.21315 Y11.28679
G01 X31.23021 Y11.23051
G01 X31.23598 Y11.17199
G01 X31.23598 Y10.92195
G01 X31.19204 Y10.87803
G01 X31.23598 Y10.92195
G01 X40.06817 Y10.92195
G01 X40.07289 Y10.91054
G01 X40.06817 Y10.92195
G01 X48.63600 Y19.48978
G01 X48.64740 Y19.48505
G01 X48.63600 Y19.48978
G01 X48.63600 Y22.73399
G01 X48.67991 Y22.77793
G01 X48.63600 Y22.73399
G01 X48.38598 Y22.73399
G01 X48.32746 Y22.73976
G01 X48.27118 Y22.75683
G01 X48.21933 Y22.78456
G01 X48.17387 Y22.82187
G01 X48.13656 Y22.86732
G01 X48.10884 Y22.91918
G01 X48.09178 Y22.97547
G01 X48.08601 Y23.03399
G01 X48.08601 Y24.63399
G01 X48.09178 Y24.69251
G01 X48.10884 Y24.74879
G01 X48.13656 Y24.80066
G01 X48.17387 Y24.84610
G01 X48.21933 Y24.88341
G01 X48.27118 Y24.91113
G01 X48.32746 Y24.92822
G01 X48.38598 Y24.93396
G01 X49.98598 Y24.93396
G01 X50.04450 Y24.92822
G01 X50.10079 Y24.91113
G01 X50.15266 Y24.88341
G01 X50.19810 Y24.84610
G01 X50.23541 Y24.80066
G01 X50.26315 Y24.74879
G01 X50.28021 Y24.69251
G01 X50.28598 Y24.63399
G01 X50.28598 Y23.03399
G01 X50.28021 Y22.97547
G01 X50.26315 Y22.91918
G01 X50.23541 Y22.86732
G01 X50.19810 Y22.82187
G01 X50.15266 Y22.78456
G01 X50.10079 Y22.75683
G01 X50.04450 Y22.73976
G01 X49.98598 Y22.73399
G01 X49.73594 Y22.73399
G01 X49.69203 Y22.77793
G01 X49.73594 Y22.73399
G01 X49.73594 Y19.26199
G01 X49.72969 Y19.18381
G01 X49.71824 Y19.12612
G01 X49.70402 Y19.07924
G01 X49.68151 Y19.02490
G01 X49.64326 Y18.95643
G01 X49.57486 Y18.87309
G01 X40.68486 Y9.98309
G01 X40.62517 Y9.93221
G01 X40.57627 Y9.89955
G01 X40.53304 Y9.87643
G01 X40.47871 Y9.85393
G01 X40.43182 Y9.83971
G01 X40.37414 Y9.82825
G01 X40.29598 Y9.82200
G01 X31.23598 Y9.82200
G01 X31.19204 Y9.86592
G01 X31.23598 Y9.82200
G01 X31.23598 Y9.57199
G01 X31.23021 Y9.51347
G01 X31.21315 Y9.45718
G01 X31.18541 Y9.40532
G01 X31.14810 Y9.35987
G01 X31.10266 Y9.32256
G01 X31.05079 Y9.29483
G01 X30.99450 Y9.27776
G01 X30.93598 Y9.27199
G01 X29.33598 Y9.27199
G01 X29.27746 Y9.27776
G01 X29.22118 Y9.29483
G01 X29.16933 Y9.32256
G01 X29.12387 Y9.35987
G01 X29.08656 Y9.40532
G01 X29.05884 Y9.45718
G01 X29.04178 Y9.51347
G01 X29.03601 Y9.57199
G01 X29.18600 Y9.57199
G01 X29.18887 Y9.54273
G01 X29.19740 Y9.51459
G01 X29.21127 Y9.48865
G01 X29.22991 Y9.46592
G01 X29.25265 Y9.44728
G01 X29.27858 Y9.43341
G01 X29.30672 Y9.42487
G01 X29.33598 Y9.42198
G01 X30.93598 Y9.42198
G01 X30.96524 Y9.42487
G01 X30.99338 Y9.43341
G01 X31.01932 Y9.44728
G01 X31.04205 Y9.46592
G01 X31.06072 Y9.48865
G01 X31.07456 Y9.51459
G01 X31.08310 Y9.54273
G01 X31.08599 Y9.57199
G01 X31.08599 Y9.97196
G01 X40.29598 Y9.97196
G01 X40.35946 Y9.97750
G01 X40.43517 Y9.99747
G01 X40.46235 Y10.00872
G01 X40.53002 Y10.04816
G01 X40.57881 Y10.08913
G01 X49.46881 Y18.97913
G01 X49.51857 Y19.03974
G01 X49.54923 Y19.09559
G01 X49.57470 Y19.16966
G01 X49.58598 Y19.26199
G01 X49.58598 Y22.88398
G01 X49.98598 Y22.88398
G01 X50.01524 Y22.88687
G01 X50.04338 Y22.89541
G01 X50.06932 Y22.90928
G01 X50.09205 Y22.92792
G01 X50.11072 Y22.95065
G01 X50.12456 Y22.97659
G01 X50.13310 Y23.00473
G01 X50.13599 Y23.03399
G01 X50.13599 Y24.63399
G01 X50.13310 Y24.66325
G01 X50.12456 Y24.69139
G01 X50.11072 Y24.71732
G01 X50.09205 Y24.74006
G01 X50.06932 Y24.75870
G01 X50.04338 Y24.77257
G01 X50.01524 Y24.78110
G01 X49.98598 Y24.78400
G01 X48.38598 Y24.78400
G01 X48.35672 Y24.78110
G01 X48.32858 Y24.77257
G01 X48.30265 Y24.75870
G01 X48.27991 Y24.74006
G01 X48.26127 Y24.71732
G01 X48.24740 Y24.69139
G01 X48.23887 Y24.66325
G01 X48.23600 Y24.63399
G01 X48.23600 Y23.03399
G01 X48.23887 Y23.00473
G01 X48.24740 Y22.97659
G01 X48.26127 Y22.95065
G01 X48.27991 Y22.92792
G01 X48.30265 Y22.90928
G01 X48.32858 Y22.89541
G01 X48.35672 Y22.88687
G01 X48.38598 Y22.88398
G01 X48.78596 Y22.88398
G01 X48.78596 Y19.42767
G01 X40.13027 Y10.77199
G01 X31.08599 Y10.77199
G01 X31.08599 Y11.17199
G01 X31.08310 Y11.20125
G01 X31.07456 Y11.22939
G01 X31.06072 Y11.25532
G01 X31.04205 Y11.27806
G01 X31.01932 Y11.29670
G01 X30.99338 Y11.31057
G01 X30.96524 Y11.31910
G01 X30.93598 Y11.32200
G01 X29.33598 Y11.32200
G01 X29.30672 Y11.31910
G01 X29.27858 Y11.31057
G01 X29.25265 Y11.29670
G01 X29.22991 Y11.27806
G01 X29.21127 Y11.25532
G01 X29.19740 Y11.22939
G01 X29.18887 Y11.20125
G01 X29.18600 Y11.17199
G01 X29.18600 Y9.57199
G01 X28.88602 Y9.57199
G01 X28.89466 Y9.48421
G01 X28.92026 Y9.39980
G01 X28.96184 Y9.32200
G01 X29.01780 Y9.25380
G01 X29.08600 Y9.19785
G01 X29.12506 Y9.17697
G01 X28.88778 Y9.17697
G01 X28.83715 Y9.23867
G01 X28.78171 Y9.34240
G01 X28.74757 Y9.45495
G01 X28.73604 Y9.57199
G01 X28.73604 Y11.17199
G01 X28.74757 Y11.28903
G01 X28.78171 Y11.40158
G01 X28.83715 Y11.50531
G01 X28.88775 Y11.56698
G01 X29.12501 Y11.56698
G01 X28.70086 Y11.56698
G01 X28.64312 Y11.45898
G01 X28.60045 Y11.31829
G01 X28.58605 Y11.17199
G01 X28.58605 Y9.57199
G01 X28.60045 Y9.42569
G01 X28.64312 Y9.28500
G01 X28.70088 Y9.17697
G01 X31.14690 Y9.17697
G01 X31.18597 Y9.19785
G01 X31.25417 Y9.25380
G01 X31.31012 Y9.32200
G01 X31.35170 Y9.39980
G01 X31.37731 Y9.48421
G01 X31.38597 Y9.57199
G01 X31.38597 Y9.67202
G01 X31.34632 Y9.71352
G01 X31.38597 Y9.67202
G01 X40.29598 Y9.67202
G01 X40.38884 Y9.67897
G01 X40.47536 Y9.69620
G01 X40.56383 Y9.72528
G01 X40.64698 Y9.76727
G01 X40.72031 Y9.81629
G01 X40.79093 Y9.87702
G01 X49.68093 Y18.76702
G01 X49.74166 Y18.83763
G01 X49.79068 Y18.91096
G01 X49.81377 Y18.95419
G01 X49.84753 Y19.03567
G01 X49.86175 Y19.08259
G01 X49.87897 Y19.16910
G01 X49.88593 Y19.26199
G01 X49.88593 Y22.58403
G01 X49.84443 Y22.62368
G01 X49.88593 Y22.58403
G01 X49.98598 Y22.58403
G01 X50.07376 Y22.59267
G01 X50.15819 Y22.61827
G01 X50.23597 Y22.65985
G01 X50.30417 Y22.71580
G01 X50.36012 Y22.78400
G01 X50.38098 Y22.82302
G01 X50.38098 Y22.58576
G01 X50.31930 Y22.53513
G01 X50.21557 Y22.47971
G01 X50.10302 Y22.44555
G01 X50.03592 Y22.43894
G01 X50.00315 Y22.46513
G01 X50.03592 Y22.43894
G01 X50.03592 Y19.26199
G01 X50.02822 Y19.15439
G01 X50.00528 Y19.03905
G01 X49.99106 Y18.99214
G01 X49.94605 Y18.88348
G01 X49.92294 Y18.84027
G01 X49.85761 Y18.74248
G01 X49.78697 Y18.66097
G01 X40.89697 Y9.77097
G01 X40.81546 Y9.70034
G01 X40.71767 Y9.63501
G01 X40.67447 Y9.61189
G01 X40.62123 Y9.58672
G01 X40.56581 Y9.56688
G01 X40.51889 Y9.55266
G01 X40.40355 Y9.52972
G01 X40.29598 Y9.52203
G01 X31.53103 Y9.52203
G01 X31.50484 Y9.55479
G01 X31.53103 Y9.52203
G01 X31.52442 Y9.45495
G01 X31.49029 Y9.34240
G01 X31.43484 Y9.23867
G01 X31.38419 Y9.17697
G01 X31.14690 Y9.17697
G01 X31.57111 Y9.17697
G01 X31.62884 Y9.28500
G01 X31.65523 Y9.37204
G01 X31.63336 Y9.40156
G01 X31.65523 Y9.37204
G01 X40.29598 Y9.37204
G01 X40.41826 Y9.38045
G01 X40.56243 Y9.40913
G01 X40.60934 Y9.42335
G01 X40.67863 Y9.44814
G01 X40.74516 Y9.47961
G01 X40.78839 Y9.50272
G01 X40.91061 Y9.58439
G01 X41.00304 Y9.66490
G01 X49.89304 Y18.55490
G01 X49.97356 Y18.64733
G01 X50.01740 Y18.70644
G01 X50.07834 Y18.81279
G01 X50.13460 Y18.94860
G01 X50.14882 Y18.99552
G01 X50.17750 Y19.13969
G01 X50.18590 Y19.26199
G01 X50.18590 Y22.31471
G01 X50.15639 Y22.33661
G01 X50.18590 Y22.31471
G01 X50.27298 Y22.34113
G01 X50.38098 Y22.39886
G01 X50.38098 Y24.84496
G01 X50.36012 Y24.88397
G01 X50.30417 Y24.95217
G01 X50.23597 Y25.00813
G01 X50.15819 Y25.04971
G01 X50.07376 Y25.07531
G01 X49.98598 Y25.08395
G01 X48.38598 Y25.08395
G01 X48.29820 Y25.07531
G01 X48.21380 Y25.04971
G01 X48.13600 Y25.00813
G01 X48.06780 Y24.95217
G01 X48.01184 Y24.88397
G01 X47.99096 Y24.84491
G01 X48.01184 Y24.88397
G01 X48.06780 Y24.95217
G01 X48.13600 Y25.00813
G01 X48.21380 Y25.04971
G01 X48.29820 Y25.07531
G01 X48.38598 Y25.08395
G01 X49.98598 Y25.08395
G01 X50.07376 Y25.07531
G01 X50.15819 Y25.04971
G01 X50.23597 Y25.00813
G01 X50.30417 Y24.95217
G01 X50.36012 Y24.88397
G01 X50.38098 Y24.84496
G01 X50.38098 Y25.08222
G01 X50.33655 Y25.11867
G01 X50.38098 Y25.08222
G01 X50.38098 Y25.10602
G01 X50.20701 Y25.15563
G01 X49.98240 Y25.17699
G01 X48.38954 Y25.17699
G01 X48.16493 Y25.15563
G01 X48.03544 Y25.11869
G01 X47.99096 Y25.08220
G01 X48.03544 Y25.11869
G01 X47.99096 Y25.10602
G01 X47.99096 Y22.39889
G01 X48.09899 Y22.34113
G01 X48.18604 Y22.31474
G01 X48.21555 Y22.33663
G01 X48.18604 Y22.31474
G01 X48.18604 Y19.67616
G01 X48.19744 Y19.67144
G01 X48.18604 Y19.67616
G01 X47.78446 Y19.27461
G01 X47.71012 Y19.10723
G01 X47.60831 Y18.92160
G01 X47.49800 Y18.76207
G01 X47.41332 Y18.65899
G01 X47.33399 Y18.57393
G01 X40.98293 Y12.22289
G01 X40.83347 Y12.08918
G01 X40.67828 Y11.97602
G01 X40.53858 Y11.89297
G01 X40.42628 Y11.83589
G01 X40.28328 Y11.77343
G01 X39.88178 Y11.37191
G01 X39.88651 Y11.36051
G01 X39.88178 Y11.37191
G01 X31.65526 Y11.37191
G01 X31.63336 Y11.34240
G01 X31.65526 Y11.37191
G01 X31.62884 Y11.45898
G01 X31.57111 Y11.56698
G01 X31.14698 Y11.56698
G01 X31.18597 Y11.54613
G01 X31.25417 Y11.49017
G01 X31.31012 Y11.42197
G01 X31.35170 Y11.34417
G01 X31.37731 Y11.25977
G01 X31.38597 Y11.17199
G01 X31.38597 Y11.07194
G01 X31.34632 Y11.03043
G01 X31.38597 Y11.07194
G01 X40.00604 Y11.07194
G01 X40.01077 Y11.06053
G01 X40.00604 Y11.07194
G01 X48.48601 Y19.55190
G01 X48.49741 Y19.54718
G01 X48.48601 Y19.55190
G01 X48.48601 Y22.58403
G01 X48.52751 Y22.62368
G01 X48.48601 Y22.58403
G01 X48.38598 Y22.58403
G01 X48.29820 Y22.59267
G01 X48.21380 Y22.61827
G01 X48.13600 Y22.65985
G01 X48.06780 Y22.71580
G01 X48.01184 Y22.78400
G01 X47.99096 Y22.82309
G01 X47.99096 Y22.58578
G01 X48.05266 Y22.53513
G01 X48.15639 Y22.47971
G01 X48.26894 Y22.44555
G01 X48.33602 Y22.43894
G01 X48.36879 Y22.46513
G01 X48.33602 Y22.43894
G01 X48.33602 Y19.61403
G01 X48.34743 Y19.60931
G01 X48.33602 Y19.61403
G01 X47.53191 Y18.80781
G04 P0 ( dwell for no time -- G64 should not smooth over this point )
G00 Z5.00000 ( retract )

G00 X63.59604 Y8.63199 ( rapid move to begin. )
G01 F200.00000
( Mill infeed pass 1/1 )
G01 Z-0.15000
G04 P0 ( dwell for no time -- G64 should not smooth over this point )
G01 F200.00000
G01 X63.59604 Y8.63199
G01 X63.61046 Y8.77829
G01 X63.65314 Y8.91898
G01 X63.71087 Y9.02698
G01 X63.89776 Y9.02698
G01 X63.84714 Y8.96531
G01 X63.79169 Y8.86158
G01 X63.75756 Y8.74903
G01 X63.74602 Y8.63199
G01 X63.74602 Y7.03199
G01 X63.75756 Y6.91495
G01 X63.79169 Y6.80240
G01 X63.84714 Y6.69867
G01 X63.92177 Y6.60776
G01 X64.01267 Y6.53313
G01 X64.11638 Y6.47769
G01 X64.22893 Y6.44355
G01 X64.34600 Y6.43204
G01 X65.94599 Y6.43204
G01 X66.06304 Y6.44355
G01 X66.17559 Y6.47769
G01 X66.27929 Y6.53313
G01 X66.37023 Y6.60776
G01 X66.44483 Y6.69867
G01 X66.50027 Y6.80240
G01 X66.53441 Y6.91495
G01 X66.54594 Y7.03199
G01 X66.54594 Y8.63199
G01 X66.53441 Y8.74903
G01 X66.50027 Y8.86158
G01 X66.44483 Y8.96531
G01 X66.39420 Y9.02698
G01 X66.15694 Y9.02698
G01 X66.19598 Y9.00613
G01 X66.26415 Y8.95017
G01 X66.32011 Y8.88197
G01 X66.36172 Y8.80417
G01 X66.38732 Y8.71977
G01 X66.39596 Y8.63199
G01 X66.39596 Y7.03199
G01 X66.38732 Y6.94421
G01 X66.36172 Y6.85980
G01 X66.32011 Y6.78200
G01 X66.26415 Y6.71380
G01 X66.19598 Y6.65785
G01 X66.11818 Y6.61627
G01 X66.03378 Y6.59066
G01 X65.94599 Y6.58203
G01 X64.34600 Y6.58203
G01 X64.25819 Y6.59066
G01 X64.17379 Y6.61627
G01 X64.09599 Y6.65785
G01 X64.02781 Y6.71380
G01 X63.97186 Y6.78200
G01 X63.93028 Y6.85980
G01 X63.90467 Y6.94421
G01 X63.89601 Y7.03199
G01 X63.89601 Y8.63199
G01 X63.90467 Y8.71977
G01 X63.93028 Y8.80417
G01 X63.97186 Y8.88197
G01 X64.02781 Y8.95017
G01 X64.09599 Y9.00613
G01 X64.13503 Y9.02698
G01 X63.89776 Y9.02698
G01 X66.58112 Y9.02698
G01 X66.63883 Y8.91898
G01 X66.68153 Y8.77829
G01 X66.69593 Y8.63199
G01 X66.69593 Y7.03199
G01 X66.68153 Y6.88569
G01 X66.63883 Y6.74500
G01 X66.56954 Y6.61533
G01 X66.47627 Y6.50166
G01 X66.36263 Y6.40845
G01 X66.23299 Y6.33913
G01 X66.09230 Y6.29646
G01 X65.94599 Y6.28205
G01 X64.34600 Y6.28205
G01 X64.19969 Y6.29646
G01 X64.05900 Y6.33913
G01 X63.92934 Y6.40845
G01 X63.81570 Y6.50166
G01 X63.72243 Y6.61533
G01 X63.65314 Y6.74500
G01 X63.61046 Y6.88569
G01 X63.59604 Y7.03199
G01 X64.04600 Y7.03199
G01 X64.04600 Y8.63199
G01 X64.05176 Y8.69051
G01 X64.06883 Y8.74679
G01 X64.09657 Y8.79866
G01 X64.13386 Y8.84410
G01 X64.17932 Y8.88141
G01 X64.23119 Y8.90913
G01 X64.28745 Y8.92622
G01 X64.34600 Y8.93196
G01 X65.94599 Y8.93196
G01 X66.00452 Y8.92622
G01 X66.06078 Y8.90913
G01 X66.11264 Y8.88141
G01 X66.15811 Y8.84410
G01 X66.19542 Y8.79866
G01 X66.22313 Y8.74679
G01 X66.24020 Y8.69051
G01 X66.24597 Y8.63199
G01 X66.24597 Y7.03199
G01 X66.24020 Y6.97347
G01 X66.22313 Y6.91718
G01 X66.19542 Y6.86532
G01 X66.15811 Y6.81987
G01 X66.11264 Y6.78256
G01 X66.06078 Y6.75483
G01 X66.00452 Y6.73776
G01 X65.94599 Y6.73199
G01 X64.34600 Y6.73199
G01 X64.28745 Y6.73776
G01 X64.23119 Y6.75483
G01 X64.17932 Y6.78256
G01 X64.13386 Y6.81987
G01 X64.09657 Y6.86532
G01 X64.06883 Y6.91718
G01 X64.05176 Y6.97347
G01 X64.04600 Y7.03199
G01 X64.19599 Y7.03199
G01 X64.19888 Y7.00273
G01 X64.20742 Y6.97459
G01 X64.22126 Y6.94865
G01 X64.23993 Y6.92592
G01 X64.26266 Y6.90728
G01 X64.28859 Y6.89341
G01 X64.31671 Y6.88487
G01 X64.34600 Y6.88198
G01 X65.94599 Y6.88198
G01 X65.97526 Y6.88487
G01 X66.00340 Y6.89341
G01 X66.02933 Y6.90728
G01 X66.05206 Y6.92592
G01 X66.07071 Y6.94865
G01 X66.08458 Y6.97459
G01 X66.09311 Y7.00273
G01 X66.09598 Y7.03199
G01 X66.09598 Y8.63199
G01 X66.09311 Y8.66125
G01 X66.08458 Y8.68939
G01 X66.07071 Y8.71532
G01 X66.05206 Y8.73806
G01 X66.02933 Y8.75670
G01 X66.00340 Y8.77057
G01 X65.97526 Y8.77910
G01 X65.94599 Y8.78200
G01 X64.34600 Y8.78200
G01 X64.31671 Y8.77910
G01 X64.28859 Y8.77057
G01 X64.26266 Y8.75670
G01 X64.23993 Y8.73806
G01 X64.22126 Y8.71532
G01 X64.20742 Y8.68939
G01 X64.19888 Y8.66125
G01 X64.19599 Y8.63199
G01 X64.19599 Y7.03199
G01 X63.59604 Y7.03199
G01 X63.59604 Y16.25199
G01 X63.61046 Y16.39829
G01 X63.65314 Y16.53898
G01 X63.72243 Y16.66862
G01 X63.81570 Y16.78226
G01 X63.92934 Y16.87553
G01 X64.05900 Y16.94485
G01 X64.19969 Y16.98752
G01 X64.34600 Y17.00192
G01 X65.94599 Y17.00192
G01 X66.09230 Y16.98752
G01 X66.23299 Y16.94485
G01 X66.36263 Y16.87553
G01 X66.47627 Y16.78226
G01 X66.56954 Y16.66862
G01 X66.63883 Y16.53898
G01 X66.68153 Y16.39829
G01 X66.69593 Y16.25199
G01 X66.69593 Y14.65199
G01 X66.68153 Y14.50569
G01 X66.63883 Y14.36500
G01 X66.58110 Y14.25697
G01 X66.39420 Y14.25697
G01 X66.44483 Y14.31867
G01 X66.50027 Y14.42240
G01 X66.53441 Y14.53495
G01 X66.54594 Y14.65199
G01 X66.54594 Y16.25199
G01 X66.53441 Y16.36903
G01 X66.50027 Y16.48158
G01 X66.44483 Y16.58531
G01 X66.37023 Y16.67622
G01 X66.27929 Y16.75084
G01 X66.17559 Y16.80627
G01 X66.06304 Y16.84040
G01 X65.94599 Y16.85193
G01 X64.34600 Y16.85193
G01 X64.22893 Y16.84040
G01 X64.11638 Y16.80627
G01 X64.01267 Y16.75084
G01 X63.92177 Y16.67622
G01 X63.84714 Y16.58531
G01 X63.79169 Y16.48158
G01 X63.75756 Y16.36903
G01 X63.74602 Y16.25199
G01 X63.74602 Y14.65199
G01 X63.75756 Y14.53495
G01 X63.79169 Y14.42240
G01 X63.84714 Y14.31867
G01 X63.89779 Y14.25697
G01 X64.13508 Y14.25697
G01 X64.09599 Y14.27785
G01 X64.02781 Y14.33380
G01 X63.97186 Y14.40200
G01 X63.93028 Y14.47980
G01 X63.90467 Y14.56421
G01 X63.89601 Y14.65199
G01 X63.89601 Y16.25199
G01 X63.90467 Y16.33977
G01 X63.93028 Y16.42417
G01 X63.97186 Y16.50197
G01 X64.02781 Y16.57017
G01 X64.09599 Y16.62613
G01 X64.17379 Y16.66771
G01 X64.25819 Y16.69331
G01 X64.34600 Y16.70195
G01 X65.94599 Y16.70195
G01 X66.03378 Y16.69331
G01 X66.11818 Y16.66771
G01 X66.19598 Y16.62613
G01 X66.26415 Y16.57017
G01 X66.32011 Y16.50197
G01 X66.36172 Y16.42417
G01 X66.38732 Y16.33977
G01 X66.39596 Y16.25199
G01 X66.39596 Y14.65199
G01 X66.38732 Y14.56421
G01 X66.36172 Y14.47980
G01 X66.32011 Y14.40200
G01 X66.26415 Y14.33380
G01 X66.19598 Y14.27785
G01 X66.15692 Y14.25697
G01 X66.39420 Y14.25697
G01 X63.71087 Y14.25697
G01 X63.65314 Y14.36500
G01 X63.61046 Y14.50569
G01 X63.59604 Y14.65199
G01 X64.04600 Y14.65199
G01 X64.04600 Y16.25199
G01 X64.05176 Y16.31051
G01 X64.06883 Y16.36679
G01 X64.09657 Y16.41866
G01 X64.13386 Y16.46410
G01 X64.17932 Y16.50141
G01 X64.23119 Y16.52913
G01 X64.28745 Y16.54622
G01 X64.34600 Y16.55196
G01 X65.94599 Y16.55196
G01 X66.00452 Y16.54622
G01 X66.06078 Y16.52913
G01 X66.11264 Y16.50141
G01 X66.15811 Y16.46410
G01 X66.19542 Y16.41866
G01 X66.22313 Y16.36679
G01 X66.24020 Y16.31051
G01 X66.24597 Y16.25199
G01 X66.24597 Y14.65199
G01 X66.24020 Y14.59347
G01 X66.22313 Y14.53718
G01 X66.19542 Y14.48532
G01 X66.15811 Y14.43987
G01 X66.11264 Y14.40256
G01 X66.06078 Y14.37483
G01 X66.00452 Y14.35776
G01 X65.94599 Y14.35199
G01 X64.34600 Y14.35199
G01 X64.28745 Y14.35776
G01 X64.23119 Y14.37483
G01 X64.17932 Y14.40256
G01 X64.13386 Y14.43987
G01 X64.09657 Y14.48532
G01 X64.06883 Y14.53718
G01 X64.05176 Y14.59347
G01 X64.04600 Y14.65199
G01 X64.19599 Y14.65199
G01 X64.19888 Y14.62273
G01 X64.20742 Y14.59459
G01 X64.22126 Y14.56865
G01 X64.23993 Y14.54592
G01 X64.26266 Y14.52728
G01 X64.28859 Y14.51341
G01 X64.31671 Y14.50487
G01 X64.34600 Y14.50198
G01 X65.94599 Y14.50198
G01 X65.97526 Y14.50487
G01 X66.00340 Y14.51341
G01 X66.02933 Y14.52728
G01 X66.05206 Y14.54592
G01 X66.07071 Y14.56865
G01 X66.08458 Y14.59459
G01 X66.09311 Y14.62273
G01 X66.09598 Y14.65199
G01 X66.09598 Y16.25199
G01 X66.09311 Y16.28125
G01 X66.08458 Y16.30939
G01 X66.07071 Y16.33532
G01 X66.05206 Y16.35806
G01 X66.02933 Y16.37670
G01 X66.00340 Y16.39057
G01 X65.97526 Y16.39910
G01 X65.94599 Y16.40200
G01 X64.34600 Y16.40200
G01 X64.31671 Y16.39910
G01 X64.28859 Y16.39057
G01 X64.26266 Y16.37670
G01 X64.23993 Y16.35806
G01 X64.22126 Y16.33532
G01 X64.20742 Y16.30939
G01 X64.19888 Y16.28125
G01 X64.19599 Y16.25199
G01 X64.19599 Y14.65199
G01 X63.59604 Y14.65199
G01 X63.59604 Y13.71199
G01 X63.61046 Y13.85829
G01 X63.65314 Y13.99898
G01 X63.71087 Y14.10698
G01 X63.89776 Y14.10698
G01 X63.84714 Y14.04531
G01 X63.79169 Y13.94158
G01 X63.75756 Y13.82903
G01 X63.74602 Y13.71199
G01 X63.74602 Y12.11199
G01 X63.75756 Y11.99495
G01 X63.79169 Y11.88240
G01 X63.84714 Y11.77867
G01 X63.89779 Y11.71697
G01 X64.13508 Y11.71697
G01 X64.09599 Y11.73785
G01 X64.02781 Y11.79380
G01 X63.97186 Y11.86200
G01 X63.93028 Y11.93980
G01 X63.90467 Y12.02421
G01 X63.89601 Y12.11199
G01 X63.89601 Y13.71199
G01 X63.90467 Y13.79977
G01 X63.93028 Y13.88417
G01 X63.97186 Y13.96197
G01 X64.02781 Y14.03017
G01 X64.09599 Y14.08613
G01 X64.13503 Y14.10698
G01 X63.89776 Y14.10698
G01 X66.15694 Y14.10698
G01 X66.19598 Y14.08613
G01 X66.26415 Y14.03017
G01 X66.32011 Y13.96197
G01 X66.36172 Y13.88417
G01 X66.38732 Y13.79977
G01 X66.39596 Y13.71199
G01 X66.39596 Y12.11199
G01 X66.38732 Y12.02421
G01 X66.36172 Y11.93980
G01 X66.32011 Y11.86200
G01 X66.26415 Y11.79380
G01 X66.19598 Y11.73785
G01 X66.15692 Y11.71697
G01 X66.39420 Y11.71697
G01 X66.44483 Y11.77867
G01 X66.50027 Y11.88240
G01 X66.53441 Y11.99495
G01 X66.54594 Y12.11199
G01 X66.54594 Y13.71199
G01 X66.53441 Y13.82903
G01 X66.50027 Y13.94158
G01 X66.44483 Y14.04531
G01 X66.39420 Y14.10698
G01 X66.15694 Y14.10698
G01 X66.58112 Y14.10698
G01 X66.63883 Y13.99898
G01 X66.68153 Y13.85829
G01 X66.69593 Y13.71199
G01 X66.69593 Y12.11199
G01 X66.68153 Y11.96569
G01 X66.63883 Y11.82500
G01 X66.58110 Y11.71697
G01 X63.71087 Y11.71697
G01 X63.65314 Y11.82500
G01 X63.61046 Y11.96569
G01 X63.59604 Y12.11199
G01 X64.04600 Y12.11199
G01 X64.04600 Y13.71199
G01 X64.05176 Y13.77051
G01 X64.06883 Y13.82679
G01 X64.09657 Y13.87866
G01 X64.13386 Y13.92410
G01 X64.17932 Y13.96141
G01 X64.23119 Y13.98913
G01 X64.28745 Y14.00622
G01 X64.34600 Y14.01196
G01 X65.94599 Y14.01196
G01 X66.00452 Y14.00622
G01 X66.06078 Y13.98913
G01 X66.11264 Y13.96141
G01 X66.15811 Y13.92410
G01 X66.19542 Y13.87866
G01 X66.22313 Y13.82679
G01 X66.24020 Y13.77051
G01 X66.24597 Y13.71199
G01 X66.24597 Y12.11199
G01 X66.24020 Y12.05347
G01 X66.22313 Y11.99718
G01 X66.19542 Y11.94532
G01 X66.15811 Y11.89987
G01 X66.11264 Y11.86256
G01 X66.06078 Y11.83483
G01 X66.00452 Y11.81776
G01 X65.94599 Y11.81199
G01 X64.34600 Y11.81199
G01 X64.28745 Y11.81776
G01 X64.23119 Y11.83483
G01 X64.17932 Y11.86256
G01 X64.13386 Y11.89987
G01 X64.09657 Y11.94532
G01 X64.06883 Y11.99718
G01 X64.05176 Y12.05347
G01 X64.04600 Y12.11199
G01 X64.19599 Y12.11199
G01 X64.19888 Y12.08273
G01 X64.20742 Y12.05459
G01 X64.22126 Y12.02865
G01 X64.23993 Y12.00592
G01 X64.26266 Y11.98728
G01 X64.28859 Y11.97341
G01 X64.31671 Y11.96487
G01 X64.34600 Y11.96198
G01 X65.94599 Y11.96198
G01 X65.97526 Y11.96487
G01 X66.00340 Y11.97341
G01 X66.02933 Y11.98728
G01 X66.05206 Y12.00592
G01 X66.07071 Y12.02865
G01 X66.08458 Y12.05459
G01 X66.09311 Y12.08273
G01 X66.09598 Y12.11199
G01 X66.09598 Y13.71199
G01 X66.09311 Y13.74125
G01 X66.08458 Y13.76939
G01 X66.07071 Y13.79532
G01 X66.05206 Y13.81806
G01 X66.02933 Y13.83670
G01 X66.00340 Y13.85057
G01 X65.97526 Y13.85910
G01 X65.94599 Y13.86200
G01 X64.34600 Y13.86200
G01 X64.31671 Y13.85910
G01 X64.28859 Y13.85057
G01 X64.26266 Y13.83670
G01 X64.23993 Y13.81806
G01 X64.22126 Y13.79532
G01 X64.20742 Y13.76939
G01 X64.19888 Y13.74125
G01 X64.19599 Y13.71199
G01 X64.19599 Y12.11199
G01 X63.59604 Y12.11199
G01 X63.59604 Y11.17199
G01 X63.61046 Y11.31829
G01 X63.65314 Y11.45898
G01 X63.71087 Y11.56698
G01 X63.89776 Y11.56698
G01 X63.84714 Y11.50531
G01 X63.79169 Y11.40158
G01 X63.75756 Y11.28903
G01 X63.74602 Y11.17199
G01 X63.74602 Y9.57199
G01 X63.75756 Y9.45495
G01 X63.79169 Y9.34240
G01 X63.84714 Y9.23867
G01 X63.89779 Y9.17697
G01 X64.13508 Y9.17697
G01 X64.09599 Y9.19785
G01 X64.02781 Y9.25380
G01 X63.97186 Y9.32200
G01 X63.93028 Y9.39980
G01 X63.90467 Y9.48421
G01 X63.89601 Y9.57199
G01 X63.89601 Y11.17199
G01 X63.90467 Y11.25977
G01 X63.93028 Y11.34417
G01 X63.97186 Y11.42197
G01 X64.02781 Y11.49017
G01 X64.09599 Y11.54613
G01 X64.13503 Y11.56698
G01 X63.89776 Y11.56698
G01 X66.15694 Y11.56698
G01 X66.19598 Y11.54613
G01 X66.26415 Y11.49017
G01 X66.32011 Y11.42197
G01 X66.36172 Y11.34417
G01 X66.38732 Y11.25977
G01 X66.39596 Y11.17199
G01 X66.39596 Y9.57199
G01 X66.38732 Y9.48421
G01 X66.36172 Y9.39980
G01 X66.32011 Y9.32200
G01 X66.26415 Y9.25380
G01 X66.19598 Y9.19785
G01 X66.15692 Y9.17697
G01 X66.39420 Y9.17697
G01 X66.44483 Y9.23867
G01 X66.50027 Y9.34240
G01 X66.53441 Y9.45495
G01 X66.54594 Y9.57199
G01 X66.54594 Y11.17199
G01 X66.53441 Y11.28903
G01 X66.50027 Y11.40158
G01 X66.44483 Y11.50531
G01 X66.39420 Y11.56698
G01 X66.15694 Y11.56698
G01 X66.58112 Y11.56698
G01 X66.63883 Y11.45898
G01 X66.68153 Y11.31829
G01 X66.69593 Y11.17199
G01 X66.69593 Y9.57199
G01 X66.68153 Y9.42569
G01 X66.63883 Y9.28500
G01 X66.58110 Y9.17697
G01 X63.71087 Y9.17697
G01 X63.65314 Y9.28500
G01 X63.61046 Y9.42569
G01 X63.59604 Y9.57199
G01 X64.04600 Y9.57199
G01 X64.04600 Y11.17199
G01 X64.05176 Y11.23051
G01 X64.06883 Y11.28679
G01 X64.09657 Y11.33866
G01 X64.13386 Y11.38410
G01 X64.17932 Y11.42141
G01 X64.23119 Y11.44913
G01 X64.28745 Y11.46622
G01 X64.34600 Y11.47196
G01 X65.94599 Y11.47196
G01 X66.00452 Y11.46622
G01 X66.06078 Y11.44913
G01 X66.11264 Y11.42141
G01 X66.15811 Y11.38410
G01 X66.19542 Y11.33866
G01 X66.22313 Y11.28679
G01 X66.24020 Y11.23051
G01 X66.24597 Y11.17199
G01 X66.24597 Y9.57199
G01 X66.24020 Y9.51347
G01 X66.22313 Y9.45718
G01 X66.19542 Y9.40532
G01 X66.15811 Y9.35987
G01 X66.11264 Y9.32256
G01 X66.06078 Y9.29483
G01 X66.00452 Y9.27776
G01 X65.94599 Y9.27199
G01 X64.34600 Y9.27199
G01 X64.28745 Y9.27776
G01 X64.23119 Y9.29483
G01 X64.17932 Y9.32256
G01 X64.13386 Y9.35987
G01 X64.09657 Y9.40532
G01 X64.06883 Y9.45718
G01 X64.05176 Y9.51347
G01 X64.04600 Y9.57199
G01 X64.19599 Y9.57199
G01 X64.19888 Y9.54273
G01 X64.20742 Y9.51459
G01 X64.22126 Y9.48865
G01 X64.23993 Y9.46592
G01 X64.26266 Y9.44728
G01 X64.28859 Y9.43341
G01 X64.31671 Y9.42487
G01 X64.34600 Y9.42198
G01 X65.94599 Y9.42198
G01 X65.97526 Y9.42487
G01 X66.00340 Y9.43341
G01 X66.02933 Y9.44728
G01 X66.05206 Y9.46592
G01 X66.07071 Y9.48865
G01 X66.08458 Y9.51459
G01 X66.09311 Y9.54273
G01 X66.09598 Y9.57199
G01 X66.09598 Y11.17199
G01 X66.09311 Y11.20125
G01 X66.08458 Y11.22939
G01 X66.07071 Y11.25532
G01 X66.05206 Y11.27806
G01 X66.02933 Y11.29670
G01 X66.00340 Y11.31057
G01 X65.97526 Y11.31910
G01 X65.94599 Y11.32200
G01 X64.34600 Y11.32200
G01 X64.31671 Y11.31910
G01 X64.28859 Y11.31057
G01 X64.26266 Y11.29670
G01 X64.23993 Y11.27806
G01 X64.22126 Y11.25532
G01 X64.20742 Y11.22939
G01 X64.19888 Y11.20125
G01 X64.19599 Y11.17199
G01 X64.19599 Y9.57199
G04 P0 ( dwell for no time -- G64 should not smooth over this point )
G00 Z5.00000 ( retract )

G00 X67.09405 Y12.91196 ( rapid move to begin. )
G01 F200.00000
( Mill infeed pass 1/1 )
G01 Z-0.15000
G04 P0 ( dwell for no time -- G64 should not smooth over this point )
G01 F200.00000
G01 X67.09405 Y12.91196
G01 X67.09816 Y12.83360
G01 X67.11782 Y12.64648
G01 X67.13009 Y12.56894
G01 X67.15041 Y12.49312
G01 X67.20855 Y12.31417
G01 X67.23670 Y12.24089
G01 X67.27233 Y12.17094
G01 X67.36641 Y12.00800
G01 X67.40916 Y11.94217
G01 X67.45856 Y11.88118
G01 X67.58445 Y11.74135
G01 X67.63997 Y11.68585
G01 X67.70096 Y11.63645
G01 X67.85318 Y11.52586
G01 X67.91902 Y11.48309
G01 X67.98897 Y11.44745
G01 X68.16085 Y11.37092
G01 X68.23413 Y11.34280
G01 X68.30995 Y11.32248
G01 X68.49400 Y11.28337
G01 X68.57152 Y11.27110
G01 X68.64990 Y11.26698
G01 X68.83806 Y11.26698
G01 X68.91645 Y11.27110
G01 X68.99399 Y11.28337
G01 X69.17802 Y11.32248
G01 X69.25384 Y11.34280
G01 X69.32714 Y11.37092
G01 X69.49902 Y11.44745
G01 X69.56895 Y11.48309
G01 X69.63479 Y11.52586
G01 X69.78701 Y11.63645
G01 X69.84802 Y11.68585
G01 X69.90352 Y11.74135
G01 X70.02943 Y11.88118
G01 X70.07883 Y11.94217
G01 X70.12158 Y12.00800
G01 X70.21563 Y12.17094
G01 X70.25129 Y12.24089
G01 X70.27941 Y12.31417
G01 X70.33755 Y12.49312
G01 X70.35787 Y12.56894
G01 X70.37014 Y12.64648
G01 X70.38983 Y12.83360
G01 X70.39392 Y12.91196
G01 X70.38983 Y12.99037
G01 X70.37014 Y13.17749
G01 X70.35787 Y13.25504
G01 X70.33755 Y13.33086
G01 X70.27941 Y13.50980
G01 X70.25129 Y13.58308
G01 X70.21563 Y13.65301
G01 X70.12158 Y13.81597
G01 X70.07883 Y13.88179
G01 X70.02943 Y13.94280
G01 X69.90352 Y14.08262
G01 X69.84802 Y14.13812
G01 X69.72308 Y14.23398
G01 X69.44883 Y14.23398
G01 X69.49397 Y14.21100
G01 X69.54662 Y14.17678
G01 X69.69884 Y14.06619
G01 X69.74766 Y14.02667
G01 X69.79206 Y13.98227
G01 X69.95747 Y13.79365
G01 X70.08576 Y13.57803
G01 X70.11426 Y13.52207
G01 X70.19491 Y13.28450
G01 X70.21116 Y13.22385
G01 X70.22099 Y13.16182
G01 X70.24395 Y12.91196
G01 X70.22099 Y12.66215
G01 X70.21116 Y12.60013
G01 X70.13677 Y12.36053
G01 X70.11426 Y12.30191
G01 X70.08576 Y12.24595
G01 X69.95747 Y12.03033
G01 X69.79206 Y11.84171
G01 X69.74766 Y11.79731
G01 X69.69884 Y11.75779
G01 X69.49397 Y11.61298
G01 X69.26613 Y11.50795
G01 X69.20751 Y11.48545
G01 X69.14685 Y11.46919
G01 X68.96280 Y11.43008
G01 X68.90078 Y11.42025
G01 X68.83806 Y11.41697
G01 X68.64990 Y11.41697
G01 X68.58719 Y11.42025
G01 X68.52516 Y11.43008
G01 X68.28048 Y11.48545
G01 X68.04995 Y11.58448
G01 X67.99402 Y11.61298
G01 X67.94134 Y11.64720
G01 X67.74033 Y11.79731
G01 X67.57002 Y11.98154
G01 X67.53050 Y12.03033
G01 X67.49628 Y12.08301
G01 X67.37370 Y12.30191
G01 X67.35120 Y12.36053
G01 X67.27680 Y12.60013
G01 X67.24731 Y12.84928
G01 X67.24404 Y12.91196
G01 X67.24731 Y12.97470
G01 X67.27680 Y13.22385
G01 X67.35120 Y13.46345
G01 X67.37370 Y13.52207
G01 X67.49628 Y13.74097
G01 X67.53050 Y13.79365
G01 X67.57002 Y13.84244
G01 X67.74033 Y14.02667
G01 X67.94134 Y14.17678
G01 X67.99402 Y14.21100
G01 X68.03913 Y14.23398
G01 X68.49420 Y14.23398
G01 X68.32681 Y14.19588
G01 X68.11096 Y14.10249
G01 X68.02951 Y14.05545
G01 X67.87728 Y13.94485
G01 X67.80738 Y13.88191
G01 X67.65183 Y13.70548
G01 X67.53212 Y13.50305
G01 X67.49385 Y13.41709
G01 X67.42351 Y13.19263
G01 X67.39402 Y12.91196
G01 X67.42351 Y12.63132
G01 X67.49385 Y12.40688
G01 X67.53212 Y12.32093
G01 X67.65183 Y12.11849
G01 X67.84068 Y11.90876
G01 X68.06900 Y11.74288
G01 X68.32681 Y11.62809
G01 X68.60289 Y11.56942
G01 X68.88510 Y11.56942
G01 X69.16115 Y11.62809
G01 X69.37700 Y11.72149
G01 X69.45848 Y11.76853
G01 X69.64728 Y11.90876
G01 X69.80649 Y12.08189
G01 X69.86179 Y12.15799
G01 X69.97725 Y12.36292
G01 X70.05226 Y12.58583
G01 X70.07182 Y12.67783
G01 X70.09397 Y12.91196
G01 X70.06445 Y13.19263
G01 X69.99412 Y13.41709
G01 X69.95587 Y13.50305
G01 X69.86179 Y13.66599
G01 X69.80649 Y13.74209
G01 X69.64728 Y13.91521
G01 X69.41896 Y14.08110
G01 X69.16115 Y14.19588
G01 X68.99377 Y14.23398
G01 X69.44883 Y14.23398
G01 X67.76489 Y14.23398
G01 X67.63997 Y14.13812
G01 X67.58445 Y14.08262
G01 X67.45856 Y13.94280
G01 X67.40916 Y13.88179
G01 X67.36641 Y13.81597
G01 X67.27233 Y13.65301
G01 X67.23670 Y13.58308
G01 X67.20855 Y13.50980
G01 X67.15041 Y13.33086
G01 X67.13009 Y13.25504
G01 X67.11782 Y13.17749
G01 X67.09816 Y12.99037
G01 X67.09405 Y12.91196
G01 X67.54401 Y12.91196
G01 X67.56532 Y12.69350
G01 X67.57835 Y12.63216
G01 X67.64774 Y12.42390
G01 X67.77317 Y12.20666
G01 X67.91884 Y12.04242
G01 X67.96545 Y12.00046
G01 X68.14398 Y11.87277
G01 X68.37317 Y11.77074
G01 X68.61856 Y11.71857
G01 X68.83806 Y11.71694
G01 X68.90042 Y11.72350
G01 X69.08447 Y11.76261
G01 X69.14411 Y11.78199
G01 X69.34398 Y11.87277
G01 X69.52254 Y12.00046
G01 X69.56913 Y12.04242
G01 X69.71480 Y12.20666
G01 X69.82597 Y12.39594
G01 X69.85147 Y12.45321
G01 X69.90961 Y12.63216
G01 X69.92267 Y12.69350
G01 X69.94398 Y12.91196
G01 X69.92267 Y13.13045
G01 X69.90961 Y13.19182
G01 X69.84022 Y13.40007
G01 X69.71480 Y13.61732
G01 X69.54693 Y13.80376
G01 X69.37032 Y13.93411
G01 X69.31599 Y13.96545
G01 X69.14411 Y14.04198
G01 X69.08447 Y14.06136
G01 X68.86941 Y14.10541
G01 X68.64990 Y14.10703
G01 X68.58754 Y14.10048
G01 X68.37317 Y14.05324
G01 X68.14398 Y13.95120
G01 X67.96545 Y13.82352
G01 X67.91884 Y13.78156
G01 X67.77317 Y13.61732
G01 X67.66199 Y13.42804
G01 X67.63649 Y13.37076
G01 X67.57022 Y13.16144
G01 X67.54401 Y12.91196
G01 X67.69400 Y12.91196
G01 X67.71693 Y12.69368
G01 X67.77914 Y12.49957
G01 X67.79189 Y12.47092
G01 X67.89453 Y12.29482
G01 X68.03029 Y12.14277
G01 X68.05361 Y12.12179
G01 X68.21899 Y12.00267
G01 X68.40487 Y11.91900
G01 X68.43469 Y11.90932
G01 X68.63423 Y11.86774
G01 X68.83806 Y11.86691
G01 X68.86926 Y11.87021
G01 X69.06847 Y11.91339
G01 X69.25500 Y11.99553
G01 X69.28216 Y12.01120
G01 X69.44657 Y12.13167
G01 X69.58358 Y12.28260
G01 X69.60199 Y12.30798
G01 X69.69608 Y12.47092
G01 X69.70883 Y12.49957
G01 X69.77103 Y12.69368
G01 X69.79399 Y12.91196
G01 X69.77103 Y13.13030
G01 X69.70883 Y13.32441
G01 X69.69608 Y13.35306
G01 X69.59346 Y13.52916
G01 X69.45767 Y13.68118
G01 X69.43438 Y13.70218
G01 X69.26897 Y13.82131
G01 X69.06847 Y13.91059
G01 X68.86926 Y13.95377
G01 X68.83806 Y13.95705
G01 X68.63423 Y13.95623
G01 X68.43469 Y13.91465
G01 X68.40487 Y13.90498
G01 X68.21899 Y13.82131
G01 X68.05361 Y13.70218
G01 X68.03029 Y13.68118
G01 X67.89453 Y13.52916
G01 X67.79189 Y13.35306
G01 X67.77914 Y13.32441
G01 X67.71693 Y13.13030
G01 X67.69400 Y12.91196
G04 P0 ( dwell for no time -- G64 should not smooth over this point )
G00 Z5.00000 ( retract )

G00 X68.31096 Y22.58578 ( rapid move to begin. )
G01 F200.00000
( Mill infeed pass 1/1 )
G01 Z-0.15000
G04 P0 ( dwell for no time -- G64 should not smooth over this point )
G01 F200.00000
G01 X68.31096 Y22.58578
G01 X68.37266 Y22.53513
G01 X68.47639 Y22.47971
G01 X68.58894 Y22.44555
G01 X68.70598 Y22.43404
G01 X70.30598 Y22.43404
G01 X70.42302 Y22.44555
G01 X70.53557 Y22.47971
G01 X70.63930 Y22.53513
G01 X70.73021 Y22.60976
G01 X70.80484 Y22.70067
G01 X70.86029 Y22.80440
G01 X70.89442 Y22.91695
G01 X70.90595 Y23.03399
G01 X70.90595 Y24.63399
G01 X70.89442 Y24.75103
G01 X70.86029 Y24.86358
G01 X70.80484 Y24.96731
G01 X70.73021 Y25.05822
G01 X70.63930 Y25.13284
G01 X70.53557 Y25.18827
G01 X70.42302 Y25.22240
G01 X70.30598 Y25.23393
G01 X68.70598 Y25.23393
G01 X68.58894 Y25.22240
G01 X68.47639 Y25.18827
G01 X68.37266 Y25.13284
G01 X68.31096 Y25.08220
G01 X68.31096 Y22.39889
G01 X68.41899 Y22.34113
G01 X68.55968 Y22.29846
G01 X68.70598 Y22.28405
G01 X70.30598 Y22.28405
G01 X70.45228 Y22.29846
G01 X70.59298 Y22.34113
G01 X70.72264 Y22.41045
G01 X70.83628 Y22.50369
G01 X70.92955 Y22.61735
G01 X70.99884 Y22.74700
G01 X71.04151 Y22.88769
G01 X71.05592 Y23.03399
G01 X71.05592 Y24.63399
G01 X71.04151 Y24.78029
G01 X70.99884 Y24.92098
G01 X70.92955 Y25.05062
G01 X70.83628 Y25.16426
G01 X70.72264 Y25.25753
G01 X70.59298 Y25.32685
G01 X70.45228 Y25.36952
G01 X70.30598 Y25.38392
G01 X68.70598 Y25.38392
G01 X68.55968 Y25.36952
G01 X68.41899 Y25.32685
G01 X68.31096 Y25.26909
G01 X68.31096 Y24.84491
G01 X68.33184 Y24.88397
G01 X68.38780 Y24.95217
G01 X68.45600 Y25.00813
G01 X68.53380 Y25.04971
G01 X68.61820 Y25.07531
G01 X68.70598 Y25.08395
G01 X70.30598 Y25.08395
G01 X70.39376 Y25.07531
G01 X70.47819 Y25.04971
G01 X70.55597 Y25.00813
G01 X70.62417 Y24.95217
G01 X70.68012 Y24.88397
G01 X70.72170 Y24.80617
G01 X70.74731 Y24.72177
G01 X70.75597 Y24.63399
G01 X70.75597 Y23.03399
G01 X70.74731 Y22.94621
G01 X70.72170 Y22.86180
G01 X70.68012 Y22.78400
G01 X70.62417 Y22.71580
G01 X70.55597 Y22.65985
G01 X70.47819 Y22.61827
G01 X70.39376 Y22.59267
G01 X70.30598 Y22.58403
G01 X68.70598 Y22.58403
G01 X68.61820 Y22.59267
G01 X68.53380 Y22.61827
G01 X68.45600 Y22.65985
G01 X68.38780 Y22.71580
G01 X68.33184 Y22.78400
G01 X68.31096 Y22.82307
G01 X68.40601 Y23.03399
G01 X68.40601 Y24.63399
G01 X68.41178 Y24.69251
G01 X68.42884 Y24.74879
G01 X68.45656 Y24.80066
G01 X68.49387 Y24.84610
G01 X68.53933 Y24.88341
G01 X68.59118 Y24.91113
G01 X68.64746 Y24.92822
G01 X68.70598 Y24.93396
G01 X70.30598 Y24.93396
G01 X70.36450 Y24.92822
G01 X70.42079 Y24.91113
G01 X70.47266 Y24.88341
G01 X70.51810 Y24.84610
G01 X70.55541 Y24.80066
G01 X70.58315 Y24.74879
G01 X70.60021 Y24.69251
G01 X70.60598 Y24.63399
G01 X70.60598 Y23.03399
G01 X70.60021 Y22.97547
G01 X70.58315 Y22.91918
G01 X70.55541 Y22.86732
G01 X70.51810 Y22.82187
G01 X70.47266 Y22.78456
G01 X70.42079 Y22.75683
G01 X70.36450 Y22.73976
G01 X70.30598 Y22.73399
G01 X68.70598 Y22.73399
G01 X68.64746 Y22.73976
G01 X68.59118 Y22.75683
G01 X68.53933 Y22.78456
G01 X68.49387 Y22.82187
G01 X68.45656 Y22.86732
G01 X68.42884 Y22.91918
G01 X68.41178 Y22.97547
G01 X68.40601 Y23.03399
G01 X68.55600 Y23.03399
G01 X68.55887 Y23.00473
G01 X68.56740 Y22.97659
G01 X68.58127 Y22.95065
G01 X68.59991 Y22.92792
G01 X68.62265 Y22.90928
G01 X68.64858 Y22.89541
G01 X68.67672 Y22.88687
G01 X68.70598 Y22.88398
G01 X70.30598 Y22.88398
G01 X70.33524 Y22.88687
G01 X70.36338 Y22.89541
G01 X70.38932 Y22.90928
G01 X70.41205 Y22.92792
G01 X70.43072 Y22.95065
G01 X70.44456 Y22.97659
G01 X70.45310 Y23.00473
G01 X70.45599 Y23.03399
G01 X70.45599 Y24.63399
G01 X70.45310 Y24.66325
G01 X70.44456 Y24.69139
G01 X70.43072 Y24.71732
G01 X70.41205 Y24.74006
G01 X70.38932 Y24.75870
G01 X70.36338 Y24.77257
G01 X70.33524 Y24.78110
G01 X70.30598 Y24.78400
G01 X68.70598 Y24.78400
G01 X68.67672 Y24.78110
G01 X68.64858 Y24.77257
G01 X68.62265 Y24.75870
G01 X68.59991 Y24.74006
G01 X68.58127 Y24.71732
G01 X68.56740 Y24.69139
G01 X68.55887 Y24.66325
G01 X68.55600 Y24.63399
G01 X68.55600 Y23.03399
G01 X68.40601 Y23.03399
G01 X68.31096 Y22.82307
G01 X68.31096 Y22.58578
G01 X63.23096 Y22.58578
G01 X63.23096 Y24.84491
G01 X63.25184 Y24.88397
G01 X63.30780 Y24.95217
G01 X63.37600 Y25.00813
G01 X63.45380 Y25.04971
G01 X63.53820 Y25.07531
G01 X63.62598 Y25.08395
G01 X65.22598 Y25.08395
G01 X65.31376 Y25.07531
G01 X65.39819 Y25.04971
G01 X65.47597 Y25.00813
G01 X65.54417 Y24.95217
G01 X65.60012 Y24.88397
G01 X65.62098 Y24.84496
G01 X65.62098 Y25.08222
G01 X65.55930 Y25.13284
G01 X65.45557 Y25.18827
G01 X65.34302 Y25.22240
G01 X65.22598 Y25.23393
G01 X63.62598 Y25.23393
G01 X63.50894 Y25.22240
G01 X63.39639 Y25.18827
G01 X63.29266 Y25.13284
G01 X63.23096 Y25.08220
G01 X63.23096 Y24.84491
G01 X63.23096 Y25.26909
G01 X63.33899 Y25.32685
G01 X63.47968 Y25.36952
G01 X63.62598 Y25.38392
G01 X65.22598 Y25.38392
G01 X65.37228 Y25.36952
G01 X65.51298 Y25.32685
G01 X65.62098 Y25.26911
G01 X65.62098 Y22.42241
G01 X65.44932 Y22.38182
G01 X65.22301 Y22.36396
G01 X63.62972 Y22.36396
G01 X63.35555 Y22.39152
G01 X63.23096 Y22.48840
G01 X63.23096 Y22.58578
G01 X63.29266 Y22.53513
G01 X63.39639 Y22.47971
G01 X63.50894 Y22.44555
G01 X63.62598 Y22.43404
G01 X65.22598 Y22.43404
G01 X65.34302 Y22.44555
G01 X65.45557 Y22.47971
G01 X65.55930 Y22.53513
G01 X65.62098 Y22.58578
G01 X65.77096 Y22.58578
G01 X65.77096 Y22.42241
G01 X65.94262 Y22.38182
G01 X66.16893 Y22.36396
G01 X68.00286 Y22.36323
G01 X68.09979 Y22.36615
G01 X68.16098 Y22.39886
G01 X68.16098 Y24.84496
G01 X68.14012 Y24.88397
G01 X68.08417 Y24.95217
G01 X68.01597 Y25.00813
G01 X67.93819 Y25.04971
G01 X67.85376 Y25.07531
G01 X67.76598 Y25.08395
G01 X66.16598 Y25.08395
G01 X66.07820 Y25.07531
G01 X65.99380 Y25.04971
G01 X65.91600 Y25.00813
G01 X65.84780 Y24.95217
G01 X65.79184 Y24.88397
G01 X65.77096 Y24.84491
G01 X65.77096 Y25.08220
G01 X65.83266 Y25.13284
G01 X65.93639 Y25.18827
G01 X66.04894 Y25.22240
G01 X66.16598 Y25.23393
G01 X67.76598 Y25.23393
G01 X67.88302 Y25.22240
G01 X67.99557 Y25.18827
G01 X68.09930 Y25.13284
G01 X68.16098 Y25.08222
G01 X68.16098 Y24.84496
G01 X68.16098 Y25.26911
G01 X68.05298 Y25.32685
G01 X67.91228 Y25.36952
G01 X67.76598 Y25.38392
G01 X66.16598 Y25.38392
G01 X66.01968 Y25.36952
G01 X65.87899 Y25.32685
G01 X65.77096 Y25.26909
G01 X65.77096 Y22.58578
G01 X65.83266 Y22.53513
G01 X65.93639 Y22.47971
G01 X66.04894 Y22.44555
G01 X66.16598 Y22.43404
G01 X67.76598 Y22.43404
G01 X67.88302 Y22.44555
G01 X67.99557 Y22.47971
G01 X68.09930 Y22.53513
G01 X68.16098 Y22.58576
G01 X68.16098 Y22.82302
G01 X68.14012 Y22.78400
G01 X68.08417 Y22.71580
G01 X68.01597 Y22.65985
G01 X67.93819 Y22.61827
G01 X67.85376 Y22.59267
G01 X67.76598 Y22.58403
G01 X66.16598 Y22.58403
G01 X66.07820 Y22.59267
G01 X65.99380 Y22.61827
G01 X65.91600 Y22.65985
G01 X65.84780 Y22.71580
G01 X65.79184 Y22.78400
G01 X65.77096 Y22.82307
G01 X65.86601 Y23.03399
G01 X65.86601 Y24.63399
G01 X65.87178 Y24.69251
G01 X65.88884 Y24.74879
G01 X65.91656 Y24.80066
G01 X65.95387 Y24.84610
G01 X65.99933 Y24.88341
G01 X66.05118 Y24.91113
G01 X66.10746 Y24.92822
G01 X66.16598 Y24.93396
G01 X67.76598 Y24.93396
G01 X67.82450 Y24.92822
G01 X67.88079 Y24.91113
G01 X67.93266 Y24.88341
G01 X67.97810 Y24.84610
G01 X68.01541 Y24.80066
G01 X68.04315 Y24.74879
G01 X68.06021 Y24.69251
G01 X68.06598 Y24.63399
G01 X68.06598 Y23.03399
G01 X68.06021 Y22.97547
G01 X68.04315 Y22.91918
G01 X68.01541 Y22.86732
G01 X67.97810 Y22.82187
G01 X67.93266 Y22.78456
G01 X67.88079 Y22.75683
G01 X67.82450 Y22.73976
G01 X67.76598 Y22.73399
G01 X66.16598 Y22.73399
G01 X66.10746 Y22.73976
G01 X66.05118 Y22.75683
G01 X65.99933 Y22.78456
G01 X65.95387 Y22.82187
G01 X65.91656 Y22.86732
G01 X65.88884 Y22.91918
G01 X65.87178 Y22.97547
G01 X65.86601 Y23.03399
G01 X66.01600 Y23.03399
G01 X66.01887 Y23.00473
G01 X66.02740 Y22.97659
G01 X66.04127 Y22.95065
G01 X66.05991 Y22.92792
G01 X66.08265 Y22.90928
G01 X66.10858 Y22.89541
G01 X66.13672 Y22.88687
G01 X66.16598 Y22.88398
G01 X67.76598 Y22.88398
G01 X67.79524 Y22.88687
G01 X67.82338 Y22.89541
G01 X67.84932 Y22.90928
G01 X67.87205 Y22.92792
G01 X67.89072 Y22.95065
G01 X67.90456 Y22.97659
G01 X67.91310 Y23.00473
G01 X67.91599 Y23.03399
G01 X67.91599 Y24.63399
G01 X67.91310 Y24.66325
G01 X67.90456 Y24.69139
G01 X67.89072 Y24.71732
G01 X67.87205 Y24.74006
G01 X67.84932 Y24.75870
G01 X67.82338 Y24.77257
G01 X67.79524 Y24.78110
G01 X67.76598 Y24.78400
G01 X66.16598 Y24.78400
G01 X66.13672 Y24.78110
G01 X66.10858 Y24.77257
G01 X66.08265 Y24.75870
G01 X66.05991 Y24.74006
G01 X66.04127 Y24.71732
G01 X66.02740 Y24.69139
G01 X66.01887 Y24.66325
G01 X66.01600 Y24.63399
G01 X66.01600 Y23.03399
G01 X65.86601 Y23.03399
G01 X65.77096 Y22.82307
G01 X65.77096 Y22.58578
G01 X65.62098 Y22.58578
G01 X65.62098 Y22.82302
G01 X65.60012 Y22.78400
G01 X65.54417 Y22.71580
G01 X65.47597 Y22.65985
G01 X65.39819 Y22.61827
G01 X65.31376 Y22.59267
G01 X65.22598 Y22.58403
G01 X63.62598 Y22.58403
G01 X63.53820 Y22.59267
G01 X63.45380 Y22.61827
G01 X63.37600 Y22.65985
G01 X63.30780 Y22.71580
G01 X63.25184 Y22.78400
G01 X63.23096 Y22.82307
G01 X63.32601 Y23.03399
G01 X63.32601 Y24.63399
G01 X63.33178 Y24.69251
G01 X63.34884 Y24.74879
G01 X63.37656 Y24.80066
G01 X63.41387 Y24.84610
G01 X63.45933 Y24.88341
G01 X63.51118 Y24.91113
G01 X63.56746 Y24.92822
G01 X63.62598 Y24.93396
G01 X65.22598 Y24.93396
G01 X65.28450 Y24.92822
G01 X65.34079 Y24.91113
G01 X65.39266 Y24.88341
G01 X65.43810 Y24.84610
G01 X65.47541 Y24.80066
G01 X65.50315 Y24.74879
G01 X65.52021 Y24.69251
G01 X65.52598 Y24.63399
G01 X65.52598 Y23.03399
G01 X65.52021 Y22.97547
G01 X65.50315 Y22.91918
G01 X65.47541 Y22.86732
G01 X65.43810 Y22.82187
G01 X65.39266 Y22.78456
G01 X65.34079 Y22.75683
G01 X65.28450 Y22.73976
G01 X65.22598 Y22.73399
G01 X63.62598 Y22.73399
G01 X63.56746 Y22.73976
G01 X63.51118 Y22.75683
G01 X63.45933 Y22.78456
G01 X63.41387 Y22.82187
G01 X63.37656 Y22.86732
G01 X63.34884 Y22.91918
G01 X63.33178 Y22.97547
G01 X63.32601 Y23.03399
G01 X63.47600 Y23.03399
G01 X63.47887 Y23.00473
G01 X63.48740 Y22.97659
G01 X63.50127 Y22.95065
G01 X63.51991 Y22.92792
G01 X63.54265 Y22.90928
G01 X63.56858 Y22.89541
G01 X63.59672 Y22.88687
G01 X63.62598 Y22.88398
G01 X65.22598 Y22.88398
G01 X65.25524 Y22.88687
G01 X65.28338 Y22.89541
G01 X65.30932 Y22.90928
G01 X65.33205 Y22.92792
G01 X65.35072 Y22.95065
G01 X65.36456 Y22.97659
G01 X65.37310 Y23.00473
G01 X65.37599 Y23.03399
G01 X65.37599 Y24.63399
G01 X65.37310 Y24.66325
G01 X65.36456 Y24.69139
G01 X65.35072 Y24.71732
G01 X65.33205 Y24.74006
G01 X65.30932 Y24.75870
G01 X65.28338 Y24.77257
G01 X65.25524 Y24.78110
G01 X65.22598 Y24.78400
G01 X63.62598 Y24.78400
G01 X63.59672 Y24.78110
G01 X63.56858 Y24.77257
G01 X63.54265 Y24.75870
G01 X63.51991 Y24.74006
G01 X63.50127 Y24.71732
G01 X63.48740 Y24.69139
G01 X63.47887 Y24.66325
G01 X63.47600 Y24.63399
G01 X63.47600 Y23.03399
G04 P0 ( dwell for no time -- G64 should not smooth over this point )
G00 Z5.00000 ( retract )

G00 X60.93600 Y23.03399 ( rapid move to begin. )
G01 F200.00000
( Mill infeed pass 1/1 )
G01 Z-0.15000
G04 P0 ( dwell for no time -- G64 should not smooth over this point )
G01 F200.00000
G01 X60.93600 Y23.03399
G01 X60.93600 Y24.63399
G01 X60.93887 Y24.66325
G01 X60.94740 Y24.69139
G01 X60.96127 Y24.71732
G01 X60.97991 Y24.74006
G01 X61.00265 Y24.75870
G01 X61.02858 Y24.77257
G01 X61.05672 Y24.78110
G01 X61.08598 Y24.78400
G01 X62.68598 Y24.78400
G01 X62.71524 Y24.78110
G01 X62.74338 Y24.77257
G01 X62.76932 Y24.75870
G01 X62.79205 Y24.74006
G01 X62.81072 Y24.71732
G01 X62.82456 Y24.69139
G01 X62.83310 Y24.66325
G01 X62.83599 Y24.63399
G01 X62.83599 Y23.03399
G01 X62.83310 Y23.00473
G01 X62.82456 Y22.97659
G01 X62.81072 Y22.95065
G01 X62.79205 Y22.92792
G01 X62.76932 Y22.90928
G01 X62.74338 Y22.89541
G01 X62.71524 Y22.88687
G01 X62.68598 Y22.88398
G01 X62.28598 Y22.88398
G01 X62.28598 Y22.47567
G01 X63.06767 Y21.69399
G01 X67.72798 Y21.69399
G01 X67.80601 Y21.68629
G01 X67.89435 Y21.65723
G01 X67.95021 Y21.62658
G01 X68.01081 Y21.57682
G01 X69.03669 Y20.54992
G01 X69.08411 Y20.48759
G01 X69.11353 Y20.43105
G01 X69.13629 Y20.35602
G01 X69.14398 Y20.27799
G01 X69.14398 Y16.67187
G01 X69.26897 Y16.61531
G01 X69.43438 Y16.49618
G01 X69.45767 Y16.47518
G01 X69.59346 Y16.32316
G01 X69.70321 Y16.13306
G01 X69.76697 Y15.93947
G01 X69.77350 Y15.90878
G01 X69.79315 Y15.72166
G01 X69.79315 Y15.69032
G01 X69.77103 Y15.48768
G01 X69.70321 Y15.27891
G01 X69.59346 Y15.08882
G01 X69.44657 Y14.92567
G01 X69.26897 Y14.79667
G01 X69.06847 Y14.70739
G01 X68.85374 Y14.66174
G01 X68.63423 Y14.66174
G01 X68.41952 Y14.70739
G01 X68.23299 Y14.78953
G01 X68.20581 Y14.80520
G01 X68.05361 Y14.91579
G01 X68.03029 Y14.93677
G01 X67.89453 Y15.08882
G01 X67.78478 Y15.27891
G01 X67.71693 Y15.48768
G01 X67.69481 Y15.69032
G01 X67.69481 Y15.72166
G01 X67.71447 Y15.90878
G01 X67.72100 Y15.93947
G01 X67.78478 Y16.13306
G01 X67.89453 Y16.32316
G01 X68.03029 Y16.47518
G01 X68.05361 Y16.49618
G01 X68.21899 Y16.61531
G01 X68.34396 Y16.67185
G01 X68.34396 Y20.11228
G01 X67.56227 Y20.89396
G01 X62.90198 Y20.89396
G01 X62.82393 Y20.90166
G01 X62.76277 Y20.91947
G01 X62.67973 Y20.96138
G01 X62.61913 Y21.01113
G01 X61.60313 Y22.02713
G01 X61.54583 Y22.10036
G01 X61.51146 Y22.17077
G01 X61.49365 Y22.23193
G01 X61.48669 Y22.29528
G01 X61.48596 Y22.88398
G01 X61.08598 Y22.88398
G01 X61.05672 Y22.88687
G01 X61.02858 Y22.89541
G01 X61.00265 Y22.90928
G01 X60.97991 Y22.92792
G01 X60.96127 Y22.95065
G01 X60.94740 Y22.97659
G01 X60.93887 Y23.00473
G01 X60.93600 Y23.03399
G01 X60.78601 Y23.03399
G01 X60.79178 Y22.97547
G01 X60.80884 Y22.91918
G01 X60.83656 Y22.86732
G01 X60.87387 Y22.82187
G01 X60.91933 Y22.78456
G01 X60.97118 Y22.75683
G01 X61.02746 Y22.73976
G01 X61.08598 Y22.73399
G01 X61.33600 Y22.73399
G01 X61.37872 Y22.77727
G01 X61.33600 Y22.73399
G01 X61.33742 Y22.28058
G01 X61.34656 Y22.20267
G01 X61.37786 Y22.09950
G01 X61.41354 Y22.02967
G01 X61.44621 Y21.98078
G01 X61.49708 Y21.92109
G01 X62.51308 Y20.90509
G01 X62.59642 Y20.83669
G01 X62.66490 Y20.79843
G01 X62.71923 Y20.77593
G01 X62.79467 Y20.75457
G01 X62.90198 Y20.74400
G01 X67.50017 Y20.74400
G01 X67.50489 Y20.75541
G01 X67.50017 Y20.74400
G01 X68.19400 Y20.05018
G01 X68.20540 Y20.05490
G01 X68.19400 Y20.05018
G01 X68.19400 Y16.76926
G01 X68.21518 Y16.75661
G01 X68.19400 Y16.76926
G01 X68.14398 Y16.74520
G01 X67.96545 Y16.61752
G01 X67.91884 Y16.57556
G01 X67.79293 Y16.43573
G01 X67.75607 Y16.38498
G01 X67.64774 Y16.19407
G01 X67.57835 Y15.98582
G01 X67.56532 Y15.92445
G01 X67.54564 Y15.73733
G01 X67.54564 Y15.67462
G01 X67.57022 Y15.45648
G01 X67.64774 Y15.21790
G01 X67.77317 Y15.00066
G01 X67.91884 Y14.83642
G01 X67.96545 Y14.79446
G01 X68.11767 Y14.68387
G01 X68.17197 Y14.65252
G01 X68.37317 Y14.56474
G01 X68.61856 Y14.51257
G01 X68.86941 Y14.51257
G01 X69.11480 Y14.56474
G01 X69.34398 Y14.66677
G01 X69.54693 Y14.81422
G01 X69.71480 Y15.00066
G01 X69.84022 Y15.21790
G01 X69.91774 Y15.45648
G01 X69.94233 Y15.67462
G01 X69.94233 Y15.73733
G01 X69.92267 Y15.92445
G01 X69.90961 Y15.98582
G01 X69.84022 Y16.19407
G01 X69.73189 Y16.38498
G01 X69.69503 Y16.43573
G01 X69.54693 Y16.59776
G01 X69.34398 Y16.74520
G01 X69.29394 Y16.76928
G01 X69.27649 Y16.76001
G01 X69.29394 Y16.76928
G01 X69.29394 Y20.27799
G01 X69.28338 Y20.38528
G01 X69.26202 Y20.46072
G01 X69.23951 Y20.51505
G01 X69.21640 Y20.55828
G01 X69.18373 Y20.60717
G01 X69.13286 Y20.66686
G01 X68.11686 Y21.68286
G01 X68.05717 Y21.73374
G01 X68.00827 Y21.76640
G01 X67.96504 Y21.78952
G01 X67.91071 Y21.81202
G01 X67.86382 Y21.82625
G01 X67.80614 Y21.83770
G01 X67.72798 Y21.84395
G01 X63.12977 Y21.84395
G01 X63.12505 Y21.83254
G01 X63.12977 Y21.84395
G01 X62.43594 Y22.53778
G01 X62.42454 Y22.53305
G01 X62.43594 Y22.53778
G01 X62.43594 Y22.64788
G01 X62.60183 Y22.58403
G01 X63.19190 Y21.99394
G01 X63.18717 Y21.98253
G01 X63.19190 Y21.99394
G01 X67.72798 Y21.99394
G01 X67.82084 Y21.98698
G01 X67.90736 Y21.96976
G01 X67.95427 Y21.95553
G01 X68.03575 Y21.92177
G01 X68.07898 Y21.89869
G01 X68.11686 Y21.87598
G01 X68.19021 Y21.81857
G01 X69.23893 Y20.77293
G01 X69.29966 Y20.70232
G01 X69.34868 Y20.62899
G01 X69.39067 Y20.54583
G01 X69.43049 Y20.41454
G01 X69.44393 Y20.27799
G01 X69.44393 Y16.85887
G01 X69.42859 Y16.85135
G01 X69.44393 Y16.85887
G01 X69.45848 Y16.84945
G01 X69.64728 Y16.70921
G01 X69.80649 Y16.53609
G01 X69.86179 Y16.45999
G01 X69.97725 Y16.25506
G01 X70.05226 Y16.03215
G01 X70.07182 Y15.94015
G01 X70.09397 Y15.70599
G01 X70.06445 Y15.42532
G01 X69.99412 Y15.20088
G01 X69.95587 Y15.11493
G01 X69.86179 Y14.95199
G01 X69.80649 Y14.87589
G01 X69.64728 Y14.70276
G01 X69.41896 Y14.53688
G01 X69.16115 Y14.42209
G01 X68.99366 Y14.38397
G01 X69.44878 Y14.38397
G01 X69.49397 Y14.40698
G01 X69.54662 Y14.44120
G01 X69.74766 Y14.59131
G01 X69.91794 Y14.77554
G01 X69.95747 Y14.82433
G01 X69.99168 Y14.87701
G01 X70.11426 Y15.09591
G01 X70.19491 Y15.33347
G01 X70.21116 Y15.39413
G01 X70.22099 Y15.45615
G01 X70.24395 Y15.70599
G01 X70.22099 Y15.95582
G01 X70.21116 Y16.01785
G01 X70.13677 Y16.25745
G01 X70.11426 Y16.31607
G01 X70.08576 Y16.37203
G01 X69.95747 Y16.58765
G01 X69.79206 Y16.77627
G01 X69.74766 Y16.82067
G01 X69.69884 Y16.86019
G01 X69.59392 Y16.93642
G01 X69.57814 Y16.92857
G01 X69.59392 Y16.93642
G01 X69.59392 Y20.27799
G01 X69.59105 Y20.33679
G01 X69.57758 Y20.44380
G01 X69.54906 Y20.54781
G01 X69.52922 Y20.60324
G01 X69.50405 Y20.65647
G01 X69.48094 Y20.69968
G01 X69.41561 Y20.79747
G01 X69.38452 Y20.83537
G01 X69.34497 Y20.87898
G01 X68.32897 Y21.89498
G01 X68.28536 Y21.93453
G01 X68.20017 Y22.00069
G01 X68.10647 Y22.05406
G01 X67.99781 Y22.09907
G01 X67.89379 Y22.12759
G01 X67.78678 Y22.14105
G01 X67.72798 Y22.14392
G01 X63.25403 Y22.14392
G01 X63.24930 Y22.13252
G01 X63.25403 Y22.14392
G01 X62.91732 Y22.48063
G01 X62.82875 Y22.49018
G01 X62.91732 Y22.48063
G01 X63.01931 Y22.53513
G01 X63.08098 Y22.58576
G01 X63.08098 Y22.82302
G01 X63.06012 Y22.78400
G01 X63.00417 Y22.71580
G01 X62.93597 Y22.65985
G01 X62.85819 Y22.61827
G01 X62.77376 Y22.59267
G01 X62.68598 Y22.58403
G01 X62.60183 Y22.58403
G01 X62.43594 Y22.64788
G01 X62.43594 Y22.73399
G01 X62.39203 Y22.77793
G01 X62.43594 Y22.73399
G01 X62.68598 Y22.73399
G01 X62.74450 Y22.73976
G01 X62.80079 Y22.75683
G01 X62.85266 Y22.78456
G01 X62.89810 Y22.82187
G01 X62.93541 Y22.86732
G01 X62.96315 Y22.91918
G01 X62.98021 Y22.97547
G01 X62.98598 Y23.03399
G01 X62.98598 Y24.63399
G01 X62.98021 Y24.69251
G01 X62.96315 Y24.74879
G01 X62.93541 Y24.80066
G01 X62.89810 Y24.84610
G01 X62.85266 Y24.88341
G01 X62.80079 Y24.91113
G01 X62.74450 Y24.92822
G01 X62.68598 Y24.93396
G01 X61.08598 Y24.93396
G01 X61.02746 Y24.92822
G01 X60.97118 Y24.91113
G01 X60.91933 Y24.88341
G01 X60.87387 Y24.84610
G01 X60.83656 Y24.80066
G01 X60.80884 Y24.74879
G01 X60.79178 Y24.69251
G01 X60.78601 Y24.63399
G01 X60.78601 Y23.03399
G01 X60.69096 Y22.82307
G01 X60.71184 Y22.78400
G01 X60.76780 Y22.71580
G01 X60.83600 Y22.65985
G01 X60.91380 Y22.61827
G01 X60.99820 Y22.59267
G01 X61.08598 Y22.58403
G01 X61.18601 Y22.58403
G01 X61.22462 Y22.62213
G01 X61.18601 Y22.58403
G01 X61.18601 Y22.30999
G01 X61.19297 Y22.21710
G01 X61.21019 Y22.13059
G01 X61.23927 Y22.04212
G01 X61.28126 Y21.95896
G01 X61.33028 Y21.88563
G01 X61.39101 Y21.81502
G01 X62.40701 Y20.79902
G01 X62.51308 Y20.71197
G01 X62.59419 Y20.66618
G01 X62.67567 Y20.63242
G01 X62.76541 Y20.60745
G01 X62.90198 Y20.59402
G01 X67.43804 Y20.59402
G01 X67.44277 Y20.60542
G01 X67.43804 Y20.59402
G01 X68.04401 Y19.98805
G01 X68.05541 Y19.99277
G01 X68.04401 Y19.98805
G01 X68.04401 Y16.85887
G01 X68.06014 Y16.85069
G01 X68.04401 Y16.85887
G01 X68.02951 Y16.84945
G01 X67.87728 Y16.73885
G01 X67.80738 Y16.67591
G01 X67.65183 Y16.49948
G01 X67.53212 Y16.29705
G01 X67.49385 Y16.21109
G01 X67.42351 Y15.98666
G01 X67.39649 Y15.75303
G01 X67.39649 Y15.65895
G01 X67.42351 Y15.42532
G01 X67.49385 Y15.20088
G01 X67.53212 Y15.11493
G01 X67.62618 Y14.95199
G01 X67.68147 Y14.87589
G01 X67.84068 Y14.70276
G01 X68.06900 Y14.53688
G01 X68.32681 Y14.42209
G01 X68.49433 Y14.38397
G01 X68.03918 Y14.38397
G01 X67.99402 Y14.40698
G01 X67.94134 Y14.44120
G01 X67.74033 Y14.59131
G01 X67.69593 Y14.63571
G01 X67.53050 Y14.82433
G01 X67.40223 Y15.03995
G01 X67.37370 Y15.09591
G01 X67.35120 Y15.15453
G01 X67.29306 Y15.33347
G01 X67.27680 Y15.39413
G01 X67.26700 Y15.45615
G01 X67.24404 Y15.70599
G01 X67.26700 Y15.95582
G01 X67.27680 Y16.01785
G01 X67.29306 Y16.07850
G01 X67.37370 Y16.31607
G01 X67.49628 Y16.53497
G01 X67.53050 Y16.58765
G01 X67.57002 Y16.63644
G01 X67.74033 Y16.82067
G01 X67.89402 Y16.93639
G01 X67.90980 Y16.92854
G01 X67.89402 Y16.93639
G01 X67.89402 Y19.92592
G01 X67.90543 Y19.93064
G01 X67.89402 Y19.92592
G01 X67.37591 Y20.44403
G01 X67.38064 Y20.45543
G01 X67.37591 Y20.44403
G01 X62.90198 Y20.44403
G01 X62.84316 Y20.44690
G01 X62.73615 Y20.46036
G01 X62.63213 Y20.48888
G01 X62.52347 Y20.53389
G01 X62.42977 Y20.58726
G01 X62.34458 Y20.65343
G01 X62.30097 Y20.69297
G01 X61.28497 Y21.70897
G01 X61.21433 Y21.79048
G01 X61.14900 Y21.88827
G01 X61.10072 Y21.98472
G01 X61.08088 Y22.04014
G01 X61.05235 Y22.14415
G01 X61.03889 Y22.25116
G01 X61.03602 Y22.43894
G01 X61.06770 Y22.46465
G01 X61.03602 Y22.43894
G01 X60.96894 Y22.44555
G01 X60.85639 Y22.47971
G01 X60.75266 Y22.53513
G01 X60.69096 Y22.58578
G01 X60.69096 Y22.39889
G01 X60.79899 Y22.34113
G01 X60.88604 Y22.31474
G01 X60.90966 Y22.33407
G01 X60.88604 Y22.31474
G01 X60.88964 Y22.23648
G01 X60.90524 Y22.11489
G01 X60.93734 Y21.99660
G01 X60.96213 Y21.92731
G01 X61.01672 Y21.81756
G01 X61.09838 Y21.69533
G01 X61.12949 Y21.65744
G01 X61.17890 Y21.60290
G01 X62.19490 Y20.58690
G01 X62.24943 Y20.53750
G01 X62.34643 Y20.46254
G01 X62.40955 Y20.42472
G01 X62.45278 Y20.40161
G01 X62.58860 Y20.34535
G01 X62.70688 Y20.31324
G01 X62.77968 Y20.30245
G01 X62.90198 Y20.29404
G01 X67.31378 Y20.29404
G01 X67.31851 Y20.30545
G01 X67.31378 Y20.29404
G01 X67.74404 Y19.86379
G01 X67.75544 Y19.86851
G01 X67.74404 Y19.86379
G01 X67.74404 Y17.01282
G01 X67.75783 Y17.00647
G01 X67.74404 Y17.01282
G01 X67.63997 Y16.93212
G01 X67.58445 Y16.87662
G01 X67.45856 Y16.73680
G01 X67.40916 Y16.67579
G01 X67.36641 Y16.60997
G01 X67.27233 Y16.44701
G01 X67.23670 Y16.37708
G01 X67.20855 Y16.30380
G01 X67.15041 Y16.12486
G01 X67.13009 Y16.04904
G01 X67.11782 Y15.97149
G01 X67.09816 Y15.78437
G01 X67.09405 Y15.70599
G01 X67.09816 Y15.62760
G01 X67.11782 Y15.44048
G01 X67.13009 Y15.36294
G01 X67.15041 Y15.28712
G01 X67.20855 Y15.10817
G01 X67.23670 Y15.03490
G01 X67.27233 Y14.96494
G01 X67.36641 Y14.80200
G01 X67.40916 Y14.73617
G01 X67.45856 Y14.67518
G01 X67.58445 Y14.53535
G01 X67.63997 Y14.47985
G01 X67.76494 Y14.38397
G01 X69.72305 Y14.38397
G01 X69.84802 Y14.47985
G01 X69.90352 Y14.53535
G01 X70.02943 Y14.67518
G01 X70.07883 Y14.73617
G01 X70.12158 Y14.80200
G01 X70.21563 Y14.96494
G01 X70.25129 Y15.03490
G01 X70.27941 Y15.10817
G01 X70.33755 Y15.28712
G01 X70.35787 Y15.36294
G01 X70.37014 Y15.44048
G01 X70.38983 Y15.62760
G01 X70.39392 Y15.70599
G01 X70.38983 Y15.78437
G01 X70.37014 Y15.97149
G01 X70.35787 Y16.04904
G01 X70.33755 Y16.12486
G01 X70.27941 Y16.30380
G01 X70.25129 Y16.37708
G01 X70.21563 Y16.44701
G01 X70.12158 Y16.60997
G01 X70.07883 Y16.67579
G01 X70.02943 Y16.73680
G01 X69.90352 Y16.87662
G01 X69.84802 Y16.93212
G01 X69.74390 Y17.01284
G01 X69.73016 Y17.00649
G01 X69.74390 Y17.01284
G01 X69.74390 Y20.27799
G01 X69.73550 Y20.40026
G01 X69.72470 Y20.47306
G01 X69.69260 Y20.59135
G01 X69.66781 Y20.66064
G01 X69.63634 Y20.72716
G01 X69.61322 Y20.77039
G01 X69.53156 Y20.89262
G01 X69.50045 Y20.93051
G01 X69.45104 Y20.98505
G01 X68.43504 Y22.00105
G01 X68.38051 Y22.05045
G01 X68.28351 Y22.12541
G01 X68.17716 Y22.18634
G01 X68.10492 Y22.21626
G01 X67.85092 Y22.21215
G01 X66.16596 Y22.21385
G01 X65.92501 Y22.23232
G01 X65.69598 Y22.28604
G01 X65.46693 Y22.23232
G01 X65.22598 Y22.21398
G01 X63.62596 Y22.21372
G01 X63.31905 Y22.24443
G01 X63.29233 Y22.25233
G01 X63.29015 Y22.24700
G01 X63.29233 Y22.25233
G01 X63.09998 Y22.40183
G01 X63.09533 Y22.39841
G01 X63.09998 Y22.40183
G01 X63.08588 Y22.42502
G01 X63.07851 Y22.45126
G01 X63.08098 Y25.26911
G01 X62.97298 Y25.32685
G01 X62.83228 Y25.36952
G01 X62.68598 Y25.38392
G01 X61.08598 Y25.38392
G01 X60.93968 Y25.36952
G01 X60.79899 Y25.32685
G01 X60.69096 Y25.26909
G01 X60.69096 Y24.84491
G01 X60.69096 Y25.08220
G01 X60.75266 Y25.13284
G01 X60.85639 Y25.18827
G01 X60.96894 Y25.22240
G01 X61.08598 Y25.23393
G01 X62.68598 Y25.23393
G01 X62.80302 Y25.22240
G01 X62.91557 Y25.18827
G01 X63.01931 Y25.13284
G01 X63.08098 Y25.08222
G01 X63.08098 Y24.84496
G01 X63.06012 Y24.88397
G01 X63.00417 Y24.95217
G01 X62.93597 Y25.00813
G01 X62.85819 Y25.04971
G01 X62.77376 Y25.07531
G01 X62.68598 Y25.08395
G01 X61.08598 Y25.08395
G01 X60.99820 Y25.07531
G01 X60.91380 Y25.04971
G01 X60.83600 Y25.00813
G01 X60.76780 Y24.95217
G01 X60.71184 Y24.88397
G01 X60.69096 Y24.84491
G01 X60.69096 Y22.58578
G04 P0 ( dwell for no time -- G64 should not smooth over this point )
G00 Z5.00000 ( retract )

G00 X50.53096 Y24.84491 ( rapid move to begin. )
G01 F200.00000
( Mill infeed pass 1/1 )
G01 Z-0.15000
G04 P0 ( dwell for no time -- G64 should not smooth over this point )
G01 F200.00000
G01 X50.53096 Y24.84491
G01 X50.53096 Y25.10602
G01 X50.57544 Y25.11869
G01 X50.53096 Y25.08220
G01 X50.57544 Y25.11869
G01 X50.70493 Y25.15563
G01 X50.92954 Y25.17699
G01 X52.52237 Y25.17699
G01 X52.74701 Y25.15563
G01 X52.92095 Y25.10602
G01 X52.92095 Y25.08222
G01 X52.87655 Y25.11867
G01 X52.92095 Y25.08222
G01 X52.92095 Y22.39886
G01 X52.81298 Y22.34113
G01 X52.67228 Y22.29846
G01 X52.52598 Y22.28405
G01 X50.92598 Y22.28405
G01 X50.77968 Y22.29846
G01 X50.63899 Y22.34113
G01 X50.53096 Y22.39889
G01 X50.53096 Y22.82307
G01 X50.62601 Y23.03399
G01 X50.77600 Y23.03399
G01 X50.77600 Y24.63399
G01 X50.77887 Y24.66325
G01 X50.78740 Y24.69139
G01 X50.80124 Y24.71732
G01 X50.81991 Y24.74006
G01 X50.84265 Y24.75870
G01 X50.86858 Y24.77257
G01 X50.89670 Y24.78110
G01 X50.92598 Y24.78400
G01 X52.52598 Y24.78400
G01 X52.55522 Y24.78110
G01 X52.58338 Y24.77257
G01 X52.60929 Y24.75870
G01 X52.63205 Y24.74006
G01 X52.65072 Y24.71732
G01 X52.66456 Y24.69139
G01 X52.67310 Y24.66325
G01 X52.67599 Y24.63399
G01 X52.67599 Y23.03399
G01 X52.67310 Y23.00473
G01 X52.66456 Y22.97659
G01 X52.65072 Y22.95065
G01 X52.63205 Y22.92792
G01 X52.60929 Y22.90928
G01 X52.58338 Y22.89541
G01 X52.55522 Y22.88687
G01 X52.52598 Y22.88398
G01 X50.92598 Y22.88398
G01 X50.89670 Y22.88687
G01 X50.86858 Y22.89541
G01 X50.84265 Y22.90928
G01 X50.81991 Y22.92792
G01 X50.80124 Y22.95065
G01 X50.78740 Y22.97659
G01 X50.77887 Y23.00473
G01 X50.77600 Y23.03399
G01 X50.62601 Y23.03399
G01 X50.63178 Y22.97547
G01 X50.64884 Y22.91918
G01 X50.67656 Y22.86732
G01 X50.71387 Y22.82187
G01 X50.75933 Y22.78456
G01 X50.81118 Y22.75683
G01 X50.86746 Y22.73976
G01 X50.92598 Y22.73399
G01 X52.52598 Y22.73399
G01 X52.58450 Y22.73976
G01 X52.64076 Y22.75683
G01 X52.69266 Y22.78456
G01 X52.73807 Y22.82187
G01 X52.77541 Y22.86732
G01 X52.80312 Y22.91918
G01 X52.82021 Y22.97547
G01 X52.82595 Y23.03399
G01 X52.82595 Y24.63399
G01 X52.82021 Y24.69251
G01 X52.80312 Y24.74879
G01 X52.77541 Y24.80066
G01 X52.73807 Y24.84610
G01 X52.69266 Y24.88341
G01 X52.64076 Y24.91113
G01 X52.58450 Y24.92822
G01 X52.52598 Y24.93396
G01 X50.92598 Y24.93396
G01 X50.86746 Y24.92822
G01 X50.81118 Y24.91113
G01 X50.75933 Y24.88341
G01 X50.71387 Y24.84610
G01 X50.67656 Y24.80066
G01 X50.64884 Y24.74879
G01 X50.63178 Y24.69251
G01 X50.62601 Y24.63399
G01 X50.62601 Y23.03399
G01 X50.53096 Y22.82307
G01 X50.53096 Y22.58578
G01 X50.59266 Y22.53513
G01 X50.69639 Y22.47971
G01 X50.80894 Y22.44555
G01 X50.92598 Y22.43404
G01 X52.52598 Y22.43404
G01 X52.64302 Y22.44555
G01 X52.75557 Y22.47971
G01 X52.85928 Y22.53513
G01 X52.92095 Y22.58576
G01 X52.92095 Y22.82302
G01 X52.90012 Y22.78400
G01 X52.84417 Y22.71580
G01 X52.77597 Y22.65985
G01 X52.69819 Y22.61827
G01 X52.61376 Y22.59267
G01 X52.52598 Y22.58403
G01 X50.92598 Y22.58403
G01 X50.83820 Y22.59267
G01 X50.75380 Y22.61827
G01 X50.67600 Y22.65985
G01 X50.60780 Y22.71580
G01 X50.55184 Y22.78400
G01 X50.53096 Y22.82307
G01 X50.53096 Y24.84491
G01 X50.55184 Y24.88397
G01 X50.60780 Y24.95217
G01 X50.67600 Y25.00813
G01 X50.75380 Y25.04971
G01 X50.83820 Y25.07531
G01 X50.92598 Y25.08395
G01 X52.52598 Y25.08395
G01 X52.61376 Y25.07531
G01 X52.69819 Y25.04971
G01 X52.77597 Y25.00813
G01 X52.84417 Y24.95217
G01 X52.90012 Y24.88397
G01 X52.92095 Y24.84496
G01 X53.07096 Y24.84491
G01 X53.07096 Y25.10602
G01 X53.11544 Y25.11869
G01 X53.07096 Y25.08220
G01 X53.11544 Y25.11869
G01 X53.24493 Y25.15563
G01 X53.46954 Y25.17699
G01 X55.06240 Y25.17699
G01 X55.28701 Y25.15563
G01 X55.46098 Y25.10602
G01 X55.46098 Y25.08222
G01 X55.41655 Y25.11867
G01 X55.46098 Y25.08222
G01 X55.46098 Y22.39886
G01 X55.35298 Y22.34113
G01 X55.21228 Y22.29846
G01 X55.06598 Y22.28405
G01 X53.46598 Y22.28405
G01 X53.31968 Y22.29846
G01 X53.17899 Y22.34113
G01 X53.07096 Y22.39889
G01 X53.07096 Y22.82307
G01 X53.16601 Y23.03399
G01 X53.31600 Y23.03399
G01 X53.31600 Y24.63399
G01 X53.31887 Y24.66325
G01 X53.32740 Y24.69139
G01 X53.34127 Y24.71732
G01 X53.35991 Y24.74006
G01 X53.38265 Y24.75870
G01 X53.40858 Y24.77257
G01 X53.43672 Y24.78110
G01 X53.46598 Y24.78400
G01 X55.06598 Y24.78400
G01 X55.09524 Y24.78110
G01 X55.12338 Y24.77257
G01 X55.14932 Y24.75870
G01 X55.17205 Y24.74006
G01 X55.19072 Y24.71732
G01 X55.20456 Y24.69139
G01 X55.21310 Y24.66325
G01 X55.21599 Y24.63399
G01 X55.21599 Y23.03399
G01 X55.21310 Y23.00473
G01 X55.20456 Y22.97659
G01 X55.19072 Y22.95065
G01 X55.17205 Y22.92792
G01 X55.14932 Y22.90928
G01 X55.12338 Y22.89541
G01 X55.09524 Y22.88687
G01 X55.06598 Y22.88398
G01 X53.46598 Y22.88398
G01 X53.43672 Y22.88687
G01 X53.40858 Y22.89541
G01 X53.38265 Y22.90928
G01 X53.35991 Y22.92792
G01 X53.34127 Y22.95065
G01 X53.32740 Y22.97659
G01 X53.31887 Y23.00473
G01 X53.31600 Y23.03399
G01 X53.16601 Y23.03399
G01 X53.17175 Y22.97547
G01 X53.18884 Y22.91918
G01 X53.21653 Y22.86732
G01 X53.25387 Y22.82187
G01 X53.29933 Y22.78456
G01 X53.35118 Y22.75683
G01 X53.40746 Y22.73976
G01 X53.46598 Y22.73399
G01 X55.06598 Y22.73399
G01 X55.12450 Y22.73976
G01 X55.18079 Y22.75683
G01 X55.23266 Y22.78456
G01 X55.27810 Y22.82187
G01 X55.31541 Y22.86732
G01 X55.34315 Y22.91918
G01 X55.36021 Y22.97547
G01 X55.36598 Y23.03399
G01 X55.36598 Y24.63399
G01 X55.36021 Y24.69251
G01 X55.34315 Y24.74879
G01 X55.31541 Y24.80066
G01 X55.27810 Y24.84610
G01 X55.23266 Y24.88341
G01 X55.18079 Y24.91113
G01 X55.12450 Y24.92822
G01 X55.06598 Y24.93396
G01 X53.46598 Y24.93396
G01 X53.40746 Y24.92822
G01 X53.35118 Y24.91113
G01 X53.29933 Y24.88341
G01 X53.25387 Y24.84610
G01 X53.21653 Y24.80066
G01 X53.18884 Y24.74879
G01 X53.17175 Y24.69251
G01 X53.16601 Y24.63399
G01 X53.16601 Y23.03399
G01 X53.07096 Y22.82307
G01 X53.07096 Y22.58578
G01 X53.13266 Y22.53513
G01 X53.23639 Y22.47971
G01 X53.34894 Y22.44555
G01 X53.46598 Y22.43404
G01 X55.06598 Y22.43404
G01 X55.18302 Y22.44555
G01 X55.29557 Y22.47971
G01 X55.39930 Y22.53513
G01 X55.46098 Y22.58576
G01 X55.46098 Y22.82302
G01 X55.44012 Y22.78400
G01 X55.38417 Y22.71580
G01 X55.31597 Y22.65985
G01 X55.23819 Y22.61827
G01 X55.15376 Y22.59267
G01 X55.06598 Y22.58403
G01 X53.46598 Y22.58403
G01 X53.37820 Y22.59267
G01 X53.29380 Y22.61827
G01 X53.21597 Y22.65985
G01 X53.14780 Y22.71580
G01 X53.09184 Y22.78400
G01 X53.07096 Y22.82307
G01 X53.07096 Y24.84491
G01 X53.09184 Y24.88397
G01 X53.14780 Y24.95217
G01 X53.21597 Y25.00813
G01 X53.29380 Y25.04971
G01 X53.37820 Y25.07531
G01 X53.46598 Y25.08395
G01 X55.06598 Y25.08395
G01 X55.15376 Y25.07531
G01 X55.23819 Y25.04971
G01 X55.31597 Y25.00813
G01 X55.38417 Y24.95217
G01 X55.44012 Y24.88397
G01 X55.46098 Y24.84496
G01 X55.61096 Y24.84491
G01 X55.63184 Y24.88397
G01 X55.68780 Y24.95217
G01 X55.75600 Y25.00813
G01 X55.83380 Y25.04971
G01 X55.91820 Y25.07531
G01 X56.00598 Y25.08395
G01 X57.60598 Y25.08395
G01 X57.69376 Y25.07531
G01 X57.77819 Y25.04971
G01 X57.85597 Y25.00813
G01 X57.92417 Y24.95217
G01 X57.98012 Y24.88397
G01 X58.00098 Y24.84496
G01 X58.00098 Y25.10602
G01 X57.95655 Y25.11867
G01 X58.00098 Y25.08222
G01 X57.95655 Y25.11867
G01 X57.82701 Y25.15563
G01 X57.60240 Y25.17699
G01 X56.00954 Y25.17699
G01 X55.78493 Y25.15563
G01 X55.61096 Y25.10602
G01 X55.61096 Y25.08220
G01 X55.65544 Y25.11869
G01 X55.61096 Y25.08220
G01 X55.61096 Y22.39889
G01 X55.71899 Y22.34113
G01 X55.85968 Y22.29846
G01 X56.00598 Y22.28405
G01 X57.60598 Y22.28405
G01 X57.75228 Y22.29846
G01 X57.89298 Y22.34113
G01 X58.00098 Y22.39886
G01 X58.00098 Y22.82302
G01 X58.00098 Y22.58576
G01 X57.93930 Y22.53513
G01 X57.83557 Y22.47971
G01 X57.72302 Y22.44555
G01 X57.60598 Y22.43404
G01 X56.00598 Y22.43404
G01 X55.88894 Y22.44555
G01 X55.77639 Y22.47971
G01 X55.67266 Y22.53513
G01 X55.61096 Y22.58578
G01 X55.61096 Y22.82307
G01 X55.70601 Y23.03399
G01 X55.85600 Y23.03399
G01 X55.85600 Y24.63399
G01 X55.85887 Y24.66325
G01 X55.86740 Y24.69139
G01 X55.88127 Y24.71732
G01 X55.89991 Y24.74006
G01 X55.92265 Y24.75870
G01 X55.94858 Y24.77257
G01 X55.97672 Y24.78110
G01 X56.00598 Y24.78400
G01 X57.60598 Y24.78400
G01 X57.63524 Y24.78110
G01 X57.66338 Y24.77257
G01 X57.68932 Y24.75870
G01 X57.71205 Y24.74006
G01 X57.73072 Y24.71732
G01 X57.74456 Y24.69139
G01 X57.75310 Y24.66325
G01 X57.75599 Y24.63399
G01 X57.75599 Y23.03399
G01 X57.75310 Y23.00473
G01 X57.74456 Y22.97659
G01 X57.73072 Y22.95065
G01 X57.71205 Y22.92792
G01 X57.68932 Y22.90928
G01 X57.66338 Y22.89541
G01 X57.63524 Y22.88687
G01 X57.60598 Y22.88398
G01 X56.00598 Y22.88398
G01 X55.97672 Y22.88687
G01 X55.94858 Y22.89541
G01 X55.92265 Y22.90928
G01 X55.89991 Y22.92792
G01 X55.88127 Y22.95065
G01 X55.86740 Y22.97659
G01 X55.85887 Y23.00473
G01 X55.85600 Y23.03399
G01 X55.70601 Y23.03399
G01 X55.71178 Y22.97547
G01 X55.72884 Y22.91918
G01 X55.75656 Y22.86732
G01 X55.79387 Y22.82187
G01 X55.83933 Y22.78456
G01 X55.89118 Y22.75683
G01 X55.94746 Y22.73976
G01 X56.00598 Y22.73399
G01 X57.60598 Y22.73399
G01 X57.66450 Y22.73976
G01 X57.72079 Y22.75683
G01 X57.77266 Y22.78456
G01 X57.81810 Y22.82187
G01 X57.85541 Y22.86732
G01 X57.88315 Y22.91918
G01 X57.90021 Y22.97547
G01 X57.90598 Y23.03399
G01 X57.90598 Y24.63399
G01 X57.90021 Y24.69251
G01 X57.88315 Y24.74879
G01 X57.85541 Y24.80066
G01 X57.81810 Y24.84610
G01 X57.77266 Y24.88341
G01 X57.72079 Y24.91113
G01 X57.66450 Y24.92822
G01 X57.60598 Y24.93396
G01 X56.00598 Y24.93396
G01 X55.94746 Y24.92822
G01 X55.89118 Y24.91113
G01 X55.83933 Y24.88341
G01 X55.79387 Y24.84610
G01 X55.75656 Y24.80066
G01 X55.72884 Y24.74879
G01 X55.71178 Y24.69251
G01 X55.70601 Y24.63399
G01 X55.70601 Y23.03399
G01 X55.61096 Y22.82307
G01 X55.63184 Y22.78400
G01 X55.68780 Y22.71580
G01 X55.75600 Y22.65985
G01 X55.83380 Y22.61827
G01 X55.91820 Y22.59267
G01 X56.00598 Y22.58403
G01 X57.60598 Y22.58403
G01 X57.69376 Y22.59267
G01 X57.77819 Y22.61827
G01 X57.85597 Y22.65985
G01 X57.92417 Y22.71580
G01 X57.98012 Y22.78400
G01 X58.00098 Y22.82302
G01 X58.00098 Y24.84496
G01 X58.19544 Y25.11869
G01 X58.15096 Y25.08220
G01 X58.15096 Y24.84491
G01 X58.17184 Y24.88397
G01 X58.22780 Y24.95217
G01 X58.29600 Y25.00813
G01 X58.37380 Y25.04971
G01 X58.45820 Y25.07531
G01 X58.54598 Y25.08395
G01 X60.14598 Y25.08395
G01 X60.23376 Y25.07531
G01 X60.31819 Y25.04971
G01 X60.39597 Y25.00813
G01 X60.46417 Y24.95217
G01 X60.52012 Y24.88397
G01 X60.54098 Y24.84496
G01 X60.54098 Y25.26911
G01 X60.43298 Y25.32685
G01 X60.29228 Y25.36952
G01 X60.14598 Y25.38392
G01 X59.45802 Y25.38392
G01 X59.20555 Y25.28428
G01 X59.00875 Y25.22733
G01 X58.82416 Y25.19340
G01 X58.69734 Y25.18095
G01 X58.54954 Y25.17699
G01 X58.32493 Y25.15563
G01 X58.15096 Y25.10602
G01 X58.15096 Y22.39889
G01 X58.25899 Y22.34113
G01 X58.39968 Y22.29846
G01 X58.54598 Y22.28405
G01 X60.14598 Y22.28405
G01 X60.29228 Y22.29846
G01 X60.43298 Y22.34113
G01 X60.54098 Y22.39886
G01 X60.54098 Y22.82302
G01 X60.54098 Y22.58576
G01 X60.47930 Y22.53513
G01 X60.37557 Y22.47971
G01 X60.26302 Y22.44555
G01 X60.14598 Y22.43404
G01 X58.54598 Y22.43404
G01 X58.42894 Y22.44555
G01 X58.31639 Y22.47971
G01 X58.21266 Y22.53513
G01 X58.15096 Y22.58578
G01 X58.15096 Y22.82307
G01 X58.24601 Y23.03399
G01 X58.39600 Y23.03399
G01 X58.39600 Y24.63399
G01 X58.39887 Y24.66325
G01 X58.40740 Y24.69139
G01 X58.42127 Y24.71732
G01 X58.43991 Y24.74006
G01 X58.46265 Y24.75870
G01 X58.48858 Y24.77257
G01 X58.51672 Y24.78110
G01 X58.54598 Y24.78400
G01 X60.14598 Y24.78400
G01 X60.17524 Y24.78110
G01 X60.20338 Y24.77257
G01 X60.22932 Y24.75870
G01 X60.25205 Y24.74006
G01 X60.27072 Y24.71732
G01 X60.28456 Y24.69139
G01 X60.29310 Y24.66325
G01 X60.29599 Y24.63399
G01 X60.29599 Y23.03399
G01 X60.29310 Y23.00473
G01 X60.28456 Y22.97659
G01 X60.27072 Y22.95065
G01 X60.25205 Y22.92792
G01 X60.22932 Y22.90928
G01 X60.20338 Y22.89541
G01 X60.17524 Y22.88687
G01 X60.14598 Y22.88398
G01 X58.54598 Y22.88398
G01 X58.51672 Y22.88687
G01 X58.48858 Y22.89541
G01 X58.46265 Y22.90928
G01 X58.43991 Y22.92792
G01 X58.42127 Y22.95065
G01 X58.40740 Y22.97659
G01 X58.39887 Y23.00473
G01 X58.39600 Y23.03399
G01 X58.24601 Y23.03399
G01 X58.25178 Y22.97547
G01 X58.26884 Y22.91918
G01 X58.29656 Y22.86732
G01 X58.33387 Y22.82187
G01 X58.37933 Y22.78456
G01 X58.43118 Y22.75683
G01 X58.48746 Y22.73976
G01 X58.54598 Y22.73399
G01 X60.14598 Y22.73399
G01 X60.20450 Y22.73976
G01 X60.26079 Y22.75683
G01 X60.31266 Y22.78456
G01 X60.35810 Y22.82187
G01 X60.39541 Y22.86732
G01 X60.42315 Y22.91918
G01 X60.44021 Y22.97547
G01 X60.44598 Y23.03399
G01 X60.44598 Y24.63399
G01 X60.44021 Y24.69251
G01 X60.42315 Y24.74879
G01 X60.39541 Y24.80066
G01 X60.35810 Y24.84610
G01 X60.31266 Y24.88341
G01 X60.26079 Y24.91113
G01 X60.20450 Y24.92822
G01 X60.14598 Y24.93396
G01 X58.54598 Y24.93396
G01 X58.48746 Y24.92822
G01 X58.43118 Y24.91113
G01 X58.37933 Y24.88341
G01 X58.33387 Y24.84610
G01 X58.29656 Y24.80066
G01 X58.26884 Y24.74879
G01 X58.25178 Y24.69251
G01 X58.24601 Y24.63399
G01 X58.24601 Y23.03399
G01 X58.15096 Y22.82307
G01 X58.17184 Y22.78400
G01 X58.22780 Y22.71580
G01 X58.29600 Y22.65985
G01 X58.37380 Y22.61827
G01 X58.45820 Y22.59267
G01 X58.54598 Y22.58403
G01 X60.14598 Y22.58403
G01 X60.23376 Y22.59267
G01 X60.31819 Y22.61827
G01 X60.39597 Y22.65985
G01 X60.46417 Y22.71580
G01 X60.52012 Y22.78400
G01 X60.54098 Y22.82302
G01 X60.54098 Y25.08222
G01 X60.47930 Y25.13284
G01 X60.37557 Y25.18827
G01 X60.26302 Y25.22240
G01 X60.14598 Y25.23393
G01 X59.03549 Y25.23393
G01 X58.99897 Y25.37940
G01 X59.05617 Y25.41323
G01 X59.10346 Y25.44834
G01 X59.18497 Y25.51895
G01 X59.94697 Y26.28095
G01 X59.98652 Y26.32456
G01 X60.01761 Y26.36248
G01 X60.08294 Y26.46027
G01 X60.10605 Y26.50348
G01 X60.13122 Y26.55669
G01 X60.15106 Y26.61214
G01 X60.17958 Y26.71615
G01 X60.19305 Y26.82316
G01 X60.19592 Y26.88199
G01 X60.19592 Y34.79556
G01 X60.18019 Y34.80341
G01 X60.19592 Y34.79556
G01 X60.34966 Y34.91131
G01 X60.51994 Y35.09554
G01 X60.55947 Y35.14433
G01 X60.59368 Y35.19701
G01 X60.68776 Y35.35995
G01 X60.71626 Y35.41591
G01 X60.73877 Y35.47453
G01 X60.81316 Y35.71413
G01 X60.82299 Y35.77615
G01 X60.84595 Y36.02599
G01 X60.82299 Y36.27582
G01 X60.81316 Y36.33785
G01 X60.76394 Y36.50000
G01 X60.74606 Y36.50315
G01 X60.76394 Y36.50000
G01 X67.64594 Y45.67601
G01 X67.69476 Y45.74972
G01 X67.75521 Y45.87207
G01 X67.78572 Y45.96354
G01 X67.81076 Y46.09772
G01 X67.81399 Y46.13778
G01 X67.81592 Y47.83894
G01 X67.78323 Y47.86511
G01 X67.81592 Y47.83894
G01 X67.88302 Y47.84555
G01 X67.99557 Y47.87971
G01 X68.09930 Y47.93513
G01 X68.19021 Y48.00976
G01 X68.23598 Y48.06551
G01 X68.23598 Y48.12281
G01 X68.23598 Y48.06551
G01 X68.28175 Y48.00976
G01 X68.37266 Y47.93513
G01 X68.47639 Y47.87971
G01 X68.58894 Y47.84555
G01 X68.70598 Y47.83404
G01 X70.30598 Y47.83404
G01 X70.42302 Y47.84555
G01 X70.53557 Y47.87971
G01 X70.63930 Y47.93513
G01 X70.73021 Y48.00976
G01 X70.80484 Y48.10067
G01 X70.86029 Y48.20440
G01 X70.89442 Y48.31695
G01 X70.90595 Y48.43399
G01 X70.90595 Y50.03399
G01 X70.89442 Y50.15103
G01 X70.86029 Y50.26358
G01 X70.80484 Y50.36731
G01 X70.73021 Y50.45822
G01 X70.63930 Y50.53284
G01 X70.53557 Y50.58827
G01 X70.42302 Y50.62240
G01 X70.30598 Y50.63393
G01 X68.70598 Y50.63393
G01 X68.58894 Y50.62240
G01 X68.47639 Y50.58827
G01 X68.37266 Y50.53284
G01 X68.28175 Y50.45822
G01 X68.23598 Y50.40244
G01 X68.23598 Y50.34516
G01 X68.23598 Y50.40244
G01 X68.19021 Y50.45822
G01 X68.09930 Y50.53284
G01 X67.99557 Y50.58827
G01 X67.88302 Y50.62240
G01 X67.76598 Y50.63393
G01 X66.16598 Y50.63393
G01 X66.04894 Y50.62240
G01 X65.93639 Y50.58827
G01 X65.83266 Y50.53284
G01 X65.77096 Y50.48220
G01 X65.77096 Y50.24491
G01 X65.79184 Y50.28397
G01 X65.84780 Y50.35217
G01 X65.91600 Y50.40813
G01 X65.99380 Y50.44971
G01 X66.07820 Y50.47531
G01 X66.16598 Y50.48395
G01 X67.76598 Y50.48395
G01 X67.85376 Y50.47531
G01 X67.93819 Y50.44971
G01 X68.01597 Y50.40813
G01 X68.08417 Y50.35217
G01 X68.14012 Y50.28397
G01 X68.18170 Y50.20617
G01 X68.20731 Y50.12177
G01 X68.21597 Y50.03399
G01 X68.21597 Y49.93394
G01 X68.17632 Y49.89243
G01 X68.21597 Y49.93394
G01 X68.25602 Y49.93394
G01 X68.29567 Y49.89243
G01 X68.25602 Y49.93394
G01 X68.21597 Y49.93394
G01 X68.25602 Y49.93394
G01 X68.25602 Y50.03399
G01 X68.26466 Y50.12177
G01 X68.29026 Y50.20617
G01 X68.33184 Y50.28397
G01 X68.38780 Y50.35217
G01 X68.45600 Y50.40813
G01 X68.53380 Y50.44971
G01 X68.61820 Y50.47531
G01 X68.70598 Y50.48395
G01 X70.30598 Y50.48395
G01 X70.39376 Y50.47531
G01 X70.47819 Y50.44971
G01 X70.55597 Y50.40813
G01 X70.62417 Y50.35217
G01 X70.68012 Y50.28397
G01 X70.72170 Y50.20617
G01 X70.74731 Y50.12177
G01 X70.75597 Y50.03399
G01 X70.75597 Y48.43399
G01 X70.74731 Y48.34621
G01 X70.72170 Y48.26180
G01 X70.68012 Y48.18400
G01 X70.62417 Y48.11580
G01 X70.55597 Y48.05985
G01 X70.47819 Y48.01827
G01 X70.39376 Y47.99266
G01 X70.30598 Y47.98403
G01 X68.70598 Y47.98403
G01 X68.61820 Y47.99266
G01 X68.53380 Y48.01827
G01 X68.45600 Y48.05985
G01 X68.38780 Y48.11580
G01 X68.33184 Y48.18400
G01 X68.29026 Y48.26180
G01 X68.26466 Y48.34621
G01 X68.25602 Y48.43399
G01 X68.25602 Y48.53402
G01 X68.29567 Y48.57552
G01 X68.25602 Y48.53402
G01 X68.21597 Y48.53402
G01 X68.17632 Y48.57552
G01 X68.21597 Y48.53402
G01 X68.25602 Y48.53402
G01 X68.21597 Y48.53402
G01 X68.21597 Y48.43399
G01 X68.20731 Y48.34621
G01 X68.18170 Y48.26180
G01 X68.14012 Y48.18400
G01 X68.08417 Y48.11580
G01 X68.01597 Y48.05985
G01 X67.93819 Y48.01827
G01 X67.85376 Y47.99266
G01 X67.76598 Y47.98403
G01 X67.66593 Y47.98403
G01 X67.62450 Y48.02363
G01 X67.66593 Y47.98403
G01 X67.66593 Y46.18599
G01 X67.66126 Y46.10976
G01 X67.64007 Y45.99937
G01 X67.60149 Y45.89381
G01 X67.56791 Y45.82975
G01 X67.52595 Y45.76600
G01 X60.59724 Y36.52771
G01 X60.57897 Y36.53084
G01 X60.59724 Y36.52771
G01 X60.66645 Y36.30666
G01 X60.69597 Y36.02599
G01 X60.66645 Y35.74532
G01 X60.59612 Y35.52088
G01 X60.55787 Y35.43493
G01 X60.46379 Y35.27199
G01 X60.40849 Y35.19589
G01 X60.24928 Y35.02276
G01 X60.04593 Y34.87308
G01 X60.02980 Y34.88126
G01 X60.04593 Y34.87308
G01 X60.04593 Y26.88199
G01 X60.03249 Y26.74541
G01 X60.00753 Y26.65567
G01 X59.97377 Y26.57417
G01 X59.95068 Y26.53096
G01 X59.90166 Y26.45763
G01 X59.87057 Y26.41971
G01 X59.07893 Y25.62502
G01 X59.00831 Y25.56426
G01 X58.93498 Y25.51524
G01 X58.89175 Y25.49218
G01 X58.81027 Y25.45842
G01 X58.76336 Y25.44420
G01 X58.67684 Y25.42695
G01 X58.58398 Y25.42002
G01 X15.18590 Y25.42002
G01 X15.18117 Y25.43139
G01 X15.18590 Y25.42002
G01 X14.57993 Y24.81405
G01 X14.56853 Y24.81877
G01 X14.57993 Y24.81405
G01 X14.57993 Y16.75790
G01 X14.56853 Y16.75318
G01 X14.57993 Y16.75790
G01 X15.18590 Y16.15194
G01 X15.18117 Y16.14053
G01 X15.18590 Y16.15194
G01 X28.88602 Y16.15194
G01 X28.92567 Y16.11043
G01 X28.88602 Y16.15194
G01 X28.88602 Y16.25199
G01 X28.89466 Y16.33977
G01 X28.92026 Y16.42417
G01 X28.96184 Y16.50197
G01 X29.01780 Y16.57017
G01 X29.08600 Y16.62613
G01 X29.12501 Y16.64698
G01 X28.88775 Y16.64698
G01 X28.83715 Y16.58531
G01 X28.78171 Y16.48158
G01 X28.74757 Y16.36903
G01 X28.74096 Y16.30192
G01 X28.76713 Y16.26916
G01 X28.74096 Y16.30192
G01 X15.24803 Y16.30192
G01 X15.24330 Y16.29052
G01 X15.24803 Y16.30192
G01 X14.72992 Y16.82003
G01 X14.71851 Y16.81531
G01 X14.72992 Y16.82003
G01 X14.72992 Y22.66249
G01 X14.83167 Y22.38936
G01 X14.87990 Y22.31057
G01 X14.87990 Y16.88216
G01 X14.86850 Y16.87744
G01 X14.87990 Y16.88216
G01 X15.31015 Y16.45191
G01 X15.30543 Y16.44051
G01 X15.31015 Y16.45191
G01 X28.61673 Y16.45191
G01 X28.63860 Y16.42240
G01 X28.61673 Y16.45191
G01 X28.64312 Y16.53898
G01 X28.70086 Y16.64698
G01 X31.57111 Y16.64698
G01 X31.62884 Y16.53898
G01 X31.67151 Y16.39829
G01 X31.68592 Y16.25199
G01 X31.68592 Y14.65199
G01 X31.67151 Y14.50569
G01 X31.62884 Y14.36500
G01 X31.57111 Y14.25697
G01 X31.14690 Y14.25697
G01 X31.38419 Y14.25697
G01 X31.43484 Y14.31867
G01 X31.49029 Y14.42240
G01 X31.52442 Y14.53495
G01 X31.53595 Y14.65199
G01 X31.53595 Y16.25199
G01 X31.52442 Y16.36903
G01 X31.49029 Y16.48158
G01 X31.43484 Y16.58531
G01 X31.38421 Y16.64698
G01 X31.14695 Y16.64698
G01 X31.18597 Y16.62613
G01 X31.25417 Y16.57017
G01 X31.31012 Y16.50197
G01 X31.35170 Y16.42417
G01 X31.37731 Y16.33977
G01 X31.38597 Y16.25199
G01 X31.38597 Y14.65199
G01 X31.37731 Y14.56421
G01 X31.35170 Y14.47980
G01 X31.31012 Y14.40200
G01 X31.25417 Y14.33380
G01 X31.18597 Y14.27785
G01 X31.14690 Y14.25697
G01 X28.70088 Y14.25697
G01 X28.64312 Y14.36500
G01 X28.61673 Y14.45204
G01 X28.63863 Y14.48156
G01 X28.61673 Y14.45204
G01 X14.89598 Y14.45204
G01 X14.77368 Y14.46045
G01 X14.70088 Y14.47124
G01 X14.58260 Y14.50335
G01 X14.51331 Y14.52814
G01 X14.44678 Y14.55961
G01 X14.40355 Y14.58272
G01 X14.28133 Y14.66439
G01 X14.18890 Y14.74490
G01 X13.17290 Y15.76090
G01 X13.12349 Y15.81544
G01 X13.09238 Y15.85333
G01 X13.01072 Y15.97556
G01 X12.98760 Y16.01879
G01 X12.95613 Y16.08531
G01 X12.93134 Y16.15460
G01 X12.89921 Y16.27289
G01 X12.88362 Y16.39448
G01 X12.88004 Y16.46799
G01 X12.88004 Y25.10399
G01 X12.88362 Y25.17747
G01 X12.89921 Y25.29906
G01 X12.93134 Y25.41735
G01 X12.95613 Y25.48664
G01 X12.98760 Y25.55316
G01 X13.01072 Y25.59639
G01 X13.09238 Y25.71862
G01 X13.17290 Y25.81105
G01 X14.18890 Y26.82705
G01 X14.24343 Y26.87645
G01 X14.34043 Y26.95141
G01 X14.44678 Y27.01234
G01 X14.58260 Y27.06860
G01 X14.62951 Y27.08283
G01 X14.77368 Y27.11150
G01 X14.89598 Y27.11991
G01 X58.16978 Y27.11991
G01 X58.17451 Y27.10851
G01 X58.16978 Y27.11991
G01 X58.34604 Y27.29616
