( pcb2gcode 2.5.0 )

( This file uses 2 drill bit sizes. )
( Bit sizes: [0.9mm] [2.2mm] )

G94       (Millimeters per minute feed rate.)
G21       (Units == Millimeters.)
G91.1     (Incremental arc distance mode.)
G90       (Absolute coordinates.)
G00 S10000     (RPM spindle speed.)

T1
G04 P1.00000
(MSG, Change tool bit to drill size 0.9mm)
M3      (Spindle on clockwise.)
G0 Z5.00000
G04 P1.00000

G1 F250.00000
G0 X21.24600 Y23.83400
G1 Z-1.90000
G1 Z5.00000
G0 X18.70600 Y23.83400
G1 Z-1.90000
G1 Z5.00000
G0 X16.16600 Y23.83400
G1 Z-1.90000
G1 Z5.00000
G0 X10.83200 Y40.34400
G1 Z-1.90000
G1 Z5.00000
G0 X7.27600 Y42.12200
G1 Z-1.90000
G1 Z5.00000
G0 X10.83200 Y43.90000
G1 Z-1.90000
G1 Z5.00000
G0 X7.27600 Y49.23400
G1 Z-1.90000
G1 Z5.00000
G0 X10.83200 Y49.23400
G1 Z-1.90000
G1 Z5.00000
G0 X16.16600 Y49.23400
G1 Z-1.90000
G1 Z5.00000
G0 X18.70600 Y49.23400
G1 Z-1.90000
G1 Z5.00000
G0 X21.24600 Y49.23400
G1 Z-1.90000
G1 Z5.00000
G0 X23.78600 Y49.23400
G1 Z-1.90000
G1 Z5.00000
G0 X26.32600 Y49.23400
G1 Z-1.90000
G1 Z5.00000
G0 X28.86600 Y49.23400
G1 Z-1.90000
G1 Z5.00000
G0 X31.40600 Y49.23400
G1 Z-1.90000
G1 Z5.00000
G0 X33.94600 Y49.23400
G1 Z-1.90000
G1 Z5.00000
G0 X36.48600 Y49.23400
G1 Z-1.90000
G1 Z5.00000
G0 X39.02600 Y49.23400
G1 Z-1.90000
G1 Z5.00000
G0 X41.56600 Y49.23400
G1 Z-1.90000
G1 Z5.00000
G0 X44.10600 Y49.23400
G1 Z-1.90000
G1 Z5.00000
G0 X46.64600 Y49.23400
G1 Z-1.90000
G1 Z5.00000
G0 X49.18600 Y49.23400
G1 Z-1.90000
G1 Z5.00000
G0 X51.72600 Y49.23400
G1 Z-1.90000
G1 Z5.00000
G0 X54.26600 Y49.23400
G1 Z-1.90000
G1 Z5.00000
G0 X56.80600 Y49.23400
G1 Z-1.90000
G1 Z5.00000
G0 X59.34600 Y49.23400
G1 Z-1.90000
G1 Z5.00000
G0 X61.88600 Y49.23400
G1 Z-1.90000
G1 Z5.00000
G0 X64.42600 Y49.23400
G1 Z-1.90000
G1 Z5.00000
G0 X66.96600 Y49.23400
G1 Z-1.90000
G1 Z5.00000
G0 X69.50600 Y49.23400
G1 Z-1.90000
G1 Z5.00000
G0 X59.34600 Y36.02600
G1 Z-1.90000
G1 Z5.00000
G0 X49.18600 Y23.83400
G1 Z-1.90000
G1 Z5.00000
G0 X51.72600 Y23.83400
G1 Z-1.90000
G1 Z5.00000
G0 X54.26600 Y23.83400
G1 Z-1.90000
G1 Z5.00000
G0 X56.80600 Y23.83400
G1 Z-1.90000
G1 Z5.00000
G0 X59.34600 Y23.83400
G1 Z-1.90000
G1 Z5.00000
G0 X61.88600 Y23.83400
G1 Z-1.90000
G1 Z5.00000
G0 X64.42600 Y23.83400
G1 Z-1.90000
G1 Z5.00000
G0 X66.96600 Y23.83400
G1 Z-1.90000
G1 Z5.00000
G0 X69.50600 Y23.83400
G1 Z-1.90000
G1 Z5.00000
G0 X68.74400 Y15.70600
G1 Z-1.90000
G1 Z5.00000
G0 X68.74400 Y12.91200
G1 Z-1.90000
G1 Z5.00000
G0 X65.14600 Y15.45200
G1 Z-1.90000
G1 Z5.00000
G0 X65.14600 Y12.91200
G1 Z-1.90000
G1 Z5.00000
G0 X65.14600 Y10.37200
G1 Z-1.90000
G1 Z5.00000
G0 X65.14600 Y7.83200
G1 Z-1.90000
G1 Z5.00000
G0 X46.64600 Y23.83400
G1 Z-1.90000
G1 Z5.00000
G0 X44.10600 Y23.83400
G1 Z-1.90000
G1 Z5.00000
G0 X41.56600 Y23.83400
G1 Z-1.90000
G1 Z5.00000
G0 X39.02600 Y23.83400
G1 Z-1.90000
G1 Z5.00000
G0 X36.48600 Y23.83400
G1 Z-1.90000
G1 Z5.00000
G0 X33.94600 Y23.83400
G1 Z-1.90000
G1 Z5.00000
G0 X31.40600 Y23.83400
G1 Z-1.90000
G1 Z5.00000
G0 X28.86600 Y23.83400
G1 Z-1.90000
G1 Z5.00000
G0 X26.32600 Y23.83400
G1 Z-1.90000
G1 Z5.00000
G0 X23.78600 Y23.83400
G1 Z-1.90000
G1 Z5.00000
G0 X30.13600 Y17.99200
G1 Z-1.90000
G1 Z5.00000
G0 X30.13600 Y15.45200
G1 Z-1.90000
G1 Z5.00000
G0 X30.13600 Y12.91200
G1 Z-1.90000
G1 Z5.00000
G0 X30.13600 Y10.37200
G1 Z-1.90000
G1 Z5.00000
G0 X30.13600 Y7.83200
G1 Z-1.90000
G1 Z5.00000
G0 X30.13600 Y5.29200
G1 Z-1.90000
G1 Z5.00000

T1
G53 G0 Z0 (Retract)
M5        (Spindle off.)
M2        (Program end.)
