( pcb2gcode 2.5.0 )
( Software-independent Gcode )

G94 ( Millimeters per minute feed rate. )
G21 ( Units == Millimeters. )

G90 ( Absolute coordinates. )
G00 S10000 ( RPM spindle speed. )
G01 F75.00000 ( Feedrate. )


G00 Z35.00000 (Retract to tool change height)
T0
M5      (Spindle stop.)
G04 P1.00000 (Wait for spindle to stop)
(MSG, Change tool bit to cutter diameter 1.00000mm)
M0      (Temporary machine stop.)
M3 ( Spindle on clockwise. )
G04 P1.00000 (Wait for spindle to get up to speed)
G04 P0 ( dwell for no time -- G64 should not smooth over this point )
G00 Z5.00000 ( retract )

G00 X0.49997 Y1.00000 ( rapid move to begin. )
G01 Z-0.95000 F50.00000 ( plunge. )
G04 P0 ( dwell for no time -- G64 should not smooth over this point )
G01 F75.00000
G01 X0.49997 Y25.25000
G00 Z5.00000
G01 X0.49997 Y26.75000
G01 Z-0.95000 F50.00000
G01 F75.00000
G01 X0.49997 Y51.00000
G01 X0.50960 Y51.09754
G01 X0.53805 Y51.19134
G01 X0.58425 Y51.27777
G01 X0.64643 Y51.35354
G01 X0.72220 Y51.41572
G01 X0.80863 Y51.46192
G01 X0.90244 Y51.49037
G01 X1.00000 Y51.50000
G01 X35.24999 Y51.50000
G00 Z5.00000
G01 X36.74999 Y51.50000
G01 Z-0.95000 F50.00000
G01 F75.00000
G01 X70.99998 Y51.50000
G01 X71.09752 Y51.49037
G01 X71.19132 Y51.46192
G01 X71.27776 Y51.41572
G01 X71.35353 Y51.35354
G01 X71.41571 Y51.27777
G01 X71.46191 Y51.19134
G01 X71.49036 Y51.09754
G01 X71.49998 Y51.00000
G01 X71.49998 Y26.75000
G00 Z5.00000
G01 X71.49998 Y25.25000
G01 Z-0.95000 F50.00000
G01 F75.00000
G01 X71.49998 Y1.00000
G01 X71.49036 Y0.90244
G01 X71.46191 Y0.80863
G01 X71.41571 Y0.72220
G01 X71.35353 Y0.64643
G01 X71.27776 Y0.58425
G01 X71.19132 Y0.53805
G01 X71.09752 Y0.50960
G01 X70.99998 Y0.49997
G01 X36.74999 Y0.49997
G00 Z5.00000
G01 X35.24999 Y0.49997
G01 Z-0.95000 F50.00000
G01 F75.00000
G01 X1.00000 Y0.49997
G01 X0.90244 Y0.50960
G01 X0.80863 Y0.53805
G01 X0.72220 Y0.58425
G01 X0.64643 Y0.64643
G01 X0.58425 Y0.72220
G01 X0.53805 Y0.80863
G01 X0.50960 Y0.90244
G01 X0.49997 Y1.00000
G01 Z-1.90000 F50.00000 ( plunge. )
G04 P0 ( dwell for no time -- G64 should not smooth over this point )
G01 F75.00000
G01 X0.49997 Y25.25000
G00 Z5.00000
G01 X0.49997 Y26.75000
G01 Z-1.90000 F50.00000
G01 F75.00000
G01 X0.49997 Y51.00000
G01 X0.50960 Y51.09754
G01 X0.53805 Y51.19134
G01 X0.58425 Y51.27777
G01 X0.64643 Y51.35354
G01 X0.72220 Y51.41572
G01 X0.80863 Y51.46192
G01 X0.90244 Y51.49037
G01 X1.00000 Y51.50000
G01 X35.24999 Y51.50000
G00 Z5.00000
G01 X36.74999 Y51.50000
G01 Z-1.90000 F50.00000
G01 F75.00000
G01 X70.99998 Y51.50000
G01 X71.09752 Y51.49037
G01 X71.19132 Y51.46192
G01 X71.27776 Y51.41572
G01 X71.35353 Y51.35354
G01 X71.41571 Y51.27777
G01 X71.46191 Y51.19134
G01 X71.49036 Y51.09754
G01 X71.49998 Y51.00000
G01 X71.49998 Y26.75000
G00 Z5.00000
G01 X71.49998 Y25.25000
G01 Z-1.90000 F50.00000
G01 F75.00000
G01 X71.49998 Y1.00000
G01 X71.49036 Y0.90244
G01 X71.46191 Y0.80863
G01 X71.41571 Y0.72220
G01 X71.35353 Y0.64643
G01 X71.27776 Y0.58425
G01 X71.19132 Y0.53805
G01 X71.09752 Y0.50960
G01 X70.99998 Y0.49997
G01 X36.74999 Y0.49997
G00 Z5.00000
G01 X35.24999 Y0.49997
G01 Z-1.90000 F50.00000
G01 F75.00000
G01 X1.00000 Y0.49997
G01 X0.90244 Y0.50960
G01 X0.80863 Y0.53805
G01 X0.72220 Y0.58425
G01 X0.64643 Y0.64643
G01 X0.58425 Y0.72220
G01 X0.53805 Y0.80863
G01 X0.50960 Y0.90244
G01 X0.49997 Y1.00000

G04 P0 ( dwell for no time -- G64 should not smooth over this point )
G00 Z35.000000 ( retract )

M5 ( Spindle off. )
G04 P1.000000
M9 ( Coolant off. )
M2 ( Program end. )

