( pcb2gcode 2.5.0 )
( Software-independent Gcode )

G94 ( Millimeters per minute feed rate. )
G21 ( Units == Millimeters. )

G90 ( Absolute coordinates. )
G00 S1000 ( RPM spindle speed. )
G01 F200.00000 ( Feedrate. )


G00 Z40.00000 (Retract to tool change height)
T0
M5      (Spindle stop.)
G04 P1.00000 (Wait for spindle to stop)
(MSG, Change tool bit to mill diameter 0.30000mm)
M0      (Temporary machine stop.)
M3 ( Spindle on clockwise. )
G04 P1.00000 (Wait for spindle to get up to speed)
G04 P0 ( dwell for no time -- G64 should not smooth over this point )
G00 Z5.00000 ( retract )

G00 X45.60996 Y14.48999 ( rapid move to begin. )
G01 F200.00000
( Mill infeed pass 1/1 )
G01 Z-0.15000
G04 P0 ( dwell for no time -- G64 should not smooth over this point )
G01 F200.00000
G01 X45.60996 Y14.48999
G01 X45.60996 Y16.08999
G01 X45.59553 Y16.23629
G01 X45.55286 Y16.37698
G01 X45.49513 Y16.48498
G01 X45.30823 Y16.48498
G01 X45.35885 Y16.42331
G01 X45.41430 Y16.31958
G01 X45.44844 Y16.20703
G01 X45.45997 Y16.08999
G01 X45.45997 Y14.48999
G01 X45.44844 Y14.37295
G01 X45.41430 Y14.26040
G01 X45.35885 Y14.15666
G01 X45.30821 Y14.09497
G01 X45.07097 Y14.09494
G01 X45.11001 Y14.11585
G01 X45.17818 Y14.17180
G01 X45.23414 Y14.24000
G01 X45.27572 Y14.31780
G01 X45.30135 Y14.40221
G01 X45.30998 Y14.48999
G01 X45.30998 Y16.08999
G01 X45.30135 Y16.17777
G01 X45.27572 Y16.26217
G01 X45.23414 Y16.33997
G01 X45.17818 Y16.40817
G01 X45.11001 Y16.46413
G01 X45.07097 Y16.48498
G01 X45.30823 Y16.48498
G01 X43.04905 Y16.48498
G01 X43.01001 Y16.46413
G01 X42.94184 Y16.40817
G01 X42.88588 Y16.33997
G01 X42.84431 Y16.26217
G01 X42.81868 Y16.17777
G01 X42.81004 Y16.08999
G01 X42.81004 Y15.98993
G01 X42.84969 Y15.94843
G01 X42.81004 Y15.98993
G01 X41.13953 Y15.98993
G01 X41.11721 Y15.96009
G01 X41.13953 Y15.98993
G01 X41.12249 Y16.06601
G01 X41.08947 Y16.15968
G01 X41.01629 Y16.28643
G01 X40.95170 Y16.36187
G01 X40.88177 Y16.42481
G01 X40.79999 Y16.48117
G01 X40.71030 Y16.52382
G01 X40.62081 Y16.55290
G01 X40.52318 Y16.57111
G01 X40.47614 Y16.57358
G01 X39.57685 Y16.57111
G01 X39.47921 Y16.55290
G01 X39.38973 Y16.52382
G01 X39.30004 Y16.48117
G01 X39.18165 Y16.39517
G01 X39.08373 Y16.28643
G01 X39.03194 Y16.20164
G01 X39.01056 Y16.15968
G01 X38.97754 Y16.06601
G01 X38.95798 Y15.97401
G01 X38.95005 Y15.87500
G01 X38.95005 Y14.62499
G01 X38.95798 Y14.52598
G01 X38.96534 Y14.47945
G01 X38.99369 Y14.38425
G01 X39.01056 Y14.34028
G01 X39.05808 Y14.25306
G01 X39.08373 Y14.21356
G01 X39.14833 Y14.13812
G01 X39.18165 Y14.10480
G01 X39.26052 Y14.04445
G01 X39.34200 Y13.99741
G01 X39.43372 Y13.95928
G01 X39.53032 Y13.93622
G01 X39.60032 Y13.92700
G01 X40.47357 Y13.92563
G01 X40.56971 Y13.93622
G01 X40.66631 Y13.95928
G01 X40.75803 Y13.99741
G01 X40.83951 Y14.04445
G01 X40.91838 Y14.10480
G01 X41.01629 Y14.21356
G01 X41.08947 Y14.34028
G01 X41.13468 Y14.47945
G01 X41.14814 Y14.59001
G01 X41.12048 Y14.62385
G01 X41.14814 Y14.59001
G01 X42.81004 Y14.59001
G01 X42.84969 Y14.63152
G01 X42.81004 Y14.59001
G01 X42.81004 Y14.48999
G01 X42.81868 Y14.40221
G01 X42.84431 Y14.31780
G01 X42.88588 Y14.24000
G01 X42.94184 Y14.17180
G01 X43.01001 Y14.11585
G01 X43.04913 Y14.09494
G01 X42.81182 Y14.09494
G01 X42.76117 Y14.15666
G01 X42.70572 Y14.26040
G01 X42.67159 Y14.37295
G01 X42.66498 Y14.44003
G01 X42.69117 Y14.47279
G01 X42.66498 Y14.44003
G01 X41.27918 Y14.44003
G01 X41.26067 Y14.46675
G01 X41.27918 Y14.44003
G01 X41.24898 Y14.33792
G01 X41.22648 Y14.27927
G01 X41.17184 Y14.17805
G01 X41.13763 Y14.12540
G01 X41.09813 Y14.07660
G01 X41.01873 Y13.99334
G01 X40.92765 Y13.92311
G01 X40.87499 Y13.88890
G01 X40.81904 Y13.86040
G01 X40.71266 Y13.81663
G01 X40.60088 Y13.78951
G01 X40.50756 Y13.77721
G01 X40.45002 Y13.77503
G01 X39.65000 Y13.77503
G01 X39.59247 Y13.77721
G01 X39.49915 Y13.78951
G01 X39.44802 Y13.80038
G01 X39.38737 Y13.81663
G01 X39.32874 Y13.83914
G01 X39.22503 Y13.88890
G01 X39.13009 Y13.95382
G01 X39.08127 Y13.99334
G01 X39.03687 Y14.03774
G01 X38.96237 Y14.12540
G01 X38.90205 Y14.22331
G01 X38.87355 Y14.27927
G01 X38.83489 Y14.38760
G01 X38.81863 Y14.44828
G01 X38.80880 Y14.51031
G01 X38.80007 Y14.62499
G01 X38.80007 Y15.87500
G01 X38.80880 Y15.98968
G01 X38.81863 Y16.05171
G01 X38.83489 Y16.11236
G01 X38.87355 Y16.22069
G01 X38.90205 Y16.27665
G01 X38.96237 Y16.37457
G01 X39.00189 Y16.42339
G01 X39.08127 Y16.50662
G01 X39.13009 Y16.54614
G01 X39.22503 Y16.61107
G01 X39.32874 Y16.66083
G01 X39.38737 Y16.68335
G01 X39.44802 Y16.69959
G01 X39.56118 Y16.72029
G01 X39.62389 Y16.72356
G01 X40.47614 Y16.72356
G01 X40.53885 Y16.72029
G01 X40.60088 Y16.71046
G01 X40.71266 Y16.68335
G01 X40.81904 Y16.63959
G01 X40.87499 Y16.61107
G01 X40.92765 Y16.57688
G01 X41.01873 Y16.50662
G01 X41.09813 Y16.42339
G01 X41.13763 Y16.37457
G01 X41.19798 Y16.27665
G01 X41.22648 Y16.22069
G01 X41.25620 Y16.13992
G01 X41.24111 Y16.11635
G01 X41.25620 Y16.13992
G01 X42.66498 Y16.13992
G01 X42.69117 Y16.10716
G01 X42.66498 Y16.13992
G01 X42.67159 Y16.20703
G01 X42.70572 Y16.31958
G01 X42.76117 Y16.42331
G01 X42.81179 Y16.48498
G01 X43.04905 Y16.48498
G01 X42.62490 Y16.48498
G01 X42.56717 Y16.37698
G01 X42.54075 Y16.28991
G01 X42.56264 Y16.26039
G01 X42.54075 Y16.28991
G01 X41.35932 Y16.28991
G01 X41.34779 Y16.26992
G01 X41.35932 Y16.28991
G01 X41.30174 Y16.39689
G01 X41.25899 Y16.46273
G01 X41.20959 Y16.52374
G01 X41.11911 Y16.61808
G01 X41.01581 Y16.69821
G01 X40.94997 Y16.74096
G01 X40.83229 Y16.79786
G01 X40.75902 Y16.82598
G01 X40.63207 Y16.85717
G01 X40.55455 Y16.86946
G01 X40.47614 Y16.87355
G01 X39.62389 Y16.87355
G01 X39.54548 Y16.86946
G01 X39.41683 Y16.84630
G01 X39.34101 Y16.82598
G01 X39.21998 Y16.77660
G01 X39.15005 Y16.74096
G01 X39.08422 Y16.69821
G01 X38.98091 Y16.61808
G01 X38.89044 Y16.52374
G01 X38.84104 Y16.46273
G01 X38.77215 Y16.35163
G01 X38.73652 Y16.28170
G01 X38.70840 Y16.20843
G01 X38.67192 Y16.08290
G01 X38.65417 Y15.95338
G01 X38.65008 Y15.87500
G01 X38.65008 Y14.62499
G01 X38.65417 Y14.54661
G01 X38.67192 Y14.41709
G01 X38.70840 Y14.29156
G01 X38.73652 Y14.21828
G01 X38.77215 Y14.14833
G01 X38.84104 Y14.03723
G01 X38.92542 Y13.93739
G01 X38.96926 Y13.89355
G01 X39.08869 Y13.85047
G01 X39.24317 Y13.80896
G01 X39.43674 Y13.77561
G01 X39.65051 Y13.76243
G01 X40.50883 Y13.76355
G01 X40.66331 Y13.77561
G01 X40.85688 Y13.80896
G01 X41.01136 Y13.85047
G01 X41.13074 Y13.89355
G01 X41.20959 Y13.97622
G01 X41.25899 Y14.03723
G01 X41.30174 Y14.10307
G01 X41.36351 Y14.21828
G01 X41.39104 Y14.29004
G01 X41.37791 Y14.31173
G01 X41.39104 Y14.29004
G01 X42.54075 Y14.29004
G01 X42.56264 Y14.31955
G01 X42.54075 Y14.29004
G01 X42.56717 Y14.20299
G01 X42.62493 Y14.09494
G01 X45.49513 Y14.09497
G01 X45.55286 Y14.20299
G01 X45.59553 Y14.34368
G01 X45.60996 Y14.48999
G01 X45.16000 Y14.48999
G01 X45.16000 Y16.08999
G01 X45.15423 Y16.14851
G01 X45.13716 Y16.20479
G01 X45.10945 Y16.25666
G01 X45.07214 Y16.30210
G01 X45.02667 Y16.33941
G01 X44.97481 Y16.36713
G01 X44.91855 Y16.38422
G01 X44.86002 Y16.38998
G01 X43.26000 Y16.38998
G01 X43.20148 Y16.38422
G01 X43.14522 Y16.36713
G01 X43.09335 Y16.33941
G01 X43.04789 Y16.30210
G01 X43.01057 Y16.25666
G01 X42.98286 Y16.20479
G01 X42.96579 Y16.14851
G01 X42.96003 Y16.08999
G01 X42.96003 Y15.83995
G01 X43.00397 Y15.79603
G01 X42.96003 Y15.83995
G01 X40.99999 Y15.83995
G01 X40.96158 Y15.79916
G01 X40.99999 Y15.83995
G01 X40.99999 Y15.87500
G01 X40.98797 Y15.98933
G01 X40.95244 Y16.09870
G01 X40.89496 Y16.19827
G01 X40.84022 Y16.26151
G01 X40.79361 Y16.30347
G01 X40.72501 Y16.35130
G01 X40.69704 Y16.36555
G01 X40.61998 Y16.39806
G01 X40.58965 Y16.40619
G01 X40.50751 Y16.42196
G01 X40.47614 Y16.42361
G01 X39.59252 Y16.42196
G01 X39.48005 Y16.39806
G01 X39.37502 Y16.35130
G01 X39.28201 Y16.28371
G01 X39.22483 Y16.22268
G01 X39.20507 Y16.19827
G01 X39.16184 Y16.12666
G01 X39.13631 Y16.06936
G01 X39.11205 Y15.98933
G01 X39.10001 Y15.87500
G01 X39.10001 Y14.62499
G01 X39.11205 Y14.51064
G01 X39.14756 Y14.40129
G01 X39.18798 Y14.32804
G01 X39.22483 Y14.27731
G01 X39.28201 Y14.21628
G01 X39.34868 Y14.16578
G01 X39.40299 Y14.13444
G01 X39.48005 Y14.10193
G01 X39.56151 Y14.08293
G01 X39.63430 Y14.07541
G01 X40.46572 Y14.07541
G01 X40.53852 Y14.08293
G01 X40.58965 Y14.09380
G01 X40.61998 Y14.10193
G01 X40.69704 Y14.13444
G01 X40.75135 Y14.16578
G01 X40.81802 Y14.21628
G01 X40.84022 Y14.23848
G01 X40.89496 Y14.30172
G01 X40.95244 Y14.40129
G01 X40.98797 Y14.51064
G01 X40.99999 Y14.62499
G01 X40.99999 Y14.74000
G01 X40.96092 Y14.78117
G01 X40.99999 Y14.74000
G01 X42.96003 Y14.74000
G01 X43.00397 Y14.78392
G01 X42.96003 Y14.74000
G01 X42.96003 Y14.48999
G01 X42.96579 Y14.43147
G01 X42.98286 Y14.37518
G01 X43.01057 Y14.32331
G01 X43.04789 Y14.27787
G01 X43.09335 Y14.24056
G01 X43.14522 Y14.21285
G01 X43.20148 Y14.19576
G01 X43.26000 Y14.19001
G01 X44.86002 Y14.19001
G01 X44.91855 Y14.19576
G01 X44.97481 Y14.21285
G01 X45.02667 Y14.24056
G01 X45.07214 Y14.27787
G01 X45.10945 Y14.32331
G01 X45.13716 Y14.37518
G01 X45.15423 Y14.43147
G01 X45.16000 Y14.48999
G01 X45.01001 Y14.48999
G01 X45.00714 Y14.46073
G01 X44.99861 Y14.43258
G01 X44.98474 Y14.40665
G01 X44.96607 Y14.38392
G01 X44.94334 Y14.36527
G01 X44.91743 Y14.35141
G01 X44.88928 Y14.34287
G01 X44.86002 Y14.33998
G01 X43.26000 Y14.33998
G01 X43.23074 Y14.34287
G01 X43.20260 Y14.35141
G01 X43.17669 Y14.36527
G01 X43.15396 Y14.38392
G01 X43.13529 Y14.40665
G01 X43.12142 Y14.43258
G01 X43.11288 Y14.46073
G01 X43.11001 Y14.48999
G01 X43.11001 Y14.88996
G01 X40.85002 Y14.88996
G01 X40.84919 Y14.60932
G01 X40.84126 Y14.54183
G01 X40.82107 Y14.47696
G01 X40.78218 Y14.40304
G01 X40.76374 Y14.37767
G01 X40.71766 Y14.32773
G01 X40.63603 Y14.27145
G01 X40.55846 Y14.24051
G01 X40.50733 Y14.22964
G01 X40.45002 Y14.22499
G01 X39.65000 Y14.22499
G01 X39.59270 Y14.22964
G01 X39.52640 Y14.24457
G01 X39.43684 Y14.28712
G01 X39.38236 Y14.32773
G01 X39.33629 Y14.37767
G01 X39.28460 Y14.46230
G01 X39.25876 Y14.54183
G01 X39.25000 Y14.62499
G01 X39.25000 Y15.87500
G01 X39.25876 Y15.95816
G01 X39.27896 Y16.02303
G01 X39.31785 Y16.09695
G01 X39.33629 Y16.12229
G01 X39.38236 Y16.17226
G01 X39.45000 Y16.22141
G01 X39.52640 Y16.25542
G01 X39.60819 Y16.27279
G01 X40.47614 Y16.27363
G01 X40.57362 Y16.25542
G01 X40.63603 Y16.22852
G01 X40.70547 Y16.18214
G01 X40.72876 Y16.16113
G01 X40.77362 Y16.11010
G01 X40.81543 Y16.03769
G01 X40.84126 Y15.95816
G01 X40.84919 Y15.89067
G01 X40.85002 Y15.68999
G01 X43.11001 Y15.68999
G01 X43.11001 Y16.08999
G01 X43.11288 Y16.11925
G01 X43.12142 Y16.14739
G01 X43.13529 Y16.17332
G01 X43.15396 Y16.19606
G01 X43.17669 Y16.21470
G01 X43.20260 Y16.22857
G01 X43.23074 Y16.23710
G01 X43.26000 Y16.24000
G01 X44.86002 Y16.24000
G01 X44.88928 Y16.23710
G01 X44.91743 Y16.22857
G01 X44.94334 Y16.21470
G01 X44.96607 Y16.19606
G01 X44.98474 Y16.17332
G01 X44.99861 Y16.14739
G01 X45.00714 Y16.11925
G01 X45.01001 Y16.08999
G01 X45.01001 Y14.48999
G04 P0 ( dwell for no time -- G64 should not smooth over this point )
G00 Z5.00000 ( retract )

G00 X45.01001 Y6.86999 ( rapid move to begin. )
G01 F200.00000
( Mill infeed pass 1/1 )
G01 Z-0.15000
G04 P0 ( dwell for no time -- G64 should not smooth over this point )
G01 F200.00000
G01 X45.01001 Y6.86999
G01 X45.01001 Y8.46999
G01 X45.00714 Y8.49925
G01 X44.99861 Y8.52739
G01 X44.98474 Y8.55332
G01 X44.96607 Y8.57606
G01 X44.94334 Y8.59470
G01 X44.91743 Y8.60857
G01 X44.88928 Y8.61710
G01 X44.86002 Y8.62000
G01 X43.26000 Y8.62000
G01 X43.23074 Y8.61710
G01 X43.20260 Y8.60857
G01 X43.17669 Y8.59470
G01 X43.15396 Y8.57606
G01 X43.13529 Y8.55332
G01 X43.12142 Y8.52739
G01 X43.11288 Y8.49925
G01 X43.11001 Y8.46999
G01 X43.11001 Y6.86999
G01 X43.11288 Y6.84073
G01 X43.12142 Y6.81258
G01 X43.13529 Y6.78665
G01 X43.15396 Y6.76392
G01 X43.17669 Y6.74527
G01 X43.20260 Y6.73141
G01 X43.23074 Y6.72287
G01 X43.26000 Y6.71998
G01 X44.86002 Y6.71998
G01 X44.88928 Y6.72287
G01 X44.91743 Y6.73141
G01 X44.94334 Y6.74527
G01 X44.96607 Y6.76392
G01 X44.98474 Y6.78665
G01 X44.99861 Y6.81258
G01 X45.00714 Y6.84073
G01 X45.01001 Y6.86999
G01 X45.16000 Y6.86999
G01 X45.15423 Y6.81147
G01 X45.13716 Y6.75518
G01 X45.10945 Y6.70331
G01 X45.07214 Y6.65787
G01 X45.02667 Y6.62056
G01 X44.97481 Y6.59285
G01 X44.91855 Y6.57576
G01 X44.86002 Y6.57001
G01 X43.26000 Y6.57001
G01 X43.20148 Y6.57576
G01 X43.14522 Y6.59285
G01 X43.09335 Y6.62056
G01 X43.04789 Y6.65787
G01 X43.01057 Y6.70331
G01 X42.98286 Y6.75518
G01 X42.96579 Y6.81147
G01 X42.96003 Y6.86999
G01 X42.96003 Y8.46999
G01 X42.96579 Y8.52851
G01 X42.98286 Y8.58479
G01 X43.01057 Y8.63666
G01 X43.04789 Y8.68210
G01 X43.09335 Y8.71941
G01 X43.14522 Y8.74712
G01 X43.20148 Y8.76422
G01 X43.26000 Y8.76999
G01 X44.86002 Y8.76999
G01 X44.91855 Y8.76422
G01 X44.97481 Y8.74712
G01 X45.02667 Y8.71941
G01 X45.07214 Y8.68210
G01 X45.10945 Y8.63666
G01 X45.13716 Y8.58479
G01 X45.15423 Y8.52851
G01 X45.16000 Y8.46999
G01 X45.16000 Y6.86999
G01 X45.60996 Y6.86999
G01 X45.59553 Y6.72368
G01 X45.55286 Y6.58299
G01 X45.49513 Y6.47494
G01 X42.62490 Y6.47494
G01 X42.56717 Y6.58299
G01 X42.52449 Y6.72368
G01 X42.51007 Y6.86999
G01 X42.51007 Y8.46999
G01 X42.52449 Y8.61629
G01 X42.56717 Y8.75698
G01 X42.62490 Y8.86498
G01 X43.04905 Y8.86498
G01 X42.81179 Y8.86498
G01 X42.76117 Y8.80331
G01 X42.70572 Y8.69958
G01 X42.67159 Y8.58703
G01 X42.66005 Y8.46999
G01 X42.66005 Y6.86999
G01 X42.67159 Y6.75295
G01 X42.70572 Y6.64040
G01 X42.76117 Y6.53666
G01 X42.81182 Y6.47494
G01 X43.04911 Y6.47494
G01 X43.01001 Y6.49585
G01 X42.94184 Y6.55178
G01 X42.88588 Y6.61998
G01 X42.84431 Y6.69780
G01 X42.81868 Y6.78221
G01 X42.81004 Y6.86999
G01 X42.81004 Y8.46999
G01 X42.81868 Y8.55777
G01 X42.84431 Y8.64217
G01 X42.88588 Y8.71997
G01 X42.94184 Y8.78817
G01 X43.01001 Y8.84413
G01 X43.04905 Y8.86498
G01 X45.30823 Y8.86498
G01 X45.07097 Y8.86498
G01 X45.11001 Y8.84413
G01 X45.17818 Y8.78817
G01 X45.23414 Y8.71997
G01 X45.27572 Y8.64217
G01 X45.30135 Y8.55777
G01 X45.30998 Y8.46999
G01 X45.30998 Y6.86999
G01 X45.30135 Y6.78221
G01 X45.27572 Y6.69780
G01 X45.23414 Y6.61998
G01 X45.17818 Y6.55178
G01 X45.11001 Y6.49585
G01 X45.07092 Y6.47494
G01 X45.30821 Y6.47494
G01 X45.35885 Y6.53666
G01 X45.41430 Y6.64040
G01 X45.44844 Y6.75295
G01 X45.45997 Y6.86999
G01 X45.45997 Y8.46999
G01 X45.44844 Y8.58703
G01 X45.41430 Y8.69958
G01 X45.35885 Y8.80331
G01 X45.30823 Y8.86498
G01 X45.49513 Y8.86498
G01 X45.55286 Y8.75698
G01 X45.59553 Y8.61629
G01 X45.60996 Y8.46999
G01 X45.60996 Y4.32999
G01 X45.01001 Y4.32999
G01 X45.01001 Y5.92999
G01 X45.00714 Y5.95925
G01 X44.99861 Y5.98739
G01 X44.98474 Y6.01332
G01 X44.96607 Y6.03606
G01 X44.94334 Y6.05470
G01 X44.91743 Y6.06857
G01 X44.88928 Y6.07710
G01 X44.86002 Y6.08000
G01 X43.26000 Y6.08000
G01 X43.23074 Y6.07710
G01 X43.20260 Y6.06857
G01 X43.17669 Y6.05470
G01 X43.15396 Y6.03606
G01 X43.13529 Y6.01332
G01 X43.12142 Y5.98739
G01 X43.11288 Y5.95925
G01 X43.11001 Y5.92999
G01 X43.11001 Y4.32999
G01 X43.11288 Y4.30073
G01 X43.12142 Y4.27258
G01 X43.13529 Y4.24665
G01 X43.15396 Y4.22392
G01 X43.17669 Y4.20527
G01 X43.20260 Y4.19141
G01 X43.23074 Y4.18287
G01 X43.26000 Y4.17998
G01 X44.86002 Y4.17998
G01 X44.88928 Y4.18287
G01 X44.91743 Y4.19141
G01 X44.94334 Y4.20527
G01 X44.96607 Y4.22392
G01 X44.98474 Y4.24665
G01 X44.99861 Y4.27258
G01 X45.00714 Y4.30073
G01 X45.01001 Y4.32999
G01 X45.16000 Y4.32999
G01 X45.15423 Y4.27147
G01 X45.13716 Y4.21518
G01 X45.10945 Y4.16331
G01 X45.07214 Y4.11787
G01 X45.02667 Y4.08056
G01 X44.97481 Y4.05285
G01 X44.91855 Y4.03576
G01 X44.86002 Y4.03001
G01 X43.26000 Y4.03001
G01 X43.20148 Y4.03576
G01 X43.14522 Y4.05285
G01 X43.09335 Y4.08056
G01 X43.04789 Y4.11787
G01 X43.01057 Y4.16331
G01 X42.98286 Y4.21518
G01 X42.96579 Y4.27147
G01 X42.96003 Y4.32999
G01 X42.96003 Y5.92999
G01 X42.96579 Y5.98851
G01 X42.98286 Y6.04479
G01 X43.01057 Y6.09666
G01 X43.04789 Y6.14210
G01 X43.09335 Y6.17941
G01 X43.14522 Y6.20712
G01 X43.20148 Y6.22422
G01 X43.26000 Y6.22998
G01 X44.86002 Y6.22998
G01 X44.91855 Y6.22422
G01 X44.97481 Y6.20712
G01 X45.02667 Y6.17941
G01 X45.07214 Y6.14210
G01 X45.10945 Y6.09666
G01 X45.13716 Y6.04479
G01 X45.15423 Y5.98851
G01 X45.16000 Y5.92999
G01 X45.16000 Y4.32999
G01 X45.60996 Y4.32999
G01 X45.59553 Y4.18368
G01 X45.55286 Y4.04299
G01 X45.48357 Y3.91335
G01 X45.39030 Y3.79969
G01 X45.27666 Y3.70644
G01 X45.14699 Y3.63713
G01 X45.00633 Y3.59446
G01 X44.86002 Y3.58005
G01 X43.26000 Y3.58005
G01 X43.11370 Y3.59446
G01 X42.97303 Y3.63713
G01 X42.84337 Y3.70644
G01 X42.72973 Y3.79969
G01 X42.63646 Y3.91335
G01 X42.56717 Y4.04299
G01 X42.52449 Y4.18368
G01 X42.51007 Y4.32999
G01 X42.51007 Y5.92999
G01 X42.52449 Y6.07629
G01 X42.56717 Y6.21698
G01 X42.62490 Y6.32498
G01 X45.30823 Y6.32498
G01 X45.07097 Y6.32498
G01 X45.11001 Y6.30413
G01 X45.17818 Y6.24817
G01 X45.23414 Y6.17997
G01 X45.27572 Y6.10217
G01 X45.30135 Y6.01777
G01 X45.30998 Y5.92999
G01 X45.30998 Y4.32999
G01 X45.30135 Y4.24221
G01 X45.27572 Y4.15780
G01 X45.23414 Y4.08000
G01 X45.17818 Y4.01180
G01 X45.11001 Y3.95585
G01 X45.03221 Y3.91427
G01 X44.94781 Y3.88866
G01 X44.86002 Y3.88003
G01 X43.26000 Y3.88003
G01 X43.17222 Y3.88866
G01 X43.08781 Y3.91427
G01 X43.01001 Y3.95585
G01 X42.94184 Y4.01180
G01 X42.88588 Y4.08000
G01 X42.84431 Y4.15780
G01 X42.81868 Y4.24221
G01 X42.81004 Y4.32999
G01 X42.81004 Y5.92999
G01 X42.81868 Y6.01777
G01 X42.84431 Y6.10217
G01 X42.88588 Y6.17997
G01 X42.94184 Y6.24817
G01 X43.01001 Y6.30413
G01 X43.04905 Y6.32498
G01 X42.81179 Y6.32498
G01 X42.76117 Y6.26331
G01 X42.70572 Y6.15958
G01 X42.67159 Y6.04703
G01 X42.66005 Y5.92999
G01 X42.66005 Y4.32999
G01 X42.67159 Y4.21295
G01 X42.70572 Y4.10040
G01 X42.76117 Y3.99666
G01 X42.83577 Y3.90576
G01 X42.92670 Y3.83113
G01 X43.03041 Y3.77571
G01 X43.14296 Y3.74157
G01 X43.26000 Y3.73004
G01 X44.86002 Y3.73004
G01 X44.97707 Y3.74157
G01 X45.08961 Y3.77571
G01 X45.19332 Y3.83113
G01 X45.28425 Y3.90576
G01 X45.35885 Y3.99666
G01 X45.41430 Y4.10040
G01 X45.44844 Y4.21295
G01 X45.45997 Y4.32999
G01 X45.45997 Y5.92999
G01 X45.44844 Y6.04703
G01 X45.41430 Y6.15958
G01 X45.35885 Y6.26331
G01 X45.30823 Y6.32498
G01 X45.49513 Y6.32498
G01 X45.55286 Y6.21698
G01 X45.59553 Y6.07629
G01 X45.60996 Y5.92999
G04 P0 ( dwell for no time -- G64 should not smooth over this point )
G00 Z5.00000 ( retract )

G00 X36.39761 Y13.64526 ( rapid move to begin. )
G01 F200.00000
( Mill infeed pass 1/1 )
G01 Z-0.15000
G04 P0 ( dwell for no time -- G64 should not smooth over this point )
G01 F200.00000
G01 X36.39761 Y13.64526
G01 X36.06794 Y13.74988
G01 X35.24221 Y13.74988
G01 X35.23749 Y13.73848
G01 X35.24221 Y13.74988
G01 X34.74209 Y14.25003
G01 X34.51857 Y14.34262
G01 X34.74209 Y14.25003
G01 X35.62433 Y14.25003
G01 X35.63807 Y14.27234
G01 X35.62433 Y14.25003
G01 X35.67216 Y14.14833
G01 X35.74104 Y14.03723
G01 X35.79045 Y13.97622
G01 X35.88092 Y13.88189
G01 X35.98420 Y13.80178
G01 X36.06794 Y13.74988
G04 P0 ( dwell for no time -- G64 should not smooth over this point )
G00 Z5.00000 ( retract )

G00 X30.59452 Y15.81909 ( rapid move to begin. )
G01 F200.00000
( Mill infeed pass 1/1 )
G01 Z-0.15000
G04 P0 ( dwell for no time -- G64 should not smooth over this point )
G01 F200.00000
G01 X30.59452 Y15.81909
G01 X30.65464 Y15.74582
G01 X30.72922 Y15.66583
G01 X34.27239 Y12.12405
G01 X34.40612 Y12.00981
G01 X34.52268 Y11.92698
G01 X34.65141 Y11.84986
G01 X34.76063 Y11.79429
G01 X34.86007 Y11.75001
G01 X42.54078 Y11.75001
G01 X42.56264 Y11.77953
G01 X42.54078 Y11.75001
G01 X42.56717 Y11.66299
G01 X42.62490 Y11.55494
G01 X45.30821 Y11.55497
G01 X45.35885 Y11.61666
G01 X45.41430 Y11.72040
G01 X45.44844 Y11.83295
G01 X45.45997 Y11.94999
G01 X45.60996 Y11.94999
G01 X45.16000 Y11.94999
G01 X45.16000 Y13.54999
G01 X45.15423 Y13.60851
G01 X45.13716 Y13.66479
G01 X45.10945 Y13.71666
G01 X45.07214 Y13.76210
G01 X45.02667 Y13.79941
G01 X44.97481 Y13.82713
G01 X44.91855 Y13.84422
G01 X44.86002 Y13.84998
G01 X43.26000 Y13.84998
G01 X43.20148 Y13.84422
G01 X43.14522 Y13.82713
G01 X43.09335 Y13.79941
G01 X43.04789 Y13.76210
G01 X43.01057 Y13.71666
G01 X42.98286 Y13.66479
G01 X42.96579 Y13.60851
G01 X42.96003 Y13.54999
G01 X42.96003 Y13.29990
G01 X43.00397 Y13.25598
G01 X42.96003 Y13.29990
G01 X35.05583 Y13.29990
G01 X35.05110 Y13.28852
G01 X35.05583 Y13.29990
G01 X33.65580 Y14.70000
G01 X33.43228 Y14.79258
G01 X33.65580 Y14.70000
G01 X36.00002 Y14.70000
G01 X36.03815 Y14.74061
G01 X36.00002 Y14.70000
G01 X36.00002 Y14.62499
G01 X36.01204 Y14.51064
G01 X36.04757 Y14.40129
G01 X36.10508 Y14.30172
G01 X36.15979 Y14.23848
G01 X36.18201 Y14.21628
G01 X36.24869 Y14.16578
G01 X36.30299 Y14.13444
G01 X36.38006 Y14.10193
G01 X36.41038 Y14.09380
G01 X36.46151 Y14.08293
G01 X36.53431 Y14.07541
G01 X37.37665 Y14.07638
G01 X37.40774 Y14.07805
G01 X37.48963 Y14.09380
G01 X37.54929 Y14.11318
G01 X37.62501 Y14.14869
G01 X37.69362 Y14.19652
G01 X37.74023 Y14.23848
G01 X37.79496 Y14.30172
G01 X37.83819 Y14.37330
G01 X37.86370 Y14.43060
G01 X37.88798 Y14.51064
G01 X37.89999 Y14.62499
G01 X37.89999 Y15.87500
G01 X37.89288 Y15.95831
G01 X37.87985 Y16.01965
G01 X37.85244 Y16.09870
G01 X37.81206 Y16.17193
G01 X37.77520 Y16.22268
G01 X37.71803 Y16.28371
G01 X37.65135 Y16.33418
G01 X37.59702 Y16.36555
G01 X37.51996 Y16.39806
G01 X37.43852 Y16.41704
G01 X37.37665 Y16.42361
G01 X36.53431 Y16.42455
G01 X36.46151 Y16.41704
G01 X36.38006 Y16.39806
G01 X36.27503 Y16.35130
G01 X36.18201 Y16.28371
G01 X36.10508 Y16.19827
G01 X36.04757 Y16.09870
G01 X36.01204 Y15.98933
G01 X36.00167 Y15.90634
G01 X36.00002 Y15.79994
G01 X36.03578 Y15.76075
G01 X36.00002 Y15.79994
G01 X32.55583 Y15.79994
G01 X32.55111 Y15.78854
G01 X32.55583 Y15.79994
G01 X31.87001 Y16.48577
G01 X31.85860 Y16.48104
G01 X31.87001 Y16.48577
G01 X31.87001 Y23.14999
G01 X31.82609 Y23.19393
G01 X31.87001 Y23.14999
G01 X32.12002 Y23.14999
G01 X32.17854 Y23.15576
G01 X32.23480 Y23.17283
G01 X32.28667 Y23.20056
G01 X32.33213 Y23.23788
G01 X32.36945 Y23.28332
G01 X32.39716 Y23.33518
G01 X32.41423 Y23.39147
G01 X32.41999 Y23.44999
G01 X32.41999 Y25.04999
G01 X32.41423 Y25.10851
G01 X32.39716 Y25.16480
G01 X32.36945 Y25.21664
G01 X32.33213 Y25.26210
G01 X32.28667 Y25.29942
G01 X32.23480 Y25.32713
G01 X32.17854 Y25.34420
G01 X32.12002 Y25.34996
G01 X30.52002 Y25.34996
G01 X30.46150 Y25.34420
G01 X30.40521 Y25.32713
G01 X30.35335 Y25.29942
G01 X30.30788 Y25.26210
G01 X30.27059 Y25.21664
G01 X30.24286 Y25.16480
G01 X30.22579 Y25.10851
G01 X30.22002 Y25.04999
G01 X30.22002 Y23.44999
G01 X30.22579 Y23.39147
G01 X30.24286 Y23.33518
G01 X30.27059 Y23.28332
G01 X30.30788 Y23.23788
G01 X30.35335 Y23.20056
G01 X30.40521 Y23.17283
G01 X30.46150 Y23.15576
G01 X30.52002 Y23.14999
G01 X30.77006 Y23.14999
G01 X30.81398 Y23.19393
G01 X30.77006 Y23.14999
G01 X30.77006 Y16.25798
G01 X30.77631 Y16.17980
G01 X30.78776 Y16.12212
G01 X30.80199 Y16.07523
G01 X30.82449 Y16.02090
G01 X30.84761 Y15.97767
G01 X30.88027 Y15.92877
G01 X30.93112 Y15.86908
G01 X34.43911 Y12.36106
G01 X34.48626 Y12.31958
G01 X34.55778 Y12.27143
G01 X34.59972 Y12.25004
G01 X34.68075 Y12.22050
G01 X34.76538 Y12.20396
G01 X34.82801 Y12.19998
G01 X42.96003 Y12.19998
G01 X43.00397 Y12.24389
G01 X42.96003 Y12.19998
G01 X42.96003 Y11.94999
G01 X42.96579 Y11.89147
G01 X42.98286 Y11.83518
G01 X43.01057 Y11.78331
G01 X43.04789 Y11.73787
G01 X43.09335 Y11.70056
G01 X43.14522 Y11.67285
G01 X43.20148 Y11.65576
G01 X43.26000 Y11.65001
G01 X44.86002 Y11.65001
G01 X44.91855 Y11.65576
G01 X44.97481 Y11.67285
G01 X45.02667 Y11.70056
G01 X45.07214 Y11.73787
G01 X45.10945 Y11.78331
G01 X45.13716 Y11.83518
G01 X45.15423 Y11.89147
G01 X45.16000 Y11.94999
G01 X45.01001 Y11.94999
G01 X45.00714 Y11.92073
G01 X44.99861 Y11.89258
G01 X44.98474 Y11.86665
G01 X44.96607 Y11.84392
G01 X44.94334 Y11.82527
G01 X44.91743 Y11.81141
G01 X44.88928 Y11.80287
G01 X44.86002 Y11.79998
G01 X43.26000 Y11.79998
G01 X43.23074 Y11.80287
G01 X43.20260 Y11.81141
G01 X43.17669 Y11.82527
G01 X43.15396 Y11.84392
G01 X43.13529 Y11.86665
G01 X43.12142 Y11.89258
G01 X43.11288 Y11.92073
G01 X43.11001 Y11.94999
G01 X43.11001 Y12.34994
G01 X34.82801 Y12.34994
G01 X34.77714 Y12.35349
G01 X34.71575 Y12.36632
G01 X34.63614 Y12.39929
G01 X34.58367 Y12.43363
G01 X34.54519 Y12.46711
G01 X31.03719 Y15.97513
G01 X30.99622 Y16.02392
G01 X30.95677 Y16.09159
G01 X30.93130 Y16.16565
G01 X30.92002 Y16.25798
G01 X30.92002 Y23.29998
G01 X30.52002 Y23.29998
G01 X30.49076 Y23.30287
G01 X30.46262 Y23.31141
G01 X30.43668 Y23.32528
G01 X30.41395 Y23.34392
G01 X30.39528 Y23.36665
G01 X30.38144 Y23.39259
G01 X30.37291 Y23.42073
G01 X30.37001 Y23.44999
G01 X30.37001 Y25.04999
G01 X30.37291 Y25.07925
G01 X30.38144 Y25.10739
G01 X30.39528 Y25.13333
G01 X30.41395 Y25.15606
G01 X30.43668 Y25.17470
G01 X30.46262 Y25.18857
G01 X30.49076 Y25.19710
G01 X30.52002 Y25.19997
G01 X32.12002 Y25.19997
G01 X32.14928 Y25.19710
G01 X32.17742 Y25.18857
G01 X32.20336 Y25.17470
G01 X32.22609 Y25.15606
G01 X32.24473 Y25.13333
G01 X32.25860 Y25.10739
G01 X32.26714 Y25.07925
G01 X32.27001 Y25.04999
G01 X32.27001 Y23.44999
G01 X32.26714 Y23.42073
G01 X32.25860 Y23.39259
G01 X32.24473 Y23.36665
G01 X32.22609 Y23.34392
G01 X32.20336 Y23.32528
G01 X32.17742 Y23.31141
G01 X32.14928 Y23.30287
G01 X32.12002 Y23.29998
G01 X31.72004 Y23.29998
G01 X31.72004 Y16.42367
G01 X32.49370 Y15.64998
G01 X36.15001 Y15.64998
G01 X36.15001 Y15.87500
G01 X36.15631 Y15.94264
G01 X36.18460 Y16.03769
G01 X36.21785 Y16.09695
G01 X36.28237 Y16.17226
G01 X36.35001 Y16.22141
G01 X36.42641 Y16.25542
G01 X36.51602 Y16.27342
G01 X37.37640 Y16.27363
G01 X37.45846 Y16.25948
G01 X37.55001 Y16.22141
G01 X37.62877 Y16.16113
G01 X37.67363 Y16.11010
G01 X37.70830 Y16.05168
G01 X37.74127 Y15.95816
G01 X37.75000 Y15.87500
G01 X37.75000 Y14.62499
G01 X37.74127 Y14.54183
G01 X37.70830 Y14.44831
G01 X37.67363 Y14.38986
G01 X37.62877 Y14.33883
G01 X37.55001 Y14.27858
G01 X37.45846 Y14.24051
G01 X37.37640 Y14.22636
G01 X36.54216 Y14.22519
G01 X36.49270 Y14.22964
G01 X36.44157 Y14.24051
G01 X36.36400 Y14.27145
G01 X36.28237 Y14.32773
G01 X36.23629 Y14.37767
G01 X36.19171 Y14.44831
G01 X36.17896 Y14.47696
G01 X36.15875 Y14.54183
G01 X36.15085 Y14.60932
G01 X36.15001 Y14.84996
G01 X33.29370 Y14.84996
G01 X34.99372 Y13.14996
G01 X43.11001 Y13.14996
G01 X43.11001 Y13.54999
G01 X43.11288 Y13.57925
G01 X43.12142 Y13.60739
G01 X43.13529 Y13.63332
G01 X43.15396 Y13.65606
G01 X43.17669 Y13.67470
G01 X43.20260 Y13.68857
G01 X43.23074 Y13.69710
G01 X43.26000 Y13.70000
G01 X44.86002 Y13.70000
G01 X44.88928 Y13.69710
G01 X44.91743 Y13.68857
G01 X44.94334 Y13.67470
G01 X44.96607 Y13.65606
G01 X44.98474 Y13.63332
G01 X44.99861 Y13.60739
G01 X45.00714 Y13.57925
G01 X45.01001 Y13.54999
G01 X45.01001 Y11.94999
G01 X45.45997 Y11.94999
G01 X45.45997 Y13.54999
G01 X45.44844 Y13.66703
G01 X45.41430 Y13.77958
G01 X45.35885 Y13.88331
G01 X45.30828 Y13.94496
G01 X45.07102 Y13.94496
G01 X45.11001 Y13.92413
G01 X45.17818 Y13.86817
G01 X45.23414 Y13.79997
G01 X45.27572 Y13.72217
G01 X45.30135 Y13.63777
G01 X45.30998 Y13.54999
G01 X45.30998 Y11.94999
G01 X45.30135 Y11.86221
G01 X45.27572 Y11.77780
G01 X45.23414 Y11.70000
G01 X45.17818 Y11.63180
G01 X45.11001 Y11.57585
G01 X45.07092 Y11.55497
G01 X44.06003 Y11.55494
G01 X45.49513 Y11.55497
G01 X45.55286 Y11.66299
G01 X45.59553 Y11.80368
G01 X45.60996 Y11.94999
G01 X45.60996 Y13.54999
G01 X45.59553 Y13.69629
G01 X45.55286 Y13.83698
G01 X45.49515 Y13.94498
G01 X43.04900 Y13.94496
G01 X43.01001 Y13.92413
G01 X42.94184 Y13.86817
G01 X42.88588 Y13.79997
G01 X42.84431 Y13.72217
G01 X42.81868 Y13.63777
G01 X42.81004 Y13.54999
G01 X42.81004 Y13.44991
G01 X42.84969 Y13.40841
G01 X42.81004 Y13.44991
G01 X35.11796 Y13.44991
G01 X35.11323 Y13.43850
G01 X35.11796 Y13.44991
G01 X34.01788 Y14.55001
G01 X33.79436 Y14.64259
G01 X34.01788 Y14.55001
G01 X35.85544 Y14.55001
G01 X35.88140 Y14.58262
G01 X35.85544 Y14.55001
G01 X35.86535 Y14.47945
G01 X35.87752 Y14.43396
G01 X35.91056 Y14.34028
G01 X35.98371 Y14.21356
G01 X36.04833 Y14.13812
G01 X36.11823 Y14.07516
G01 X36.20002 Y14.01879
G01 X36.33370 Y13.95928
G01 X36.43032 Y13.93622
G01 X36.50032 Y13.92700
G01 X36.55077 Y13.92502
G01 X37.37688 Y13.92639
G01 X37.46969 Y13.93622
G01 X37.56631 Y13.95928
G01 X37.65803 Y13.99741
G01 X37.73949 Y14.04445
G01 X37.81838 Y14.10480
G01 X37.88666 Y14.17696
G01 X37.94195 Y14.25306
G01 X37.98948 Y14.34028
G01 X38.03469 Y14.47945
G01 X38.04998 Y14.62499
G01 X38.04998 Y15.87500
G01 X38.04205 Y15.97401
G01 X38.02250 Y16.06601
G01 X37.98948 Y16.15968
G01 X37.91630 Y16.28643
G01 X37.85168 Y16.36187
G01 X37.78178 Y16.42481
G01 X37.69999 Y16.48117
G01 X37.61028 Y16.52382
G01 X37.52082 Y16.55290
G01 X37.42354 Y16.57109
G01 X37.37688 Y16.57358
G01 X36.55077 Y16.57495
G01 X36.50032 Y16.57297
G01 X36.43032 Y16.56375
G01 X36.33370 Y16.54071
G01 X36.20002 Y16.48117
G01 X36.08163 Y16.39517
G01 X35.98371 Y16.28643
G01 X35.91056 Y16.15968
G01 X35.87752 Y16.06601
G01 X35.85796 Y15.97401
G01 X35.85544 Y15.94993
G01 X35.87952 Y15.91871
G01 X35.85544 Y15.94993
G01 X32.61796 Y15.94993
G01 X32.61324 Y15.93853
G01 X32.61796 Y15.94993
G01 X32.01999 Y16.54790
G01 X32.00859 Y16.54317
G01 X32.01999 Y16.54790
G01 X32.01999 Y23.00000
G01 X31.97849 Y23.03968
G01 X32.01999 Y23.00000
G01 X32.12002 Y23.00000
G01 X32.20780 Y23.00867
G01 X32.29221 Y23.03427
G01 X32.37001 Y23.07585
G01 X32.43818 Y23.13181
G01 X32.49416 Y23.20000
G01 X32.51504 Y23.23909
G01 X32.51504 Y23.00178
G01 X32.45332 Y22.95114
G01 X32.34961 Y22.89571
G01 X32.23706 Y22.86155
G01 X32.16998 Y22.85495
G01 X32.13721 Y22.88113
G01 X32.16998 Y22.85495
G01 X32.16998 Y16.61003
G01 X32.15858 Y16.60530
G01 X32.16998 Y16.61003
G01 X32.68009 Y16.09992
G01 X32.67536 Y16.08851
G01 X32.68009 Y16.09992
G01 X35.73154 Y16.09992
G01 X35.74762 Y16.07538
G01 X35.73154 Y16.09992
G01 X35.77353 Y16.22069
G01 X35.82819 Y16.32191
G01 X35.86238 Y16.37457
G01 X35.90190 Y16.42339
G01 X35.98128 Y16.50662
G01 X36.07236 Y16.57688
G01 X36.12504 Y16.61107
G01 X36.18100 Y16.63959
G01 X36.28737 Y16.68335
G01 X36.39913 Y16.71046
G01 X36.51861 Y16.72412
G01 X37.37713 Y16.72356
G01 X37.43936 Y16.72024
G01 X37.55201 Y16.69959
G01 X37.61267 Y16.68335
G01 X37.71904 Y16.63959
G01 X37.77500 Y16.61107
G01 X37.82765 Y16.57688
G01 X37.91874 Y16.50662
G01 X37.99811 Y16.42339
G01 X38.03763 Y16.37457
G01 X38.07185 Y16.32191
G01 X38.12648 Y16.22069
G01 X38.16514 Y16.11236
G01 X38.18140 Y16.05171
G01 X38.19123 Y15.98968
G01 X38.19997 Y15.87500
G01 X38.19997 Y14.62499
G01 X38.19123 Y14.51031
G01 X38.18140 Y14.44828
G01 X38.16514 Y14.38760
G01 X38.12648 Y14.27927
G01 X38.09798 Y14.22331
G01 X38.03763 Y14.12540
G01 X37.96314 Y14.03774
G01 X37.91874 Y13.99334
G01 X37.82765 Y13.92311
G01 X37.77500 Y13.88890
G01 X37.71904 Y13.86040
G01 X37.61267 Y13.81663
G01 X37.55201 Y13.80038
G01 X37.43936 Y13.77973
G01 X37.37713 Y13.77640
G01 X36.55100 Y13.77503
G01 X36.49248 Y13.77721
G01 X36.39913 Y13.78951
G01 X36.28737 Y13.81663
G01 X36.18100 Y13.86040
G01 X36.12504 Y13.88890
G01 X36.07236 Y13.92311
G01 X35.98128 Y13.99334
G01 X35.93688 Y14.03774
G01 X35.86238 Y14.12540
G01 X35.80205 Y14.22331
G01 X35.77353 Y14.27927
G01 X35.73490 Y14.38760
G01 X35.73157 Y14.40002
G01 X35.74765 Y14.42456
G01 X35.73157 Y14.40002
G01 X34.37998 Y14.40002
G01 X34.15646 Y14.49261
G01 X34.37998 Y14.40002
G01 X35.18008 Y13.59990
G01 X35.17536 Y13.58849
G01 X35.18008 Y13.59990
G01 X42.66498 Y13.59990
G01 X42.69117 Y13.56713
G01 X42.66498 Y13.59990
G01 X42.67159 Y13.66703
G01 X42.70572 Y13.77958
G01 X42.76117 Y13.88331
G01 X42.81177 Y13.94496
G01 X43.04900 Y13.94496
G01 X42.62487 Y13.94496
G01 X42.56717 Y13.83698
G01 X42.54075 Y13.74988
G01 X42.56262 Y13.72037
G01 X42.54075 Y13.74988
G01 X41.17509 Y13.74988
G01 X41.05587 Y13.70724
G01 X40.89000 Y13.66266
G01 X40.83786 Y13.65093
G01 X40.62869 Y13.62116
G01 X40.45005 Y13.61224
G01 X39.64904 Y13.61247
G01 X39.47131 Y13.62075
G01 X39.26232 Y13.65156
G01 X39.04789 Y13.70614
G01 X38.92496 Y13.74988
G01 X37.83207 Y13.74988
G01 X37.50241 Y13.64526
G01 X37.83207 Y13.74988
G01 X37.84998 Y13.75900
G01 X37.95811 Y13.83248
G01 X38.01909 Y13.88189
G01 X38.07462 Y13.93739
G01 X38.15897 Y14.03723
G01 X38.20174 Y14.10307
G01 X38.26349 Y14.21828
G01 X38.30779 Y14.34127
G01 X38.32811 Y14.41709
G01 X38.34038 Y14.49461
G01 X38.34995 Y14.62499
G01 X38.34995 Y15.87500
G01 X38.34584 Y15.95338
G01 X38.32811 Y16.08290
G01 X38.29163 Y16.20843
G01 X38.26349 Y16.28170
G01 X38.20174 Y16.39689
G01 X38.15897 Y16.46273
G01 X38.10959 Y16.52374
G01 X38.01909 Y16.61808
G01 X37.91582 Y16.69821
G01 X37.84998 Y16.74096
G01 X37.73230 Y16.79786
G01 X37.65902 Y16.82598
G01 X37.58318 Y16.84630
G01 X37.45516 Y16.86938
G01 X37.37739 Y16.87355
G01 X36.55125 Y16.87492
G01 X36.48463 Y16.87253
G01 X36.36797 Y16.85717
G01 X36.31684 Y16.84630
G01 X36.24102 Y16.82598
G01 X36.16774 Y16.79786
G01 X36.05003 Y16.74096
G01 X35.98420 Y16.69821
G01 X35.88092 Y16.61808
G01 X35.79045 Y16.52374
G01 X35.74104 Y16.46273
G01 X35.69829 Y16.39689
G01 X35.63652 Y16.28170
G01 X35.62433 Y16.24990
G01 X35.63670 Y16.22897
G01 X35.62433 Y16.24990
G01 X32.74222 Y16.24990
G01 X32.73749 Y16.23850
G01 X32.74222 Y16.24990
G01 X32.31997 Y16.67215
G01 X32.30856 Y16.66743
G01 X32.31997 Y16.67215
G01 X32.31997 Y22.73074
G01 X32.29045 Y22.75263
G01 X32.31997 Y22.73074
G01 X32.40701 Y22.75713
G01 X32.51504 Y22.81489
G01 X32.51504 Y25.26088
G01 X32.49416 Y25.29997
G01 X32.43818 Y25.36817
G01 X32.37001 Y25.42413
G01 X32.29221 Y25.46568
G01 X32.20780 Y25.49131
G01 X32.12002 Y25.49995
G01 X30.52002 Y25.49995
G01 X30.43224 Y25.49131
G01 X30.34781 Y25.46568
G01 X30.27004 Y25.42413
G01 X30.20184 Y25.36817
G01 X30.14588 Y25.29997
G01 X30.12503 Y25.26099
G01 X30.12503 Y25.49822
G01 X30.18670 Y25.54884
G01 X30.29043 Y25.60427
G01 X30.40298 Y25.63838
G01 X30.52002 Y25.64994
G01 X32.12002 Y25.64994
G01 X32.23706 Y25.63838
G01 X32.34961 Y25.60427
G01 X32.45332 Y25.54884
G01 X32.51504 Y25.49817
G01 X32.51504 Y25.26088
G01 X32.51504 Y25.68506
G01 X32.40701 Y25.74285
G01 X32.26632 Y25.78550
G01 X32.12002 Y25.79990
G01 X30.52002 Y25.79990
G01 X30.37372 Y25.78550
G01 X30.23303 Y25.74285
G01 X30.12503 Y25.68511
G01 X30.12503 Y22.81486
G01 X30.23303 Y22.75713
G01 X30.32010 Y22.73071
G01 X30.34961 Y22.75261
G01 X30.32010 Y22.73071
G01 X30.32010 Y16.29001
G01 X30.37562 Y16.16748
G01 X30.44601 Y16.03555
G01 X30.57301 Y15.84531
G01 X30.59452 Y15.81909
G01 X30.55995 Y15.87947
G01 X30.51494 Y15.98813
G01 X30.50072 Y16.03505
G01 X30.47778 Y16.15039
G01 X30.47009 Y16.25798
G01 X30.47009 Y22.85495
G01 X30.50285 Y22.88113
G01 X30.47009 Y22.85495
G01 X30.40298 Y22.86155
G01 X30.29043 Y22.89571
G01 X30.18670 Y22.95114
G01 X30.12503 Y23.00176
G01 X30.12503 Y23.23899
G01 X30.14588 Y23.20000
G01 X30.20184 Y23.13181
G01 X30.27004 Y23.07585
G01 X30.34781 Y23.03427
G01 X30.43224 Y23.00867
G01 X30.52002 Y23.00000
G01 X30.62007 Y23.00000
G01 X30.66158 Y23.03968
G01 X30.62007 Y23.00000
G01 X30.62007 Y16.25798
G01 X30.62703 Y16.16509
G01 X30.64425 Y16.07858
G01 X30.65848 Y16.03167
G01 X30.69223 Y15.95018
G01 X30.71532 Y15.90695
G01 X30.76434 Y15.83362
G01 X30.82508 Y15.76301
G01 X34.35903 Y12.23101
G01 X34.44597 Y12.16403
G01 X34.54234 Y12.11148
G01 X34.57859 Y12.09647
G01 X34.68387 Y12.06548
G01 X34.75362 Y12.05443
G01 X34.82801 Y12.04999
G01 X42.81004 Y12.04999
G01 X42.84969 Y12.09149
G01 X42.81004 Y12.04999
G01 X42.81004 Y11.94999
G01 X42.81868 Y11.86221
G01 X42.84431 Y11.77780
G01 X42.88588 Y11.70000
G01 X42.94184 Y11.63180
G01 X43.01001 Y11.57585
G01 X43.04911 Y11.55494
G01 X42.81182 Y11.55494
G01 X42.76117 Y11.61666
G01 X42.70572 Y11.72040
G01 X42.67159 Y11.83295
G01 X42.66498 Y11.90000
G01 X42.69117 Y11.93277
G01 X42.66498 Y11.90000
G01 X34.82801 Y11.90000
G01 X34.74186 Y11.90493
G01 X34.61072 Y11.92881
G01 X34.48494 Y11.97290
G01 X34.39058 Y12.02207
G01 X34.29784 Y11.90419
G01 X35.14209 Y11.05992
G01 X35.13736 Y11.04852
G01 X35.14209 Y11.05992
G01 X42.66498 Y11.05992
G01 X42.69117 Y11.02716
G01 X42.66498 Y11.05992
G01 X42.67159 Y11.12703
G01 X42.70572 Y11.23958
G01 X42.76117 Y11.34331
G01 X42.81177 Y11.40498
G01 X45.07100 Y11.40498
G01 X45.11001 Y11.38413
G01 X45.17818 Y11.32817
G01 X45.23414 Y11.25997
G01 X45.27572 Y11.18217
G01 X45.30135 Y11.09777
G01 X45.30998 Y11.00999
G01 X45.30998 Y9.40999
G01 X45.60996 Y9.40999
G01 X45.16000 Y9.40999
G01 X45.16000 Y11.00999
G01 X45.15423 Y11.06851
G01 X45.13716 Y11.12479
G01 X45.10945 Y11.17666
G01 X45.07214 Y11.22210
G01 X45.02667 Y11.25941
G01 X44.97481 Y11.28712
G01 X44.91855 Y11.30422
G01 X44.86002 Y11.30998
G01 X43.26000 Y11.30998
G01 X43.20148 Y11.30422
G01 X43.14522 Y11.28712
G01 X43.09335 Y11.25941
G01 X43.04789 Y11.22210
G01 X43.01057 Y11.17666
G01 X42.98286 Y11.12479
G01 X42.96579 Y11.06851
G01 X42.96003 Y11.00999
G01 X42.96003 Y10.75995
G01 X43.00397 Y10.71603
G01 X42.96003 Y10.75995
G01 X35.01783 Y10.75995
G01 X35.01310 Y10.74854
G01 X35.01783 Y10.75995
G01 X29.33001 Y16.44777
G01 X29.31860 Y16.44305
G01 X29.33001 Y16.44777
G01 X29.33001 Y23.14999
G01 X29.28609 Y23.19393
G01 X29.33001 Y23.14999
G01 X29.58002 Y23.14999
G01 X29.63854 Y23.15576
G01 X29.69480 Y23.17283
G01 X29.74667 Y23.20056
G01 X29.79213 Y23.23788
G01 X29.82945 Y23.28332
G01 X29.85716 Y23.33518
G01 X29.87423 Y23.39147
G01 X29.87999 Y23.44999
G01 X29.87999 Y25.04999
G01 X29.87423 Y25.10851
G01 X29.85716 Y25.16480
G01 X29.82945 Y25.21664
G01 X29.79213 Y25.26210
G01 X29.74667 Y25.29942
G01 X29.69480 Y25.32713
G01 X29.63854 Y25.34420
G01 X29.58002 Y25.34996
G01 X27.98002 Y25.34996
G01 X27.92150 Y25.34420
G01 X27.86521 Y25.32713
G01 X27.81335 Y25.29942
G01 X27.76788 Y25.26210
G01 X27.73059 Y25.21664
G01 X27.70286 Y25.16480
G01 X27.68579 Y25.10851
G01 X27.68002 Y25.04999
G01 X27.68002 Y23.44999
G01 X27.68579 Y23.39147
G01 X27.70286 Y23.33518
G01 X27.73059 Y23.28332
G01 X27.76788 Y23.23788
G01 X27.81335 Y23.20056
G01 X27.86521 Y23.17283
G01 X27.92150 Y23.15576
G01 X27.98002 Y23.14999
G01 X28.23006 Y23.14999
G01 X28.27398 Y23.19393
G01 X28.23006 Y23.14999
G01 X28.23006 Y16.44777
G01 X28.24146 Y16.44305
G01 X28.23006 Y16.44777
G01 X25.08224 Y13.29990
G01 X25.08696 Y13.28852
G01 X25.08224 Y13.29990
G01 X23.25001 Y13.29990
G01 X23.21188 Y13.25931
G01 X23.25001 Y13.29990
G01 X23.24836 Y13.40635
G01 X23.23797 Y13.48933
G01 X23.22984 Y13.51966
G01 X23.20246 Y13.59868
G01 X23.18818 Y13.62667
G01 X23.14495 Y13.69827
G01 X23.06802 Y13.78372
G01 X22.97500 Y13.85128
G01 X22.86997 Y13.89804
G01 X22.78852 Y13.91704
G01 X22.72613 Y13.92359
G01 X21.87389 Y13.92359
G01 X21.81150 Y13.91704
G01 X21.73005 Y13.89804
G01 X21.65301 Y13.86556
G01 X21.59868 Y13.83419
G01 X21.53200 Y13.78372
G01 X21.47483 Y13.72265
G01 X21.45507 Y13.69827
G01 X21.41184 Y13.62667
G01 X21.39759 Y13.59868
G01 X21.37018 Y13.51966
G01 X21.36205 Y13.48933
G01 X21.35166 Y13.40635
G01 X21.35166 Y12.09363
G01 X21.36205 Y12.01064
G01 X21.38633 Y11.93061
G01 X21.41184 Y11.87331
G01 X21.45507 Y11.80170
G01 X21.53200 Y11.71626
G01 X21.62502 Y11.64869
G01 X21.73005 Y11.60193
G01 X21.81150 Y11.58293
G01 X21.90002 Y11.57501
G01 X22.74186 Y11.57679
G01 X22.78852 Y11.58293
G01 X22.86997 Y11.60193
G01 X22.97500 Y11.64869
G01 X23.06802 Y11.71626
G01 X23.14495 Y11.80170
G01 X23.20246 Y11.90130
G01 X23.22984 Y11.98032
G01 X23.24290 Y12.04166
G01 X23.25001 Y12.12499
G01 X23.25001 Y12.19998
G01 X23.21425 Y12.23917
G01 X23.25001 Y12.19998
G01 X25.31002 Y12.19998
G01 X25.41917 Y12.21133
G01 X25.50210 Y12.23503
G01 X25.53835 Y12.25004
G01 X25.61373 Y12.29192
G01 X25.69895 Y12.36106
G01 X28.78005 Y15.44218
G01 X28.78005 Y15.50429
G01 X28.78005 Y15.44218
G01 X34.40114 Y9.82109
G01 X34.46083 Y9.77021
G01 X34.50973 Y9.73755
G01 X34.57955 Y9.70186
G01 X34.65418 Y9.67770
G01 X34.71186 Y9.66625
G01 X34.79002 Y9.66000
G01 X42.96003 Y9.66000
G01 X43.00217 Y9.70293
G01 X42.96003 Y9.66000
G01 X42.96003 Y9.40999
G01 X42.96579 Y9.35147
G01 X42.98286 Y9.29518
G01 X43.01057 Y9.24331
G01 X43.04789 Y9.19787
G01 X43.09335 Y9.16056
G01 X43.14522 Y9.13285
G01 X43.20148 Y9.11576
G01 X43.26000 Y9.11001
G01 X44.86002 Y9.11001
G01 X44.91855 Y9.11576
G01 X44.97481 Y9.13285
G01 X45.02667 Y9.16056
G01 X45.07214 Y9.19787
G01 X45.10945 Y9.24331
G01 X45.13716 Y9.29518
G01 X45.15423 Y9.35147
G01 X45.16000 Y9.40999
G01 X45.01001 Y9.40999
G01 X45.00714 Y9.38073
G01 X44.99861 Y9.35258
G01 X44.98474 Y9.32665
G01 X44.96607 Y9.30392
G01 X44.94334 Y9.28527
G01 X44.91743 Y9.27141
G01 X44.88928 Y9.26287
G01 X44.86002 Y9.25998
G01 X43.26000 Y9.25998
G01 X43.23074 Y9.26287
G01 X43.20260 Y9.27141
G01 X43.17669 Y9.28527
G01 X43.15396 Y9.30392
G01 X43.13529 Y9.32665
G01 X43.12142 Y9.35258
G01 X43.11288 Y9.38073
G01 X43.11001 Y9.40999
G01 X43.11001 Y9.80996
G01 X34.79002 Y9.80996
G01 X34.72654 Y9.81550
G01 X34.63696 Y9.84042
G01 X34.58042 Y9.86983
G01 X34.50719 Y9.92713
G01 X28.78005 Y15.65427
G01 X25.59288 Y12.46711
G01 X25.55440 Y12.43363
G01 X25.50192 Y12.39929
G01 X25.42232 Y12.36632
G01 X25.36093 Y12.35349
G01 X25.31002 Y12.34994
G01 X23.10002 Y12.34994
G01 X23.09918 Y12.10930
G01 X23.09128 Y12.04184
G01 X23.06543 Y11.96228
G01 X23.02362 Y11.88987
G01 X22.96766 Y11.82774
G01 X22.90002 Y11.77859
G01 X22.82362 Y11.74455
G01 X22.75732 Y11.72964
G01 X22.70002 Y11.72500
G01 X21.86604 Y11.72657
G01 X21.77640 Y11.74455
G01 X21.71399 Y11.77145
G01 X21.68684 Y11.78712
G01 X21.62126 Y11.83884
G01 X21.57640 Y11.88987
G01 X21.53459 Y11.96228
G01 X21.50876 Y12.04184
G01 X21.50084 Y12.10930
G01 X21.50002 Y13.37498
G01 X21.50876 Y13.45816
G01 X21.54173 Y13.55166
G01 X21.58628 Y13.62230
G01 X21.63236 Y13.67224
G01 X21.68684 Y13.71285
G01 X21.77640 Y13.75542
G01 X21.87389 Y13.77361
G01 X22.72613 Y13.77361
G01 X22.80845 Y13.75948
G01 X22.83827 Y13.74978
G01 X22.90002 Y13.72138
G01 X22.96766 Y13.67224
G01 X23.02362 Y13.61011
G01 X23.06543 Y13.53769
G01 X23.09128 Y13.45816
G01 X23.09918 Y13.39068
G01 X23.10002 Y13.14996
G01 X25.14434 Y13.14996
G01 X28.38002 Y16.38567
G01 X28.38002 Y23.29998
G01 X27.98002 Y23.29998
G01 X27.95076 Y23.30287
G01 X27.92262 Y23.31141
G01 X27.89668 Y23.32528
G01 X27.87395 Y23.34392
G01 X27.85528 Y23.36665
G01 X27.84144 Y23.39259
G01 X27.83291 Y23.42073
G01 X27.83001 Y23.44999
G01 X27.83001 Y25.04999
G01 X27.83291 Y25.07925
G01 X27.84144 Y25.10739
G01 X27.85528 Y25.13333
G01 X27.87395 Y25.15606
G01 X27.89668 Y25.17470
G01 X27.92262 Y25.18857
G01 X27.95076 Y25.19710
G01 X27.98002 Y25.19997
G01 X29.58002 Y25.19997
G01 X29.60928 Y25.19710
G01 X29.63742 Y25.18857
G01 X29.66336 Y25.17470
G01 X29.68609 Y25.15606
G01 X29.70473 Y25.13333
G01 X29.71860 Y25.10739
G01 X29.72714 Y25.07925
G01 X29.73001 Y25.04999
G01 X29.73001 Y23.44999
G01 X29.72714 Y23.42073
G01 X29.71860 Y23.39259
G01 X29.70473 Y23.36665
G01 X29.68609 Y23.34392
G01 X29.66336 Y23.32528
G01 X29.63742 Y23.31141
G01 X29.60928 Y23.30287
G01 X29.58002 Y23.29998
G01 X29.18004 Y23.29998
G01 X29.18004 Y16.38567
G01 X34.95573 Y10.60999
G01 X43.11001 Y10.60999
G01 X43.11001 Y11.00999
G01 X43.11288 Y11.03925
G01 X43.12142 Y11.06739
G01 X43.13529 Y11.09332
G01 X43.15396 Y11.11606
G01 X43.17669 Y11.13470
G01 X43.20260 Y11.14857
G01 X43.23074 Y11.15710
G01 X43.26000 Y11.16000
G01 X44.86002 Y11.16000
G01 X44.88928 Y11.15710
G01 X44.91743 Y11.14857
G01 X44.94334 Y11.13470
G01 X44.96607 Y11.11606
G01 X44.98474 Y11.09332
G01 X44.99861 Y11.06739
G01 X45.00714 Y11.03925
G01 X45.01001 Y11.00999
G01 X45.01001 Y9.40999
G01 X45.30998 Y9.40999
G01 X45.30135 Y9.32221
G01 X45.27572 Y9.23780
G01 X45.23414 Y9.16000
G01 X45.17818 Y9.09180
G01 X45.11001 Y9.03585
G01 X45.07092 Y9.01497
G01 X45.30821 Y9.01497
G01 X45.35885 Y9.07666
G01 X45.41430 Y9.18040
G01 X45.44844 Y9.29295
G01 X45.45997 Y9.40999
G01 X45.45997 Y11.00999
G01 X45.44844 Y11.12703
G01 X45.41430 Y11.23958
G01 X45.35885 Y11.34331
G01 X45.30826 Y11.40498
G01 X45.07100 Y11.40498
G01 X45.49515 Y11.40498
G01 X45.55286 Y11.29698
G01 X45.59553 Y11.15629
G01 X45.60996 Y11.00999
G01 X45.60996 Y9.40999
G01 X45.59553 Y9.26368
G01 X45.55286 Y9.12299
G01 X45.49513 Y9.01497
G01 X43.04911 Y9.01497
G01 X43.01001 Y9.03585
G01 X42.94184 Y9.09180
G01 X42.88588 Y9.16000
G01 X42.84431 Y9.23780
G01 X42.81868 Y9.32221
G01 X42.81004 Y9.40999
G01 X42.81004 Y9.51001
G01 X42.84969 Y9.55149
G01 X42.81004 Y9.51001
G01 X34.79002 Y9.51001
G01 X34.69715 Y9.51697
G01 X34.61064 Y9.53419
G01 X34.52217 Y9.56328
G01 X34.43901 Y9.60526
G01 X34.36568 Y9.65429
G01 X34.29507 Y9.71502
G01 X28.78005 Y15.23007
G01 X28.78005 Y15.29220
G01 X28.78005 Y15.23007
G01 X25.80499 Y12.25499
G01 X25.74922 Y12.20554
G01 X25.69209 Y12.16403
G01 X25.59572 Y12.11148
G01 X25.55948 Y12.09647
G01 X25.45420 Y12.06548
G01 X25.38445 Y12.05443
G01 X25.31002 Y12.04999
G01 X23.39459 Y12.04999
G01 X23.37053 Y12.08115
G01 X23.39459 Y12.04999
G01 X23.38468 Y11.97945
G01 X23.35636 Y11.88425
G01 X23.33947 Y11.84029
G01 X23.29194 Y11.75306
G01 X23.26629 Y11.71357
G01 X23.20170 Y11.63810
G01 X23.16837 Y11.60480
G01 X23.08951 Y11.54445
G01 X23.00802 Y11.49741
G01 X22.91630 Y11.45929
G01 X22.81971 Y11.43622
G01 X22.74970 Y11.42700
G01 X21.85034 Y11.42700
G01 X21.72921 Y11.44709
G01 X21.63975 Y11.47615
G01 X21.55004 Y11.51880
G01 X21.46825 Y11.57516
G01 X21.39835 Y11.63810
G01 X21.33373 Y11.71357
G01 X21.26055 Y11.84029
G01 X21.21534 Y11.97945
G01 X21.20005 Y12.12499
G01 X21.20005 Y13.37498
G01 X21.20798 Y13.47399
G01 X21.22753 Y13.56601
G01 X21.26055 Y13.65969
G01 X21.28194 Y13.70165
G01 X21.33373 Y13.78641
G01 X21.36337 Y13.82301
G01 X21.43165 Y13.89517
G01 X21.46825 Y13.92481
G01 X21.55004 Y13.98118
G01 X21.63975 Y14.02382
G01 X21.72921 Y14.05288
G01 X21.82685 Y14.07112
G01 X22.77317 Y14.07112
G01 X22.91630 Y14.04069
G01 X23.00802 Y14.00256
G01 X23.08951 Y13.95552
G01 X23.16837 Y13.89517
G01 X23.20170 Y13.86187
G01 X23.26629 Y13.78641
G01 X23.29194 Y13.74691
G01 X23.33947 Y13.65969
G01 X23.35636 Y13.61572
G01 X23.38468 Y13.52052
G01 X23.39459 Y13.44991
G01 X23.36863 Y13.41730
G01 X23.39459 Y13.44991
G01 X25.02011 Y13.44991
G01 X25.02483 Y13.43850
G01 X25.02011 Y13.44991
G01 X28.08007 Y16.50990
G01 X28.09148 Y16.50517
G01 X28.08007 Y16.50990
G01 X28.08007 Y23.00000
G01 X28.12158 Y23.03968
G01 X28.08007 Y23.00000
G01 X27.98002 Y23.00000
G01 X27.89224 Y23.00867
G01 X27.80781 Y23.03427
G01 X27.73004 Y23.07585
G01 X27.66184 Y23.13181
G01 X27.60588 Y23.20000
G01 X27.58503 Y23.23902
G01 X27.58503 Y23.00176
G01 X27.64670 Y22.95114
G01 X27.75043 Y22.89571
G01 X27.86298 Y22.86155
G01 X27.93009 Y22.85495
G01 X27.96285 Y22.88113
G01 X27.93009 Y22.85495
G01 X27.93009 Y16.57203
G01 X27.94149 Y16.56730
G01 X27.93009 Y16.57203
G01 X24.95798 Y13.59990
G01 X24.96271 Y13.58849
G01 X24.95798 Y13.59990
G01 X23.51849 Y13.59990
G01 X23.50099 Y13.57406
G01 X23.51849 Y13.59990
G01 X23.47647 Y13.72070
G01 X23.44798 Y13.77666
G01 X23.38765 Y13.87457
G01 X23.34813 Y13.92339
G01 X23.26875 Y14.00663
G01 X23.17767 Y14.07686
G01 X23.12499 Y14.11107
G01 X23.06903 Y14.13957
G01 X22.96266 Y14.18333
G01 X22.90200 Y14.19959
G01 X22.78885 Y14.22029
G01 X22.72613 Y14.22357
G01 X21.87389 Y14.22357
G01 X21.81117 Y14.22029
G01 X21.69802 Y14.19959
G01 X21.63736 Y14.18333
G01 X21.57874 Y14.16083
G01 X21.47503 Y14.11107
G01 X21.38009 Y14.04615
G01 X21.33129 Y14.00663
G01 X21.28687 Y13.96223
G01 X21.21240 Y13.87457
G01 X21.15204 Y13.77666
G01 X21.12355 Y13.72070
G01 X21.08489 Y13.61237
G01 X21.06863 Y13.55171
G01 X21.05334 Y13.43769
G01 X21.05006 Y13.37498
G01 X21.05006 Y12.12499
G01 X21.05883 Y12.01029
G01 X21.06863 Y11.94826
G01 X21.08489 Y11.88761
G01 X21.12355 Y11.77928
G01 X21.15204 Y11.72332
G01 X21.21240 Y11.62540
G01 X21.28687 Y11.53775
G01 X21.33129 Y11.49335
G01 X21.42238 Y11.42312
G01 X21.47503 Y11.38890
G01 X21.53099 Y11.36040
G01 X21.63736 Y11.31664
G01 X21.74915 Y11.28951
G01 X21.84249 Y11.27722
G01 X21.90002 Y11.27503
G01 X22.75755 Y11.27722
G01 X22.85087 Y11.28951
G01 X22.90200 Y11.30038
G01 X22.96266 Y11.31664
G01 X23.02128 Y11.33914
G01 X23.12499 Y11.38890
G01 X23.17767 Y11.42312
G01 X23.26875 Y11.49335
G01 X23.34813 Y11.57658
G01 X23.38765 Y11.62540
G01 X23.44798 Y11.72332
G01 X23.47647 Y11.77928
G01 X23.51513 Y11.88761
G01 X23.51846 Y11.90000
G01 X23.50241 Y11.92446
G01 X23.51846 Y11.90000
G01 X25.31002 Y11.90000
G01 X25.39621 Y11.90493
G01 X25.48920 Y11.91966
G01 X25.52735 Y11.92881
G01 X25.65313 Y11.97290
G01 X25.77045 Y12.03615
G01 X25.84663 Y12.09149
G01 X25.91104 Y12.14895
G01 X28.78005 Y15.01795
G01 X28.78005 Y15.08008
G01 X28.78005 Y15.01795
G01 X34.18903 Y9.60897
G01 X34.27054 Y9.53834
G01 X34.36833 Y9.47301
G01 X34.46477 Y9.42472
G01 X34.56711 Y9.39066
G01 X34.68245 Y9.36772
G01 X34.79002 Y9.36003
G01 X42.66498 Y9.36003
G01 X42.69114 Y9.39277
G01 X42.66498 Y9.36003
G01 X42.67159 Y9.29295
G01 X42.70572 Y9.18040
G01 X42.76117 Y9.07666
G01 X42.81182 Y9.01497
G01 X43.04911 Y9.01497
G01 X42.62490 Y9.01497
G01 X42.56717 Y9.12299
G01 X42.54075 Y9.21004
G01 X42.56264 Y9.23953
G01 X42.54075 Y9.21004
G01 X34.79002 Y9.21004
G01 X34.66774 Y9.21845
G01 X34.52357 Y9.24712
G01 X34.40736 Y9.28614
G01 X34.29761 Y9.34072
G01 X34.17539 Y9.42238
G01 X34.08296 Y9.50290
G01 X28.78005 Y14.80584
G01 X28.78005 Y14.86797
G01 X28.78005 Y14.80584
G01 X26.01711 Y12.04288
G01 X25.94403 Y11.97745
G01 X25.84883 Y11.90826
G01 X25.71053 Y11.83434
G01 X25.56237 Y11.78296
G01 X25.52422 Y11.77381
G01 X25.40799 Y11.75540
G01 X25.31002 Y11.75001
G01 X23.62567 Y11.75001
G01 X23.61333 Y11.77087
G01 X23.62567 Y11.75001
G01 X23.61351 Y11.71826
G01 X23.57787 Y11.64834
G01 X23.50899 Y11.53724
G01 X23.42461 Y11.43739
G01 X23.36911 Y11.38189
G01 X23.30810 Y11.33249
G01 X23.19997 Y11.25901
G01 X23.08229 Y11.20211
G01 X23.00901 Y11.17399
G01 X22.88206 Y11.14280
G01 X22.76540 Y11.12744
G01 X21.90002 Y11.12505
G01 X21.83464 Y11.12744
G01 X21.71796 Y11.14280
G01 X21.59101 Y11.17399
G01 X21.46998 Y11.22337
G01 X21.40005 Y11.25901
G01 X21.33421 Y11.30176
G01 X21.23091 Y11.38189
G01 X21.14044 Y11.47623
G01 X21.09103 Y11.53724
G01 X21.02215 Y11.64834
G01 X20.98651 Y11.71826
G01 X20.95840 Y11.79157
G01 X20.92192 Y11.91710
G01 X20.90965 Y11.99462
G01 X20.90010 Y12.12499
G01 X20.90010 Y13.37498
G01 X20.90965 Y13.50536
G01 X20.92192 Y13.58288
G01 X20.94224 Y13.65870
G01 X20.98651 Y13.78171
G01 X21.02215 Y13.85164
G01 X21.09103 Y13.96274
G01 X21.17544 Y14.06258
G01 X21.23091 Y14.11808
G01 X21.29192 Y14.16748
G01 X21.40005 Y14.24097
G01 X21.51773 Y14.29786
G01 X21.59101 Y14.32598
G01 X21.66683 Y14.34630
G01 X21.79550 Y14.36944
G01 X21.87389 Y14.37356
G01 X22.72613 Y14.37356
G01 X22.80454 Y14.36944
G01 X22.93319 Y14.34630
G01 X23.00901 Y14.32598
G01 X23.08229 Y14.29786
G01 X23.19997 Y14.24097
G01 X23.30810 Y14.16748
G01 X23.36911 Y14.11808
G01 X23.42461 Y14.06258
G01 X23.50899 Y13.96274
G01 X23.57787 Y13.85164
G01 X23.61351 Y13.78171
G01 X23.62573 Y13.74988
G01 X23.61333 Y13.72895
G01 X23.62573 Y13.74988
G01 X24.89585 Y13.74988
G01 X24.90058 Y13.73848
G01 X24.89585 Y13.74988
G01 X27.78010 Y16.63416
G01 X27.79150 Y16.62943
G01 X27.78010 Y16.63416
G01 X27.78010 Y22.73071
G01 X27.80961 Y22.75261
G01 X27.78010 Y22.73071
G01 X27.69303 Y22.75713
G01 X27.58503 Y22.81486
G01 X27.58503 Y25.26096
G01 X27.60588 Y25.29997
G01 X27.66184 Y25.36817
G01 X27.73004 Y25.42413
G01 X27.80781 Y25.46568
G01 X27.89224 Y25.49131
G01 X27.98002 Y25.49995
G01 X29.58002 Y25.49995
G01 X29.66780 Y25.49131
G01 X29.75221 Y25.46568
G01 X29.83001 Y25.42413
G01 X29.89818 Y25.36817
G01 X29.95416 Y25.29997
G01 X29.97504 Y25.26088
G01 X29.97504 Y25.49817
G01 X29.91332 Y25.54884
G01 X29.80961 Y25.60427
G01 X29.69706 Y25.63838
G01 X29.58002 Y25.64994
G01 X27.98002 Y25.64994
G01 X27.86298 Y25.63838
G01 X27.75043 Y25.60427
G01 X27.64670 Y25.54884
G01 X27.58503 Y25.49822
G01 X27.58503 Y25.26096
G01 X27.58503 Y25.68511
G01 X27.69303 Y25.74285
G01 X27.83372 Y25.78550
G01 X27.98002 Y25.79990
G01 X29.58002 Y25.79990
G01 X29.72632 Y25.78550
G01 X29.86701 Y25.74285
G01 X29.97504 Y25.68506
G01 X29.97504 Y22.81489
G01 X29.86701 Y22.75713
G01 X29.77997 Y22.73074
G01 X29.75045 Y22.75263
G01 X29.77997 Y22.73074
G01 X29.77997 Y16.63416
G01 X29.76856 Y16.62943
G01 X29.77997 Y16.63416
G01 X30.18154 Y16.23261
G01 X30.24245 Y16.09849
G01 X30.34382 Y15.91333
G01 X30.45589 Y15.75161
G01 X30.54227 Y15.64645
G01 X30.62124 Y15.56174
G01 X34.17003 Y12.01440
G01 X34.31443 Y11.89111
G01 X34.44277 Y11.79937
G01 X34.58204 Y11.71687
G01 X34.69652 Y11.65868
G01 X34.80272 Y11.61143
G01 X35.20421 Y11.20991
G01 X35.19949 Y11.19850
G01 X35.20421 Y11.20991
G01 X42.54075 Y11.20991
G01 X42.56264 Y11.18039
G01 X42.54075 Y11.20991
G01 X42.56717 Y11.29698
G01 X42.62487 Y11.40498
G01 X43.04903 Y11.40498
G01 X43.01001 Y11.38413
G01 X42.94184 Y11.32817
G01 X42.88588 Y11.25997
G01 X42.84431 Y11.18217
G01 X42.81868 Y11.09777
G01 X42.81004 Y11.00999
G01 X42.81004 Y10.90993
G01 X42.84969 Y10.86843
G01 X42.81004 Y10.90993
G01 X35.07996 Y10.90993
G01 X35.07523 Y10.89853
G01 X35.07996 Y10.90993
G01 X29.47999 Y16.50990
G01 X29.46859 Y16.50517
G01 X29.47999 Y16.50990
G01 X29.47999 Y23.00000
G01 X29.43849 Y23.03968
G01 X29.47999 Y23.00000
G01 X29.58002 Y23.00000
G01 X29.66780 Y23.00867
G01 X29.75221 Y23.03427
G01 X29.83001 Y23.07585
G01 X29.89818 Y23.13181
G01 X29.95416 Y23.20000
G01 X29.97504 Y23.23909
G01 X29.97504 Y23.00178
G01 X29.91332 Y22.95114
G01 X29.80961 Y22.89571
G01 X29.69706 Y22.86155
G01 X29.62998 Y22.85495
G01 X29.59721 Y22.88113
G01 X29.62998 Y22.85495
G01 X29.62998 Y16.57203
G01 X29.61858 Y16.56730
G01 X29.62998 Y16.57203
G01 X30.48088 Y15.72113
G04 P0 ( dwell for no time -- G64 should not smooth over this point )
G00 Z5.00000 ( retract )

G00 X10.59994 Y8.46999 ( rapid move to begin. )
G01 F200.00000
( Mill infeed pass 1/1 )
G01 Z-0.15000
G04 P0 ( dwell for no time -- G64 should not smooth over this point )
G01 F200.00000
G01 X10.59994 Y8.46999
G01 X10.58554 Y8.61629
G01 X10.54287 Y8.75698
G01 X10.48514 Y8.86498
G01 X10.29824 Y8.86498
G01 X10.34887 Y8.80331
G01 X10.40429 Y8.69958
G01 X10.43845 Y8.58703
G01 X10.44996 Y8.46999
G01 X10.44996 Y6.86999
G01 X10.43845 Y6.75295
G01 X10.40429 Y6.64040
G01 X10.34887 Y6.53666
G01 X10.27424 Y6.44576
G01 X10.18333 Y6.37113
G01 X10.07960 Y6.31571
G01 X9.96705 Y6.28157
G01 X9.85001 Y6.27004
G01 X8.25001 Y6.27004
G01 X8.13297 Y6.28157
G01 X8.02042 Y6.31571
G01 X7.91669 Y6.37113
G01 X7.82578 Y6.44576
G01 X7.75116 Y6.53666
G01 X7.69573 Y6.64040
G01 X7.66160 Y6.75295
G01 X7.65007 Y6.86999
G01 X7.65007 Y8.46999
G01 X7.66160 Y8.58703
G01 X7.69573 Y8.69958
G01 X7.75116 Y8.80331
G01 X7.80178 Y8.86498
G01 X8.03904 Y8.86498
G01 X8.00003 Y8.84413
G01 X7.93183 Y8.78817
G01 X7.87587 Y8.71997
G01 X7.83429 Y8.64217
G01 X7.80869 Y8.55777
G01 X7.80005 Y8.46999
G01 X7.80005 Y6.86999
G01 X7.80869 Y6.78221
G01 X7.83429 Y6.69780
G01 X7.87587 Y6.61998
G01 X7.93183 Y6.55178
G01 X8.00003 Y6.49585
G01 X8.07783 Y6.45427
G01 X8.16223 Y6.42866
G01 X8.25001 Y6.42003
G01 X9.85001 Y6.42003
G01 X9.93779 Y6.42866
G01 X10.02220 Y6.45427
G01 X10.10000 Y6.49585
G01 X10.16820 Y6.55178
G01 X10.22415 Y6.61998
G01 X10.26573 Y6.69780
G01 X10.29133 Y6.78221
G01 X10.29997 Y6.86999
G01 X10.29997 Y8.46999
G01 X10.29133 Y8.55777
G01 X10.26573 Y8.64217
G01 X10.22415 Y8.71997
G01 X10.16820 Y8.78817
G01 X10.10000 Y8.84413
G01 X10.06098 Y8.86498
G01 X10.29824 Y8.86498
G01 X7.61489 Y8.86498
G01 X7.55715 Y8.75698
G01 X7.51448 Y8.61629
G01 X7.50008 Y8.46999
G01 X7.50008 Y6.86999
G01 X7.51448 Y6.72368
G01 X7.55715 Y6.58299
G01 X7.62647 Y6.45335
G01 X7.71974 Y6.33969
G01 X7.83338 Y6.24644
G01 X7.96302 Y6.17713
G01 X8.10371 Y6.13446
G01 X8.25001 Y6.12005
G01 X9.85001 Y6.12005
G01 X9.99631 Y6.13446
G01 X10.13700 Y6.17713
G01 X10.26665 Y6.24644
G01 X10.38031 Y6.33969
G01 X10.47355 Y6.45335
G01 X10.54287 Y6.58299
G01 X10.58554 Y6.72368
G01 X10.59994 Y6.86999
G01 X10.15001 Y6.86999
G01 X10.15001 Y8.46999
G01 X10.14424 Y8.52851
G01 X10.12717 Y8.58479
G01 X10.09944 Y8.63666
G01 X10.06213 Y8.68210
G01 X10.01668 Y8.71941
G01 X9.96482 Y8.74712
G01 X9.90853 Y8.76422
G01 X9.85001 Y8.76999
G01 X8.25001 Y8.76999
G01 X8.19149 Y8.76422
G01 X8.13521 Y8.74712
G01 X8.08334 Y8.71941
G01 X8.03790 Y8.68210
G01 X8.00059 Y8.63666
G01 X7.97287 Y8.58479
G01 X7.95578 Y8.52851
G01 X7.95004 Y8.46999
G01 X7.95004 Y6.86999
G01 X7.95578 Y6.81147
G01 X7.97287 Y6.75518
G01 X8.00059 Y6.70331
G01 X8.03790 Y6.65787
G01 X8.08334 Y6.62056
G01 X8.13521 Y6.59285
G01 X8.19149 Y6.57576
G01 X8.25001 Y6.57001
G01 X9.85001 Y6.57001
G01 X9.90853 Y6.57576
G01 X9.96482 Y6.59285
G01 X10.01668 Y6.62056
G01 X10.06213 Y6.65787
G01 X10.09944 Y6.70331
G01 X10.12717 Y6.75518
G01 X10.14424 Y6.81147
G01 X10.15001 Y6.86999
G01 X10.00002 Y6.86999
G01 X9.99713 Y6.84073
G01 X9.98859 Y6.81258
G01 X9.97472 Y6.78665
G01 X9.95608 Y6.76392
G01 X9.93335 Y6.74527
G01 X9.90741 Y6.73141
G01 X9.87927 Y6.72287
G01 X9.85001 Y6.71998
G01 X8.25001 Y6.71998
G01 X8.22075 Y6.72287
G01 X8.19261 Y6.73141
G01 X8.16668 Y6.74527
G01 X8.14394 Y6.76392
G01 X8.12530 Y6.78665
G01 X8.11143 Y6.81258
G01 X8.10290 Y6.84073
G01 X8.10000 Y6.86999
G01 X8.10000 Y8.46999
G01 X8.10290 Y8.49925
G01 X8.11143 Y8.52739
G01 X8.12530 Y8.55332
G01 X8.14394 Y8.57606
G01 X8.16668 Y8.59470
G01 X8.19261 Y8.60857
G01 X8.22075 Y8.61710
G01 X8.25001 Y8.62000
G01 X9.85001 Y8.62000
G01 X9.87927 Y8.61710
G01 X9.90741 Y8.60857
G01 X9.93335 Y8.59470
G01 X9.95608 Y8.57606
G01 X9.97472 Y8.55332
G01 X9.98859 Y8.52739
G01 X9.99713 Y8.49925
G01 X10.00002 Y8.46999
G01 X10.00002 Y6.86999
G01 X10.59994 Y6.86999
G01 X10.59994 Y11.00999
G01 X10.58554 Y11.15629
G01 X10.54287 Y11.29698
G01 X10.48514 Y11.40498
G01 X10.29824 Y11.40498
G01 X10.34887 Y11.34331
G01 X10.40429 Y11.23958
G01 X10.43845 Y11.12703
G01 X10.44996 Y11.00999
G01 X10.44996 Y9.40999
G01 X10.43845 Y9.29295
G01 X10.40429 Y9.18040
G01 X10.34887 Y9.07666
G01 X10.29822 Y9.01497
G01 X10.06093 Y9.01497
G01 X10.10000 Y9.03585
G01 X10.16820 Y9.09180
G01 X10.22415 Y9.16000
G01 X10.26573 Y9.23780
G01 X10.29133 Y9.32221
G01 X10.29997 Y9.40999
G01 X10.29997 Y11.00999
G01 X10.29133 Y11.09777
G01 X10.26573 Y11.18217
G01 X10.22415 Y11.25997
G01 X10.16820 Y11.32817
G01 X10.10000 Y11.38413
G01 X10.06098 Y11.40498
G01 X10.29824 Y11.40498
G01 X8.03904 Y11.40498
G01 X8.00003 Y11.38413
G01 X7.93183 Y11.32817
G01 X7.87587 Y11.25997
G01 X7.83429 Y11.18217
G01 X7.80869 Y11.09777
G01 X7.80005 Y11.00999
G01 X7.80005 Y9.40999
G01 X7.80869 Y9.32221
G01 X7.83429 Y9.23780
G01 X7.87587 Y9.16000
G01 X7.93183 Y9.09180
G01 X8.00003 Y9.03585
G01 X8.03909 Y9.01497
G01 X7.80180 Y9.01497
G01 X7.75116 Y9.07666
G01 X7.69573 Y9.18040
G01 X7.66160 Y9.29295
G01 X7.65007 Y9.40999
G01 X7.65007 Y11.00999
G01 X7.66160 Y11.12703
G01 X7.69573 Y11.23958
G01 X7.75116 Y11.34331
G01 X7.80178 Y11.40498
G01 X8.03904 Y11.40498
G01 X7.61489 Y11.40498
G01 X7.55715 Y11.29698
G01 X7.51448 Y11.15629
G01 X7.50008 Y11.00999
G01 X7.50008 Y9.40999
G01 X7.51448 Y9.26368
G01 X7.55715 Y9.12299
G01 X7.61491 Y9.01497
G01 X10.48511 Y9.01497
G01 X10.54287 Y9.12299
G01 X10.58554 Y9.26368
G01 X10.59994 Y9.40999
G01 X10.15001 Y9.40999
G01 X10.15001 Y11.00999
G01 X10.14424 Y11.06851
G01 X10.12717 Y11.12479
G01 X10.09944 Y11.17666
G01 X10.06213 Y11.22210
G01 X10.01668 Y11.25941
G01 X9.96482 Y11.28712
G01 X9.90853 Y11.30422
G01 X9.85001 Y11.30998
G01 X8.25001 Y11.30998
G01 X8.19149 Y11.30422
G01 X8.13521 Y11.28712
G01 X8.08334 Y11.25941
G01 X8.03790 Y11.22210
G01 X8.00059 Y11.17666
G01 X7.97287 Y11.12479
G01 X7.95578 Y11.06851
G01 X7.95004 Y11.00999
G01 X7.95004 Y9.40999
G01 X7.95578 Y9.35147
G01 X7.97287 Y9.29518
G01 X8.00059 Y9.24331
G01 X8.03790 Y9.19787
G01 X8.08334 Y9.16056
G01 X8.13521 Y9.13285
G01 X8.19149 Y9.11576
G01 X8.25001 Y9.11001
G01 X9.85001 Y9.11001
G01 X9.90853 Y9.11576
G01 X9.96482 Y9.13285
G01 X10.01668 Y9.16056
G01 X10.06213 Y9.19787
G01 X10.09944 Y9.24331
G01 X10.12717 Y9.29518
G01 X10.14424 Y9.35147
G01 X10.15001 Y9.40999
G01 X10.00002 Y9.40999
G01 X9.99713 Y9.38073
G01 X9.98859 Y9.35258
G01 X9.97472 Y9.32665
G01 X9.95608 Y9.30392
G01 X9.93335 Y9.28527
G01 X9.90741 Y9.27141
G01 X9.87927 Y9.26287
G01 X9.85001 Y9.25998
G01 X8.25001 Y9.25998
G01 X8.22075 Y9.26287
G01 X8.19261 Y9.27141
G01 X8.16668 Y9.28527
G01 X8.14394 Y9.30392
G01 X8.12530 Y9.32665
G01 X8.11143 Y9.35258
G01 X8.10290 Y9.38073
G01 X8.10000 Y9.40999
G01 X8.10000 Y11.00999
G01 X8.10290 Y11.03925
G01 X8.11143 Y11.06739
G01 X8.12530 Y11.09332
G01 X8.14394 Y11.11606
G01 X8.16668 Y11.13470
G01 X8.19261 Y11.14857
G01 X8.22075 Y11.15710
G01 X8.25001 Y11.16000
G01 X9.85001 Y11.16000
G01 X9.87927 Y11.15710
G01 X9.90741 Y11.14857
G01 X9.93335 Y11.13470
G01 X9.95608 Y11.11606
G01 X9.97472 Y11.09332
G01 X9.98859 Y11.06739
G01 X9.99713 Y11.03925
G01 X10.00002 Y11.00999
G01 X10.00002 Y9.40999
G04 P0 ( dwell for no time -- G64 should not smooth over this point )
G00 Z5.00000 ( retract )

G00 X3.83890 Y23.94981 ( rapid move to begin. )
G01 F200.00000
( Mill infeed pass 1/1 )
G01 Z-0.15000
G04 P0 ( dwell for no time -- G64 should not smooth over this point )
G01 F200.00000
G01 X3.83890 Y23.94981
G01 X3.26996 Y23.38093
G01 X3.25856 Y23.38565
G01 X3.26996 Y23.38093
G01 X3.26996 Y15.79596
G01 X3.24517 Y15.63944
G01 X3.23052 Y15.50139
G01 X3.22036 Y15.30934
G01 X3.22036 Y15.17066
G01 X3.23021 Y14.98249
G01 X3.24466 Y14.84439
G01 X3.27570 Y14.64846
G01 X3.30755 Y14.49956
G01 X3.35797 Y14.31138
G01 X3.41995 Y14.12390
G01 X3.41995 Y13.74988
G01 X3.37603 Y13.70597
G01 X3.41995 Y13.74988
G01 X3.56478 Y13.74988
G01 X3.57039 Y13.73713
G01 X3.56478 Y13.74988
G01 X3.69076 Y13.88791
G01 X4.20212 Y13.89141
G01 X3.92630 Y13.88918
G01 X3.82935 Y13.81468
G01 X3.78495 Y13.77025
G01 X3.63433 Y13.59990
G01 X3.63999 Y13.58707
G01 X3.63433 Y13.59990
G01 X3.35211 Y13.59990
G01 X3.34736 Y13.58849
G01 X3.35211 Y13.59990
G01 X3.26996 Y13.68204
G01 X3.25856 Y13.67732
G01 X3.26996 Y13.68204
G01 X3.26996 Y14.68399
G01 X3.24517 Y14.84051
G01 X3.23052 Y14.97856
G01 X3.21992 Y15.17457
G01 X3.22025 Y15.30540
G01 X3.23052 Y15.50139
G01 X3.24517 Y15.63944
G01 X3.27570 Y15.83149
G01 X3.30755 Y15.98038
G01 X3.35797 Y16.16857
G01 X3.41995 Y16.35605
G01 X3.41995 Y23.31880
G01 X3.40854 Y23.32352
G01 X3.41995 Y23.31880
G01 X3.65754 Y23.55639
G01 X3.72310 Y23.71466
G01 X3.77834 Y23.83617
G01 X3.87410 Y24.01029
G01 X3.97875 Y24.16322
G01 X4.06071 Y24.26261
G01 X4.13598 Y24.34344
G01 X6.85256 Y27.06002
G01 X6.93338 Y27.13528
G01 X7.03277 Y27.21724
G01 X7.18263 Y27.31994
G01 X7.24618 Y27.35710
G01 X11.60104 Y31.71198
G01 X11.65849 Y31.77639
G01 X11.73433 Y31.88602
G01 X11.77708 Y31.96989
G01 X11.82118 Y32.09567
G01 X11.84505 Y32.22681
G01 X11.84998 Y32.31299
G01 X11.84998 Y48.25495
G01 X11.81721 Y48.28113
G01 X11.84998 Y48.25495
G01 X11.91706 Y48.26155
G01 X12.02961 Y48.29571
G01 X12.13332 Y48.35114
G01 X12.19504 Y48.40178
G01 X12.19504 Y48.63909
G01 X12.17416 Y48.60000
G01 X12.11818 Y48.53181
G01 X12.05001 Y48.47585
G01 X11.97221 Y48.43427
G01 X11.88780 Y48.40867
G01 X11.80002 Y48.40000
G01 X11.69999 Y48.40000
G01 X11.65852 Y48.43965
G01 X11.69999 Y48.40000
G01 X11.69999 Y32.31299
G01 X11.69555 Y32.23857
G01 X11.67533 Y32.13067
G01 X11.63850 Y32.02729
G01 X11.60645 Y31.96438
G01 X11.54444 Y31.87380
G01 X11.49499 Y31.81802
G01 X3.11998 Y23.44306
G01 X3.10857 Y23.44778
G01 X3.11998 Y23.44306
G01 X3.11998 Y13.61991
G01 X3.10857 Y13.61519
G01 X3.11998 Y13.61991
G01 X3.28998 Y13.44991
G01 X3.28523 Y13.43850
G01 X3.28998 Y13.44991
G01 X3.71286 Y13.44991
G01 X3.71919 Y13.43617
G01 X3.71286 Y13.44991
G01 X3.74085 Y13.49347
G01 X3.92970 Y13.70320
G01 X4.11853 Y13.84343
G01 X4.15802 Y13.86909
G01 X4.20212 Y13.89141
G01 X4.91723 Y13.89504
G01 X4.70758 Y13.89339
G01 X4.49251 Y13.84938
G01 X4.43288 Y13.83000
G01 X4.23303 Y13.73922
G01 X4.05447 Y13.61150
G01 X4.00786 Y13.56954
G01 X3.86221 Y13.40533
G01 X3.79945 Y13.29990
G01 X3.81060 Y13.28034
G01 X3.79945 Y13.29990
G01 X3.22785 Y13.29990
G01 X3.22312 Y13.28852
G01 X3.22785 Y13.29990
G01 X2.96999 Y13.55778
G01 X2.95858 Y13.55306
G01 X2.96999 Y13.55778
G01 X2.96999 Y23.50519
G01 X2.95858 Y23.50991
G01 X2.96999 Y23.50519
G01 X11.38892 Y31.92409
G01 X11.43040 Y31.97121
G01 X11.47856 Y32.04274
G01 X11.51495 Y32.12092
G01 X11.53865 Y32.20385
G01 X11.55001 Y32.31299
G01 X11.55001 Y48.54999
G01 X11.50708 Y48.59216
G01 X11.55001 Y48.54999
G01 X11.80002 Y48.54999
G01 X11.85854 Y48.55576
G01 X11.91480 Y48.57283
G01 X11.96667 Y48.60056
G01 X12.01213 Y48.63788
G01 X12.04945 Y48.68332
G01 X12.07716 Y48.73518
G01 X12.09423 Y48.79147
G01 X12.09999 Y48.84999
G01 X12.09999 Y50.44999
G01 X12.09423 Y50.50851
G01 X12.07716 Y50.56480
G01 X12.04945 Y50.61664
G01 X12.01213 Y50.66210
G01 X11.96667 Y50.69942
G01 X11.91480 Y50.72713
G01 X11.85854 Y50.74420
G01 X11.80002 Y50.74996
G01 X10.20002 Y50.74996
G01 X10.14150 Y50.74420
G01 X10.08521 Y50.72713
G01 X10.03335 Y50.69942
G01 X9.98788 Y50.66210
G01 X9.95059 Y50.61664
G01 X9.92286 Y50.56480
G01 X9.90579 Y50.50851
G01 X9.90002 Y50.44999
G01 X9.90002 Y50.19995
G01 X9.94396 Y50.15603
G01 X9.90002 Y50.19995
G01 X9.55999 Y50.19995
G01 X9.51608 Y50.15603
G01 X9.55999 Y50.19995
G01 X9.55999 Y50.44999
G01 X9.55423 Y50.50851
G01 X9.53716 Y50.56480
G01 X9.50945 Y50.61664
G01 X9.47213 Y50.66210
G01 X9.42667 Y50.69942
G01 X9.37480 Y50.72713
G01 X9.31854 Y50.74420
G01 X9.26002 Y50.74996
G01 X7.66002 Y50.74996
G01 X7.60150 Y50.74420
G01 X7.54521 Y50.72713
G01 X7.49335 Y50.69942
G01 X7.44788 Y50.66210
G01 X7.41059 Y50.61664
G01 X7.38286 Y50.56480
G01 X7.36579 Y50.50851
G01 X7.36002 Y50.44999
G01 X7.36002 Y48.84999
G01 X7.36579 Y48.79147
G01 X7.38286 Y48.73518
G01 X7.41059 Y48.68332
G01 X7.44788 Y48.63788
G01 X7.49335 Y48.60056
G01 X7.54521 Y48.57283
G01 X7.60150 Y48.55576
G01 X7.66002 Y48.54999
G01 X9.26002 Y48.54999
G01 X9.31854 Y48.55576
G01 X9.37480 Y48.57283
G01 X9.42667 Y48.60056
G01 X9.47213 Y48.63788
G01 X9.50945 Y48.68332
G01 X9.53716 Y48.73518
G01 X9.55423 Y48.79147
G01 X9.55999 Y48.84999
G01 X9.55999 Y49.10000
G01 X9.51608 Y49.14392
G01 X9.55999 Y49.10000
G01 X9.90002 Y49.10000
G01 X9.94219 Y49.14293
G01 X9.90002 Y49.10000
G01 X9.90002 Y48.84999
G01 X9.90579 Y48.79147
G01 X9.92286 Y48.73518
G01 X9.95059 Y48.68332
G01 X9.98788 Y48.63788
G01 X10.03335 Y48.60056
G01 X10.08521 Y48.57283
G01 X10.14150 Y48.55576
G01 X10.20002 Y48.54999
G01 X10.45006 Y48.54999
G01 X10.49299 Y48.59216
G01 X10.45006 Y48.54999
G01 X10.45006 Y32.54078
G01 X10.46146 Y32.53605
G01 X10.45006 Y32.54078
G01 X2.03113 Y24.12187
G01 X1.96199 Y24.03668
G01 X1.92010 Y23.96129
G01 X1.90509 Y23.92505
G01 X1.88140 Y23.84212
G01 X1.87004 Y23.73300
G01 X1.87004 Y13.33000
G01 X1.87629 Y13.25181
G01 X1.88774 Y13.19413
G01 X1.90197 Y13.14722
G01 X1.92447 Y13.09289
G01 X1.94759 Y13.04968
G01 X1.98025 Y13.00079
G01 X2.03110 Y12.94107
G01 X2.61111 Y12.36106
G01 X2.65825 Y12.31958
G01 X2.72978 Y12.27143
G01 X2.77172 Y12.25004
G01 X2.85274 Y12.22050
G01 X2.93737 Y12.20396
G01 X2.97649 Y12.20089
G01 X3.74286 Y12.19998
G01 X3.75373 Y12.21923
G01 X3.74286 Y12.19998
G01 X3.86221 Y11.99464
G01 X4.00786 Y11.83043
G01 X4.05447 Y11.78847
G01 X4.23303 Y11.66076
G01 X4.43288 Y11.56998
G01 X4.49251 Y11.55060
G01 X4.70758 Y11.50658
G01 X4.92708 Y11.50493
G01 X4.98947 Y11.51148
G01 X5.20382 Y11.55873
G01 X5.43300 Y11.66076
G01 X5.63595 Y11.80823
G01 X5.78405 Y11.97026
G01 X5.82093 Y12.02098
G01 X5.91499 Y12.18392
G01 X5.92317 Y12.19998
G01 X5.91166 Y12.21994
G01 X5.92317 Y12.19998
G01 X7.95004 Y12.19998
G01 X7.99218 Y12.24290
G01 X7.95004 Y12.19998
G01 X7.95004 Y11.94999
G01 X7.95578 Y11.89147
G01 X7.97287 Y11.83518
G01 X8.00059 Y11.78331
G01 X8.03790 Y11.73787
G01 X8.08334 Y11.70056
G01 X8.13521 Y11.67285
G01 X8.19149 Y11.65576
G01 X8.25001 Y11.65001
G01 X9.85001 Y11.65001
G01 X9.90853 Y11.65576
G01 X9.96482 Y11.67285
G01 X10.01668 Y11.70056
G01 X10.06213 Y11.73787
G01 X10.09944 Y11.78331
G01 X10.12717 Y11.83518
G01 X10.14424 Y11.89147
G01 X10.15001 Y11.94999
G01 X10.15001 Y12.19998
G01 X10.10607 Y12.24389
G01 X10.15001 Y12.19998
G01 X18.25002 Y12.19998
G01 X18.28578 Y12.23917
G01 X18.25002 Y12.19998
G01 X18.25002 Y12.12499
G01 X18.26206 Y12.01064
G01 X18.29757 Y11.90130
G01 X18.35507 Y11.80170
G01 X18.40981 Y11.73848
G01 X18.45639 Y11.69650
G01 X18.52502 Y11.64869
G01 X18.55299 Y11.63442
G01 X18.63005 Y11.60193
G01 X18.71151 Y11.58293
G01 X18.75820 Y11.57679
G01 X19.61570 Y11.57541
G01 X19.68852 Y11.58293
G01 X19.77001 Y11.60193
G01 X19.79929 Y11.61318
G01 X19.87501 Y11.64869
G01 X19.90137 Y11.66579
G01 X19.96802 Y11.71626
G01 X19.99022 Y11.73848
G01 X20.04496 Y11.80170
G01 X20.10244 Y11.90130
G01 X20.13798 Y12.01064
G01 X20.15001 Y12.12499
G01 X20.15001 Y13.37498
G01 X20.14290 Y13.45832
G01 X20.12985 Y13.51966
G01 X20.10244 Y13.59868
G01 X20.06205 Y13.67193
G01 X20.02520 Y13.72265
G01 X19.96802 Y13.78372
G01 X19.90137 Y13.83419
G01 X19.84702 Y13.86556
G01 X19.77001 Y13.89804
G01 X19.65774 Y13.92194
G01 X18.78431 Y13.92456
G01 X18.71151 Y13.91704
G01 X18.66038 Y13.90617
G01 X18.63005 Y13.89804
G01 X18.55299 Y13.86556
G01 X18.52502 Y13.85128
G01 X18.45639 Y13.80348
G01 X18.40981 Y13.76149
G01 X18.35507 Y13.69827
G01 X18.29757 Y13.59868
G01 X18.26206 Y13.48933
G01 X18.25002 Y13.37498
G01 X18.25002 Y13.29990
G01 X18.28814 Y13.25931
G01 X18.25002 Y13.29990
G01 X10.15001 Y13.29990
G01 X10.10785 Y13.25700
G01 X10.15001 Y13.29990
G01 X10.15001 Y13.54999
G01 X10.14424 Y13.60851
G01 X10.12717 Y13.66479
G01 X10.09944 Y13.71666
G01 X10.06213 Y13.76210
G01 X10.01668 Y13.79941
G01 X9.96482 Y13.82713
G01 X9.90853 Y13.84422
G01 X9.85001 Y13.84998
G01 X8.25001 Y13.84998
G01 X8.19149 Y13.84422
G01 X8.13521 Y13.82713
G01 X8.08334 Y13.79941
G01 X8.03790 Y13.76210
G01 X8.00059 Y13.71666
G01 X7.97287 Y13.66479
G01 X7.95578 Y13.60851
G01 X7.95004 Y13.54999
G01 X7.95004 Y13.29990
G01 X7.99396 Y13.25598
G01 X7.95004 Y13.29990
G01 X5.86655 Y13.29990
G01 X5.85543 Y13.28034
G01 X5.86655 Y13.29990
G01 X5.82093 Y13.37899
G01 X5.78405 Y13.42972
G01 X5.63595 Y13.59174
G01 X5.45934 Y13.72210
G01 X5.40504 Y13.75347
G01 X5.20382 Y13.84125
G01 X4.98947 Y13.88849
G01 X4.91723 Y13.89504
G01 X5.96109 Y13.90208
G01 X6.10125 Y13.74988
G01 X6.09571 Y13.73726
G01 X6.10125 Y13.74988
G01 X7.53074 Y13.74988
G01 X7.55263 Y13.72037
G01 X7.53074 Y13.74988
G01 X7.55715 Y13.83698
G01 X7.61489 Y13.94498
G01 X8.03904 Y13.94498
G01 X7.80178 Y13.94498
G01 X7.75116 Y13.88331
G01 X7.69573 Y13.77958
G01 X7.66160 Y13.66703
G01 X7.65497 Y13.59990
G01 X7.68115 Y13.56713
G01 X7.65497 Y13.59990
G01 X6.03170 Y13.59990
G01 X6.02604 Y13.58707
G01 X6.03170 Y13.59990
G01 X5.88108 Y13.77025
G01 X5.83668 Y13.81468
G01 X5.72373 Y13.90078
G01 X5.44791 Y13.89855
G01 X5.50801 Y13.86909
G01 X5.54750 Y13.84343
G01 X5.73633 Y13.70320
G01 X5.92515 Y13.49347
G01 X5.95317 Y13.44991
G01 X5.94684 Y13.43617
G01 X5.95317 Y13.44991
G01 X7.80005 Y13.44991
G01 X7.83970 Y13.40841
G01 X7.80005 Y13.44991
G01 X7.80005 Y13.54999
G01 X7.80869 Y13.63777
G01 X7.83429 Y13.72217
G01 X7.87587 Y13.79997
G01 X7.93183 Y13.86817
G01 X8.00003 Y13.92413
G01 X8.03904 Y13.94498
G01 X10.29824 Y13.94498
G01 X10.06098 Y13.94498
G01 X10.10000 Y13.92413
G01 X10.16820 Y13.86817
G01 X10.22415 Y13.79997
G01 X10.26573 Y13.72217
G01 X10.29133 Y13.63777
G01 X10.29997 Y13.54999
G01 X10.29997 Y13.44991
G01 X10.26032 Y13.40841
G01 X10.29997 Y13.44991
G01 X18.10544 Y13.44991
G01 X18.13140 Y13.41730
G01 X18.10544 Y13.44991
G01 X18.11535 Y13.52052
G01 X18.12754 Y13.56601
G01 X18.16056 Y13.65969
G01 X18.23374 Y13.78641
G01 X18.29833 Y13.86187
G01 X18.36826 Y13.92481
G01 X18.45002 Y13.98118
G01 X18.53973 Y14.02382
G01 X18.62922 Y14.05288
G01 X18.68032 Y14.06375
G01 X18.77646 Y14.07434
G01 X19.67356 Y14.07109
G01 X19.81631 Y14.04069
G01 X19.94999 Y13.98118
G01 X20.06838 Y13.89517
G01 X20.13665 Y13.82301
G01 X20.19198 Y13.74691
G01 X20.23950 Y13.65969
G01 X20.25636 Y13.61572
G01 X20.28469 Y13.52052
G01 X20.29998 Y13.37498
G01 X20.29998 Y12.12499
G01 X20.29205 Y12.02599
G01 X20.27249 Y11.93396
G01 X20.23950 Y11.84029
G01 X20.19198 Y11.75306
G01 X20.13665 Y11.67696
G01 X20.06838 Y11.60480
G01 X19.94999 Y11.51880
G01 X19.86030 Y11.47615
G01 X19.77082 Y11.44709
G01 X19.64969 Y11.42700
G01 X19.60000 Y11.42502
G01 X18.80000 Y11.42502
G01 X18.75032 Y11.42700
G01 X18.68032 Y11.43622
G01 X18.58370 Y11.45929
G01 X18.53973 Y11.47615
G01 X18.45002 Y11.51880
G01 X18.36826 Y11.57516
G01 X18.29833 Y11.63810
G01 X18.23374 Y11.71357
G01 X18.16056 Y11.84029
G01 X18.12754 Y11.93396
G01 X18.11535 Y11.97945
G01 X18.10544 Y12.04999
G01 X18.12952 Y12.08118
G01 X18.10544 Y12.04999
G01 X10.29997 Y12.04999
G01 X10.26032 Y12.09149
G01 X10.29997 Y12.04999
G01 X10.29997 Y11.94999
G01 X10.29133 Y11.86221
G01 X10.26573 Y11.77780
G01 X10.22415 Y11.70000
G01 X10.16820 Y11.63180
G01 X10.10000 Y11.57585
G01 X10.06093 Y11.55497
G01 X10.29822 Y11.55497
G01 X10.34887 Y11.61666
G01 X10.40429 Y11.72040
G01 X10.43845 Y11.83295
G01 X10.44506 Y11.90000
G01 X10.41887 Y11.93277
G01 X10.44506 Y11.90000
G01 X17.98157 Y11.90000
G01 X17.99764 Y11.92454
G01 X17.98157 Y11.90000
G01 X18.02355 Y11.77928
G01 X18.07819 Y11.67806
G01 X18.11238 Y11.62540
G01 X18.15190 Y11.57658
G01 X18.23127 Y11.49335
G01 X18.32236 Y11.42312
G01 X18.37504 Y11.38890
G01 X18.47875 Y11.33914
G01 X18.53737 Y11.31664
G01 X18.59802 Y11.30038
G01 X18.64915 Y11.28951
G01 X18.74247 Y11.27722
G01 X19.65753 Y11.27722
G01 X19.75088 Y11.28951
G01 X19.80203 Y11.30038
G01 X19.86266 Y11.31664
G01 X19.92131 Y11.33914
G01 X20.02500 Y11.38890
G01 X20.11994 Y11.45383
G01 X20.16873 Y11.49335
G01 X20.24813 Y11.57658
G01 X20.28763 Y11.62540
G01 X20.34798 Y11.72332
G01 X20.37648 Y11.77928
G01 X20.41514 Y11.88761
G01 X20.43140 Y11.94826
G01 X20.44669 Y12.06228
G01 X20.44996 Y12.12499
G01 X20.44996 Y13.37498
G01 X20.44125 Y13.48969
G01 X20.43140 Y13.55171
G01 X20.41514 Y13.61237
G01 X20.37648 Y13.72070
G01 X20.34798 Y13.77666
G01 X20.28763 Y13.87457
G01 X20.21316 Y13.96223
G01 X20.16873 Y14.00663
G01 X20.11994 Y14.04615
G01 X20.02500 Y14.11107
G01 X19.92131 Y14.16083
G01 X19.86266 Y14.18333
G01 X19.75088 Y14.21046
G01 X19.68939 Y14.22024
G01 X19.62716 Y14.22357
G01 X18.80100 Y14.22494
G01 X18.74247 Y14.22276
G01 X18.64915 Y14.21046
G01 X18.53737 Y14.18333
G01 X18.43099 Y14.13957
G01 X18.37504 Y14.11107
G01 X18.32236 Y14.07686
G01 X18.23127 Y14.00663
G01 X18.15190 Y13.92339
G01 X18.11238 Y13.87457
G01 X18.07819 Y13.82192
G01 X18.02355 Y13.72070
G01 X17.98154 Y13.59990
G01 X17.99904 Y13.57406
G01 X17.98154 Y13.59990
G01 X10.44506 Y13.59990
G01 X10.41887 Y13.56713
G01 X10.44506 Y13.59990
G01 X10.43845 Y13.66703
G01 X10.40429 Y13.77958
G01 X10.34887 Y13.88331
G01 X10.29824 Y13.94498
G01 X10.48514 Y13.94498
G01 X10.54287 Y13.83698
G01 X10.56929 Y13.74988
G01 X10.54739 Y13.72037
G01 X10.56929 Y13.74988
G01 X11.88463 Y13.74988
G01 X12.13753 Y13.68341
G01 X12.35300 Y13.65273
G01 X12.49534 Y13.64422
G01 X13.33601 Y13.64397
G01 X13.51716 Y13.65240
G01 X13.73616 Y13.68425
G01 X13.98543 Y13.74988
G01 X14.98462 Y13.74988
G01 X15.23771 Y13.68334
G01 X15.45391 Y13.65268
G01 X15.60888 Y13.64465
G01 X16.46508 Y13.64475
G01 X16.61609 Y13.65232
G01 X16.83633 Y13.68428
G01 X17.08543 Y13.74988
G01 X17.87430 Y13.74988
G01 X17.88670 Y13.72895
G01 X17.87430 Y13.74988
G01 X17.88652 Y13.78171
G01 X17.94829 Y13.89690
G01 X17.99104 Y13.96274
G01 X18.04044 Y14.02375
G01 X18.13092 Y14.11808
G01 X18.23422 Y14.19822
G01 X18.30003 Y14.24097
G01 X18.41773 Y14.29786
G01 X18.49101 Y14.32598
G01 X18.61796 Y14.35717
G01 X18.76079 Y14.37391
G01 X19.62741 Y14.37356
G01 X19.70516 Y14.36939
G01 X19.83320 Y14.34630
G01 X19.90904 Y14.32598
G01 X19.98232 Y14.29786
G01 X20.09998 Y14.24097
G01 X20.20810 Y14.16748
G01 X20.26912 Y14.11808
G01 X20.32464 Y14.06258
G01 X20.40899 Y13.96274
G01 X20.47788 Y13.85164
G01 X20.51351 Y13.78171
G01 X20.55779 Y13.65870
G01 X20.57811 Y13.58288
G01 X20.59586 Y13.45339
G01 X20.59998 Y13.37498
G01 X20.59998 Y12.12499
G01 X20.00000 Y12.12499
G01 X20.00000 Y13.37498
G01 X19.99126 Y13.45816
G01 X19.95830 Y13.55166
G01 X19.92365 Y13.61011
G01 X19.86767 Y13.67224
G01 X19.78606 Y13.72852
G01 X19.72362 Y13.75542
G01 X19.64194 Y13.77279
G01 X18.79218 Y13.77478
G01 X18.74270 Y13.77033
G01 X18.69157 Y13.75948
G01 X18.61400 Y13.72852
G01 X18.53236 Y13.67224
G01 X18.48629 Y13.62230
G01 X18.46785 Y13.59692
G01 X18.42896 Y13.52304
G01 X18.40874 Y13.45816
G01 X18.40084 Y13.39068
G01 X18.40001 Y13.14996
G01 X10.00002 Y13.14996
G01 X10.00002 Y13.54999
G01 X9.99713 Y13.57925
G01 X9.98859 Y13.60739
G01 X9.97472 Y13.63332
G01 X9.95608 Y13.65606
G01 X9.93335 Y13.67470
G01 X9.90741 Y13.68857
G01 X9.87927 Y13.69710
G01 X9.85001 Y13.70000
G01 X8.25001 Y13.70000
G01 X8.22075 Y13.69710
G01 X8.19261 Y13.68857
G01 X8.16668 Y13.67470
G01 X8.14394 Y13.65606
G01 X8.12530 Y13.63332
G01 X8.11143 Y13.60739
G01 X8.10290 Y13.57925
G01 X8.10000 Y13.54999
G01 X8.10000 Y13.14996
G01 X5.77996 Y13.14996
G01 X5.68248 Y13.31717
G01 X5.54669 Y13.46919
G01 X5.52340 Y13.49017
G01 X5.37118 Y13.60076
G01 X5.34402 Y13.61643
G01 X5.15749 Y13.69860
G01 X4.94276 Y13.74424
G01 X4.72325 Y13.74424
G01 X4.52371 Y13.70266
G01 X4.49389 Y13.69296
G01 X4.30801 Y13.60932
G01 X4.14263 Y13.49017
G01 X4.11931 Y13.46919
G01 X3.98355 Y13.31717
G01 X3.88606 Y13.14996
G01 X3.16572 Y13.14996
G01 X2.82003 Y13.49566
G01 X2.82003 Y23.56729
G01 X11.28287 Y32.03014
G01 X11.31635 Y32.06862
G01 X11.35069 Y32.12109
G01 X11.38366 Y32.20070
G01 X11.39649 Y32.26209
G01 X11.40004 Y32.31299
G01 X11.40004 Y48.69998
G01 X11.80002 Y48.69998
G01 X11.82928 Y48.70287
G01 X11.85742 Y48.71141
G01 X11.88336 Y48.72528
G01 X11.90609 Y48.74392
G01 X11.92473 Y48.76665
G01 X11.93860 Y48.79259
G01 X11.94714 Y48.82073
G01 X11.95001 Y48.84999
G01 X11.95001 Y50.44999
G01 X11.94714 Y50.47925
G01 X11.93860 Y50.50739
G01 X11.92473 Y50.53333
G01 X11.90609 Y50.55606
G01 X11.88336 Y50.57470
G01 X11.85742 Y50.58857
G01 X11.82928 Y50.59710
G01 X11.80002 Y50.59997
G01 X10.20002 Y50.59997
G01 X10.17076 Y50.59710
G01 X10.14262 Y50.58857
G01 X10.11668 Y50.57470
G01 X10.09395 Y50.55606
G01 X10.07528 Y50.53333
G01 X10.06144 Y50.50739
G01 X10.05291 Y50.47925
G01 X10.05001 Y50.44999
G01 X10.05001 Y50.04999
G01 X9.41001 Y50.04999
G01 X9.41001 Y50.44999
G01 X9.40714 Y50.47925
G01 X9.39860 Y50.50739
G01 X9.38473 Y50.53333
G01 X9.36609 Y50.55606
G01 X9.34336 Y50.57470
G01 X9.31742 Y50.58857
G01 X9.28928 Y50.59710
G01 X9.26002 Y50.59997
G01 X7.66002 Y50.59997
G01 X7.63076 Y50.59710
G01 X7.60262 Y50.58857
G01 X7.57668 Y50.57470
G01 X7.55395 Y50.55606
G01 X7.53528 Y50.53333
G01 X7.52144 Y50.50739
G01 X7.51291 Y50.47925
G01 X7.51001 Y50.44999
G01 X7.51001 Y48.84999
G01 X7.51291 Y48.82073
G01 X7.52144 Y48.79259
G01 X7.53528 Y48.76665
G01 X7.55395 Y48.74392
G01 X7.57668 Y48.72528
G01 X7.60262 Y48.71141
G01 X7.63076 Y48.70287
G01 X7.66002 Y48.69998
G01 X9.26002 Y48.69998
G01 X9.28928 Y48.70287
G01 X9.31742 Y48.71141
G01 X9.34336 Y48.72528
G01 X9.36609 Y48.74392
G01 X9.38473 Y48.76665
G01 X9.39860 Y48.79259
G01 X9.40714 Y48.82073
G01 X9.41001 Y48.84999
G01 X9.41001 Y49.24996
G01 X10.05001 Y49.24996
G01 X10.05001 Y48.84999
G01 X10.05291 Y48.82073
G01 X10.06144 Y48.79259
G01 X10.07528 Y48.76665
G01 X10.09395 Y48.74392
G01 X10.11668 Y48.72528
G01 X10.14262 Y48.71141
G01 X10.17076 Y48.70287
G01 X10.20002 Y48.69998
G01 X10.60002 Y48.69998
G01 X10.60002 Y32.47868
G01 X2.13717 Y24.01583
G01 X2.08985 Y23.95830
G01 X2.05869 Y23.90389
G01 X2.03639 Y23.84527
G01 X2.02724 Y23.80712
G01 X2.02000 Y23.73300
G01 X2.02000 Y13.33000
G01 X2.03128 Y13.23764
G01 X2.04550 Y13.19075
G01 X2.07985 Y13.12040
G01 X2.13717 Y13.04714
G01 X2.71718 Y12.46711
G01 X2.75566 Y12.43363
G01 X2.80814 Y12.39931
G01 X2.88774 Y12.36632
G01 X2.94913 Y12.35349
G01 X2.98825 Y12.35042
G01 X3.84789 Y12.34994
G01 X3.87380 Y12.27292
G01 X3.98355 Y12.08281
G01 X4.11931 Y11.93079
G01 X4.14263 Y11.90981
G01 X4.30801 Y11.79065
G01 X4.49389 Y11.70701
G01 X4.52371 Y11.69731
G01 X4.72325 Y11.65573
G01 X4.94276 Y11.65573
G01 X5.14232 Y11.69731
G01 X5.17214 Y11.70701
G01 X5.35802 Y11.79065
G01 X5.53559 Y11.91969
G01 X5.67260 Y12.07061
G01 X5.69104 Y12.09599
G01 X5.78510 Y12.25893
G01 X5.81814 Y12.34994
G01 X8.10000 Y12.34994
G01 X8.10000 Y11.94999
G01 X8.10290 Y11.92073
G01 X8.11143 Y11.89258
G01 X8.12530 Y11.86665
G01 X8.14394 Y11.84392
G01 X8.16668 Y11.82527
G01 X8.19261 Y11.81141
G01 X8.22075 Y11.80287
G01 X8.25001 Y11.79998
G01 X9.85001 Y11.79998
G01 X9.87927 Y11.80287
G01 X9.90741 Y11.81141
G01 X9.93335 Y11.82527
G01 X9.95608 Y11.84392
G01 X9.97472 Y11.86665
G01 X9.98859 Y11.89258
G01 X9.99713 Y11.92073
G01 X10.00002 Y11.94999
G01 X10.00002 Y12.34994
G01 X18.40001 Y12.34994
G01 X18.40001 Y12.12499
G01 X18.40630 Y12.05733
G01 X18.43460 Y11.96228
G01 X18.46785 Y11.90305
G01 X18.53236 Y11.82774
G01 X18.60001 Y11.77859
G01 X18.67641 Y11.74455
G01 X18.76602 Y11.72657
G01 X19.60000 Y11.72500
G01 X19.65733 Y11.72964
G01 X19.70846 Y11.74049
G01 X19.78606 Y11.77145
G01 X19.81319 Y11.78712
G01 X19.86767 Y11.82774
G01 X19.92365 Y11.88987
G01 X19.96546 Y11.96228
G01 X19.98720 Y12.02665
G01 X20.00000 Y12.12499
G01 X20.59998 Y12.12499
G01 X20.59037 Y11.99462
G01 X20.57811 Y11.91710
G01 X20.55779 Y11.84128
G01 X20.51351 Y11.71826
G01 X20.47788 Y11.64834
G01 X20.40899 Y11.53724
G01 X20.32464 Y11.43739
G01 X20.26912 Y11.38189
G01 X20.16581 Y11.30176
G01 X20.09998 Y11.25901
G01 X19.98232 Y11.20211
G01 X19.90904 Y11.17399
G01 X19.83320 Y11.15367
G01 X19.78210 Y11.14280
G01 X19.63927 Y11.12606
G01 X18.80000 Y11.12505
G01 X18.73463 Y11.12744
G01 X18.61796 Y11.14280
G01 X18.49101 Y11.17399
G01 X18.36998 Y11.22337
G01 X18.30003 Y11.25901
G01 X18.23422 Y11.30176
G01 X18.13092 Y11.38189
G01 X18.04044 Y11.47623
G01 X17.99104 Y11.53724
G01 X17.92216 Y11.64834
G01 X17.88652 Y11.71826
G01 X17.87435 Y11.75001
G01 X17.88672 Y11.77094
G01 X17.87435 Y11.75001
G01 X10.56926 Y11.75001
G01 X10.54737 Y11.77953
G01 X10.56926 Y11.75001
G01 X10.54287 Y11.66299
G01 X10.48511 Y11.55497
G01 X7.61491 Y11.55497
G01 X7.55715 Y11.66299
G01 X7.53076 Y11.75001
G01 X7.55266 Y11.77953
G01 X7.53076 Y11.75001
G01 X6.18073 Y11.75001
G01 X6.17473 Y11.76327
G01 X6.18073 Y11.75001
G01 X6.11845 Y11.66917
G01 X5.99254 Y11.52934
G01 X5.93704 Y11.47384
G01 X5.87603 Y11.42444
G01 X5.72381 Y11.31385
G01 X5.65799 Y11.27110
G01 X5.58804 Y11.23546
G01 X5.41616 Y11.15893
G01 X5.34288 Y11.13081
G01 X5.26704 Y11.11049
G01 X5.08301 Y11.07138
G01 X5.00547 Y11.05908
G01 X4.92708 Y11.05497
G01 X4.73895 Y11.05497
G01 X4.66054 Y11.05908
G01 X4.58302 Y11.07138
G01 X4.39897 Y11.11049
G01 X4.32315 Y11.13081
G01 X4.24987 Y11.15893
G01 X4.07799 Y11.23546
G01 X4.00804 Y11.27110
G01 X3.94220 Y11.31385
G01 X3.79000 Y11.42444
G01 X3.72899 Y11.47384
G01 X3.67349 Y11.52934
G01 X3.54758 Y11.66917
G01 X3.48530 Y11.75001
G01 X3.49122 Y11.76294
G01 X3.48530 Y11.75001
G01 X3.00001 Y11.75001
G01 X2.90207 Y11.75540
G01 X2.74769 Y11.78296
G01 X2.63577 Y11.81933
G01 X2.59953 Y11.83434
G01 X2.46123 Y11.90828
G01 X2.36603 Y11.97745
G01 X2.29295 Y12.04290
G01 X1.71294 Y12.62294
G01 X1.66351 Y12.67747
G01 X1.63242 Y12.71534
G01 X1.55076 Y12.83759
G01 X1.52765 Y12.88077
G01 X1.47139 Y13.01664
G01 X1.45716 Y13.06352
G01 X1.42849 Y13.20770
G01 X1.42008 Y13.33000
G01 X1.42008 Y23.73300
G01 X1.42546 Y23.83094
G01 X1.44388 Y23.94717
G01 X1.45302 Y23.98532
G01 X1.50441 Y24.13348
G01 X1.57832 Y24.27178
G01 X1.64751 Y24.36698
G01 X1.71294 Y24.44006
G01 X10.00010 Y32.72716
G01 X10.01150 Y32.72244
G01 X10.00010 Y32.72716
G01 X10.00010 Y48.13071
G01 X10.02961 Y48.15261
G01 X10.00010 Y48.13071
G01 X9.91303 Y48.15713
G01 X9.78336 Y48.22645
G01 X9.73002 Y48.27021
G01 X9.73002 Y48.29655
G01 X9.73002 Y48.27021
G01 X9.67665 Y48.22645
G01 X9.54701 Y48.15713
G01 X9.40632 Y48.11446
G01 X9.26002 Y48.10006
G01 X7.66002 Y48.10006
G01 X7.51372 Y48.11446
G01 X7.37303 Y48.15713
G01 X7.24336 Y48.22645
G01 X7.12972 Y48.31969
G01 X7.03645 Y48.43335
G01 X6.96716 Y48.56300
G01 X6.92449 Y48.70369
G01 X6.91006 Y48.84999
G01 X6.91006 Y50.44999
G01 X6.92449 Y50.59629
G01 X6.96716 Y50.73698
G01 X7.03645 Y50.86660
G01 X7.12972 Y50.98026
G01 X7.24336 Y51.07351
G01 X7.37303 Y51.14282
G01 X7.51372 Y51.18552
G01 X7.66002 Y51.19992
G01 X9.26002 Y51.19992
G01 X9.40632 Y51.18552
G01 X9.54701 Y51.14282
G01 X9.67665 Y51.07351
G01 X9.73002 Y51.02974
G01 X9.73002 Y51.00343
G01 X9.73002 Y51.02974
G01 X9.78336 Y51.07351
G01 X9.91303 Y51.14282
G01 X10.05372 Y51.18552
G01 X10.20002 Y51.19992
G01 X11.80002 Y51.19992
G01 X11.94632 Y51.18552
G01 X12.08701 Y51.14282
G01 X12.19504 Y51.08509
G01 X12.19504 Y50.66088
G01 X12.19504 Y50.89820
G01 X12.13332 Y50.94884
G01 X12.02961 Y51.00427
G01 X11.91706 Y51.03840
G01 X11.80002 Y51.04994
G01 X10.20002 Y51.04994
G01 X10.08298 Y51.03840
G01 X9.97043 Y51.00427
G01 X9.86670 Y50.94884
G01 X9.77579 Y50.87419
G01 X9.73002 Y50.81842
G01 X9.73002 Y50.76116
G01 X9.73002 Y50.81842
G01 X9.68425 Y50.87419
G01 X9.59332 Y50.94884
G01 X9.48961 Y51.00427
G01 X9.37706 Y51.03840
G01 X9.26002 Y51.04994
G01 X7.66002 Y51.04994
G01 X7.54298 Y51.03840
G01 X7.43043 Y51.00427
G01 X7.32670 Y50.94884
G01 X7.23579 Y50.87419
G01 X7.16117 Y50.78331
G01 X7.10572 Y50.67958
G01 X7.07158 Y50.56703
G01 X7.06005 Y50.44999
G01 X7.06005 Y48.84999
G01 X7.07158 Y48.73295
G01 X7.10572 Y48.62040
G01 X7.16117 Y48.51667
G01 X7.23579 Y48.42576
G01 X7.32670 Y48.35114
G01 X7.43043 Y48.29571
G01 X7.54298 Y48.26155
G01 X7.66002 Y48.25004
G01 X9.26002 Y48.25004
G01 X9.37706 Y48.26155
G01 X9.48961 Y48.29571
G01 X9.59332 Y48.35114
G01 X9.68425 Y48.42576
G01 X9.73002 Y48.48151
G01 X9.73002 Y48.53882
G01 X9.73002 Y48.48151
G01 X9.77579 Y48.42576
G01 X9.86670 Y48.35114
G01 X9.97043 Y48.29571
G01 X10.08298 Y48.26155
G01 X10.15009 Y48.25495
G01 X10.18285 Y48.28113
G01 X10.15009 Y48.25495
G01 X10.15009 Y32.66503
G01 X10.16149 Y32.66031
G01 X10.15009 Y32.66503
G01 X1.81901 Y24.33399
G01 X1.76156 Y24.26957
G01 X1.68571 Y24.15995
G01 X1.62795 Y24.03983
G01 X1.58973 Y23.91214
G01 X1.57499 Y23.81915
G01 X1.57007 Y23.73300
G01 X1.57007 Y13.33000
G01 X1.57776 Y13.22240
G01 X1.60070 Y13.10706
G01 X1.61492 Y13.06015
G01 X1.65993 Y12.95149
G01 X1.68302 Y12.90828
G01 X1.74838 Y12.81046
G01 X1.77946 Y12.77259
G01 X1.81899 Y12.72896
G01 X2.39900 Y12.14895
G01 X2.46344 Y12.09149
G01 X2.53959 Y12.03615
G01 X2.57304 Y12.01565
G01 X2.69318 Y11.95791
G01 X2.78271 Y11.92881
G01 X2.91383 Y11.90493
G01 X3.00001 Y11.90000
G01 X3.56859 Y11.90000
G01 X3.57745 Y11.91677
G01 X3.56859 Y11.90000
G01 X3.61952 Y11.81834
G01 X3.78495 Y11.62972
G01 X3.82935 Y11.58530
G01 X3.87814 Y11.54577
G01 X4.03036 Y11.43518
G01 X4.08304 Y11.40099
G01 X4.13900 Y11.37247
G01 X4.36950 Y11.27343
G01 X4.61421 Y11.21806
G01 X4.67623 Y11.20826
G01 X4.73895 Y11.20496
G01 X4.92708 Y11.20496
G01 X4.98980 Y11.20826
G01 X5.05182 Y11.21806
G01 X5.29653 Y11.27343
G01 X5.52703 Y11.37247
G01 X5.58299 Y11.40099
G01 X5.63567 Y11.43518
G01 X5.83668 Y11.58530
G01 X6.00699 Y11.76952
G01 X6.04651 Y11.81834
G01 X6.09744 Y11.90000
G01 X6.08850 Y11.91710
G01 X6.09744 Y11.90000
G01 X7.65499 Y11.90000
G01 X7.68115 Y11.93277
G01 X7.65499 Y11.90000
G01 X7.66160 Y11.83295
G01 X7.69573 Y11.72040
G01 X7.75116 Y11.61666
G01 X7.80180 Y11.55497
G01 X8.03909 Y11.55497
G01 X8.00003 Y11.57585
G01 X7.93183 Y11.63180
G01 X7.87587 Y11.70000
G01 X7.83429 Y11.77780
G01 X7.80869 Y11.86221
G01 X7.80005 Y11.94999
G01 X7.80005 Y12.04999
G01 X7.83970 Y12.09149
G01 X7.80005 Y12.04999
G01 X6.01085 Y12.04999
G01 X5.99975 Y12.06952
G01 X6.01085 Y12.04999
G01 X5.92515 Y11.90650
G01 X5.73633 Y11.69678
G01 X5.50801 Y11.53089
G01 X5.29414 Y11.43297
G01 X5.20468 Y11.40389
G01 X5.02063 Y11.36477
G01 X4.92708 Y11.35494
G01 X4.69190 Y11.35741
G01 X4.46135 Y11.40389
G01 X4.37189 Y11.43297
G01 X4.15802 Y11.53089
G01 X3.92970 Y11.69678
G01 X3.74085 Y11.90650
G01 X3.65518 Y12.04999
G01 X3.66618 Y12.06924
G01 X3.65518 Y12.04999
G01 X2.96473 Y12.05136
G01 X2.85587 Y12.06548
G01 X2.81772 Y12.07465
G01 X2.71431 Y12.11148
G01 X2.65140 Y12.14354
G01 X2.56084 Y12.20554
G01 X2.50507 Y12.25502
G01 X1.92506 Y12.83505
G01 X1.86430 Y12.90564
G01 X1.81530 Y12.97899
G01 X1.79219 Y13.02217
G01 X1.75846 Y13.10368
G01 X1.74423 Y13.15060
G01 X1.72701 Y13.23711
G01 X1.72005 Y13.33000
G01 X1.72005 Y23.73300
G01 X1.72450 Y23.80739
G01 X1.73555 Y23.87714
G01 X1.76654 Y23.98243
G01 X1.81360 Y24.08159
G01 X1.87560 Y24.17216
G01 X1.92506 Y24.22794
G01 X10.30007 Y32.60291
G01 X10.31148 Y32.59818
G01 X10.30007 Y32.60291
G01 X10.30007 Y48.40000
G01 X10.34158 Y48.43968
G01 X10.30007 Y48.40000
G01 X10.20002 Y48.40000
G01 X10.11224 Y48.40867
G01 X10.02781 Y48.43427
G01 X9.95004 Y48.47585
G01 X9.88184 Y48.53181
G01 X9.82588 Y48.60000
G01 X9.78430 Y48.67778
G01 X9.75870 Y48.76221
G01 X9.75004 Y48.84999
G01 X9.75004 Y48.95002
G01 X9.78968 Y48.99152
G01 X9.75004 Y48.95002
G01 X9.70998 Y48.95002
G01 X9.67033 Y48.99152
G01 X9.70998 Y48.95002
G01 X9.75004 Y48.95002
G01 X9.70998 Y48.95002
G01 X9.70998 Y48.84999
G01 X9.70134 Y48.76221
G01 X9.67574 Y48.67778
G01 X9.63416 Y48.60000
G01 X9.57818 Y48.53181
G01 X9.51001 Y48.47585
G01 X9.43221 Y48.43427
G01 X9.34780 Y48.40867
G01 X9.26002 Y48.40000
G01 X7.66002 Y48.40000
G01 X7.57224 Y48.40867
G01 X7.48781 Y48.43427
G01 X7.41004 Y48.47585
G01 X7.34184 Y48.53181
G01 X7.28588 Y48.60000
G01 X7.24430 Y48.67778
G01 X7.21870 Y48.76221
G01 X7.21004 Y48.84999
G01 X7.21004 Y50.44999
G01 X7.21870 Y50.53777
G01 X7.24430 Y50.62217
G01 X7.28588 Y50.69997
G01 X7.34184 Y50.76817
G01 X7.41004 Y50.82413
G01 X7.48781 Y50.86571
G01 X7.57224 Y50.89129
G01 X7.66002 Y50.89992
G01 X9.26002 Y50.89992
G01 X9.34780 Y50.89129
G01 X9.43221 Y50.86571
G01 X9.51001 Y50.82413
G01 X9.57818 Y50.76817
G01 X9.63416 Y50.69997
G01 X9.67574 Y50.62217
G01 X9.70134 Y50.53777
G01 X9.70998 Y50.44999
G01 X9.70998 Y50.34994
G01 X9.67033 Y50.30843
G01 X9.70998 Y50.34994
G01 X9.75004 Y50.34994
G01 X9.78968 Y50.30843
G01 X9.75004 Y50.34994
G01 X9.70998 Y50.34994
G01 X9.75004 Y50.34994
G01 X9.75004 Y50.44999
G01 X9.75870 Y50.53777
G01 X9.78430 Y50.62217
G01 X9.82588 Y50.69997
G01 X9.88184 Y50.76817
G01 X9.95004 Y50.82413
G01 X10.02781 Y50.86571
G01 X10.11224 Y50.89129
G01 X10.20002 Y50.89992
G01 X11.80002 Y50.89992
G01 X11.88780 Y50.89129
G01 X11.97221 Y50.86571
G01 X12.05001 Y50.82413
G01 X12.11818 Y50.76817
G01 X12.17416 Y50.69997
G01 X12.19504 Y50.66088
G01 X12.19504 Y48.21489
G01 X12.08701 Y48.15713
G01 X11.99997 Y48.13074
G01 X11.97048 Y48.15261
G01 X11.99997 Y48.13074
G01 X11.99997 Y32.31299
G01 X11.99458 Y32.21502
G01 X11.97617 Y32.09879
G01 X11.93065 Y31.94873
G01 X11.86222 Y31.80763
G01 X11.77254 Y31.67898
G01 X11.70711 Y31.60591
G01 X7.63963 Y27.53845
G01 X7.40689 Y27.43990
G01 X7.24618 Y27.35710
G04 P0 ( dwell for no time -- G64 should not smooth over this point )
G00 Z5.00000 ( retract )

G00 X7.63135 Y25.59413 ( rapid move to begin. )
G01 F200.00000
( Mill infeed pass 1/1 )
G01 Z-0.15000
G04 P0 ( dwell for no time -- G64 should not smooth over this point )
G01 F200.00000
G01 X7.63135 Y25.59413
G01 X7.81270 Y25.66924
G01 X7.84092 Y25.67744
G01 X9.26004 Y25.67516
G01 X9.51069 Y25.64897
G01 X9.73002 Y25.57831
G01 X9.94937 Y25.64897
G01 X10.20002 Y25.67496
G01 X11.80004 Y25.67516
G01 X12.05069 Y25.64897
G01 X12.27002 Y25.57831
G01 X12.48937 Y25.64897
G01 X12.74005 Y25.67496
G01 X14.34004 Y25.67516
G01 X14.59077 Y25.64925
G01 X14.83293 Y25.57097
G01 X14.86638 Y25.54902
G01 X14.88381 Y25.51298
G01 X14.89120 Y25.51539
G01 X14.88381 Y25.51298
G01 X14.88503 Y25.49822
G01 X14.90959 Y25.51839
G01 X15.00611 Y25.52159
G01 X14.90959 Y25.51839
G01 X14.87797 Y25.55001
G01 X14.86537 Y25.55001
G01 X14.85663 Y25.55829
G01 X14.86537 Y25.55001
G01 X14.87797 Y25.55001
G01 X14.90959 Y25.51839
G01 X14.88503 Y25.49822
G01 X14.88503 Y22.81486
G01 X14.99303 Y22.75713
G01 X15.05010 Y22.73983
G01 X15.07398 Y22.75520
G01 X15.05010 Y22.73983
G01 X15.05010 Y16.74731
G01 X15.06516 Y16.74000
G01 X15.05010 Y16.74731
G01 X14.96593 Y16.68109
G01 X14.87545 Y16.58673
G01 X14.82605 Y16.52575
G01 X14.75716 Y16.41465
G01 X14.72153 Y16.34470
G01 X14.67723 Y16.22171
G01 X14.65693 Y16.14589
G01 X14.64464 Y16.06834
G01 X14.63507 Y15.93799
G01 X14.63507 Y14.68798
G01 X14.64464 Y14.55763
G01 X14.65693 Y14.48008
G01 X14.67723 Y14.40426
G01 X14.72153 Y14.28128
G01 X14.78330 Y14.16606
G01 X14.82605 Y14.10023
G01 X14.87545 Y14.03924
G01 X14.96593 Y13.94488
G01 X15.03103 Y13.89250
G01 X15.21479 Y13.84188
G01 X15.41538 Y13.80744
G01 X15.61086 Y13.79464
G01 X16.45919 Y13.79464
G01 X16.65462 Y13.80741
G01 X16.80699 Y13.83162
G01 X17.03900 Y13.89250
G01 X17.10410 Y13.94488
G01 X17.15962 Y14.00040
G01 X17.24398 Y14.10023
G01 X17.31286 Y14.21133
G01 X17.34850 Y14.28128
G01 X17.37664 Y14.35456
G01 X17.41311 Y14.48008
G01 X17.43084 Y14.60960
G01 X17.43496 Y14.68798
G01 X17.43496 Y15.93799
G01 X17.43084 Y16.01638
G01 X17.41311 Y16.14589
G01 X17.37664 Y16.27142
G01 X17.34850 Y16.34470
G01 X17.31286 Y16.41465
G01 X17.24398 Y16.52575
G01 X17.15962 Y16.62557
G01 X17.10410 Y16.68109
G01 X17.04997 Y16.72491
G01 X17.03791 Y16.71975
G01 X17.04997 Y16.72491
G01 X17.04997 Y22.72162
G01 X17.02046 Y22.74352
G01 X17.04997 Y22.72162
G01 X17.16701 Y22.75713
G01 X17.27504 Y22.81489
G01 X17.27504 Y25.68506
G01 X17.16701 Y25.74285
G01 X17.05299 Y25.77742
G01 X17.03976 Y25.76383
G01 X17.05299 Y25.77742
G01 X17.01065 Y25.91422
G01 X16.99564 Y25.95044
G01 X16.92170 Y26.08877
G01 X16.85254 Y26.18395
G01 X16.78708 Y26.25702
G01 X15.93707 Y27.10703
G01 X15.88254 Y27.15646
G01 X15.84466 Y27.18755
G01 X15.72241 Y27.26921
G01 X15.67921 Y27.29233
G01 X15.54339 Y27.34859
G01 X15.49648 Y27.36281
G01 X15.35231 Y27.39149
G01 X15.23001 Y27.39989
G01 X7.69708 Y27.39989
G01 X7.47016 Y27.30391
G01 X7.30455 Y27.21826
G01 X7.16063 Y27.12491
G01 X6.99845 Y26.99182
G01 X4.24398 Y24.23935
G01 X4.17308 Y24.16325
G01 X4.07108 Y24.03536
G01 X3.97773 Y23.89144
G01 X3.89208 Y23.72584
G01 X3.79610 Y23.49894
G01 X3.79610 Y16.53159
G01 X3.80953 Y16.52547
G01 X3.79610 Y16.53159
G01 X3.71299 Y16.46613
G01 X3.65749 Y16.41064
G01 X3.56000 Y16.30238
G01 X3.55472 Y16.28859
G01 X3.50232 Y16.12783
G01 X3.45292 Y15.94345
G01 X3.42282 Y15.80215
G01 X3.39363 Y15.61790
G01 X3.37989 Y15.48762
G01 X3.37024 Y15.30345
G01 X3.37024 Y15.17655
G01 X3.37989 Y14.99232
G01 X3.39363 Y14.86205
G01 X3.42282 Y14.67780
G01 X3.45292 Y14.53650
G01 X3.50232 Y14.35212
G01 X3.55998 Y14.17762
G01 X3.68896 Y14.03787
G01 X4.20217 Y14.04140
G01 X3.92632 Y14.03916
G01 X3.81334 Y14.12530
G01 X3.64304 Y14.30952
G01 X3.60351 Y14.35834
G01 X3.47524 Y14.57394
G01 X3.44675 Y14.62989
G01 X3.41817 Y14.70726
G01 X3.39363 Y14.86205
G01 X3.37989 Y14.99232
G01 X3.37024 Y15.17655
G01 X3.37024 Y15.30345
G01 X3.37989 Y15.48762
G01 X3.39363 Y15.61790
G01 X3.41817 Y15.77276
G01 X3.44675 Y15.85008
G01 X3.56933 Y16.06898
G01 X3.60351 Y16.12163
G01 X3.64304 Y16.17045
G01 X3.81334 Y16.35468
G01 X3.94608 Y16.45516
G01 X3.96176 Y16.44736
G01 X3.94608 Y16.45516
G01 X3.94608 Y23.68598
G01 X3.95378 Y23.79355
G01 X3.96757 Y23.87239
G01 X4.00181 Y23.93160
G01 X4.09838 Y24.07221
G01 X4.17308 Y24.16325
G01 X4.24398 Y24.23935
G01 X6.95665 Y26.95202
G01 X7.03274 Y27.02291
G01 X7.12380 Y27.09761
G01 X7.30455 Y27.21826
G01 X7.32360 Y27.22842
G01 X7.34420 Y27.23358
G01 X7.45121 Y27.24704
G01 X7.51001 Y27.24991
G01 X15.23001 Y27.24991
G01 X15.33760 Y27.24221
G01 X15.45295 Y27.21927
G01 X15.49983 Y27.20505
G01 X15.60849 Y27.16004
G01 X15.65173 Y27.13695
G01 X15.74952 Y27.07160
G01 X15.78739 Y27.04051
G01 X15.83102 Y27.00099
G01 X16.68104 Y26.15098
G01 X16.73849 Y26.08656
G01 X16.79384 Y26.01041
G01 X16.85706 Y25.89306
G01 X16.90118 Y25.76726
G01 X16.91032 Y25.72913
G01 X16.92355 Y25.64564
G01 X16.90600 Y25.62733
G01 X16.92355 Y25.64564
G01 X16.99706 Y25.63838
G01 X17.10961 Y25.60427
G01 X17.21332 Y25.54884
G01 X17.27504 Y25.49817
G01 X17.27504 Y25.26088
G01 X17.25416 Y25.29997
G01 X17.19818 Y25.36817
G01 X17.13001 Y25.42413
G01 X17.05221 Y25.46568
G01 X16.96780 Y25.49131
G01 X16.88002 Y25.49995
G01 X16.77999 Y25.49995
G01 X16.74730 Y25.46520
G01 X16.77999 Y25.49995
G01 X16.77555 Y25.62438
G01 X16.75533 Y25.73228
G01 X16.71850 Y25.83566
G01 X16.68645 Y25.89855
G01 X16.62444 Y25.98915
G01 X16.59897 Y26.01900
G01 X15.69224 Y26.92458
G01 X15.65437 Y26.95567
G01 X15.58101 Y27.00467
G01 X15.53781 Y27.02776
G01 X15.45630 Y27.06152
G01 X15.40941 Y27.07574
G01 X15.32290 Y27.09296
G01 X15.23001 Y27.09992
G01 X7.51001 Y27.09992
G01 X7.37346 Y27.08648
G01 X7.28372 Y27.06152
G01 X7.20224 Y27.02776
G01 X7.15901 Y27.00467
G01 X7.08568 Y26.95565
G01 X7.01507 Y26.89492
G01 X4.30108 Y24.18093
G01 X4.24034 Y24.11031
G01 X4.19132 Y24.03699
G01 X4.14934 Y23.95383
G01 X4.12025 Y23.86536
G01 X4.10303 Y23.77884
G01 X4.09607 Y23.68598
G01 X4.09607 Y16.37876
G01 X4.11205 Y16.37071
G01 X4.09607 Y16.37876
G01 X3.91370 Y16.24320
G01 X3.72488 Y16.03347
G01 X3.58375 Y15.78907
G01 X3.49653 Y15.52067
G01 X3.46704 Y15.24000
G01 X3.49653 Y14.95930
G01 X3.58375 Y14.69090
G01 X3.72488 Y14.44650
G01 X3.91370 Y14.23678
G01 X4.10252 Y14.09654
G01 X4.14202 Y14.07089
G01 X4.20217 Y14.04140
G01 X4.94245 Y14.04658
G01 X5.15749 Y14.09060
G01 X5.21715 Y14.10998
G01 X5.41700 Y14.20076
G01 X5.59556 Y14.32847
G01 X5.64217 Y14.37043
G01 X5.78781 Y14.53464
G01 X5.89899 Y14.72392
G01 X5.92452 Y14.78123
G01 X5.99078 Y14.99050
G01 X6.01700 Y15.24000
G01 X5.99078 Y15.48948
G01 X5.91326 Y15.72806
G01 X5.78781 Y15.94533
G01 X5.61997 Y16.13174
G01 X5.41700 Y16.27922
G01 X5.34601 Y16.31262
G01 X5.32421 Y16.29936
G01 X5.34601 Y16.31262
G01 X5.34601 Y23.45817
G01 X5.33460 Y23.46289
G01 X5.34601 Y23.45817
G01 X7.73782 Y25.84999
G01 X7.73310 Y25.86139
G01 X7.73782 Y25.84999
G01 X15.00222 Y25.84999
G01 X15.00695 Y25.86139
G01 X15.00222 Y25.84999
G01 X15.50222 Y25.34996
G01 X15.68002 Y25.27846
G01 X15.68002 Y25.38428
G01 X15.06435 Y25.99995
G01 X7.67572 Y25.99995
G01 X5.19604 Y23.52027
G01 X5.19604 Y16.21521
G01 X5.34202 Y16.14932
G01 X5.50740 Y16.03017
G01 X5.53071 Y16.00919
G01 X5.66648 Y15.85717
G01 X5.76912 Y15.68105
G01 X5.78187 Y15.65239
G01 X5.84407 Y15.45829
G01 X5.86701 Y15.24000
G01 X5.84407 Y15.02169
G01 X5.77623 Y14.81292
G01 X5.66648 Y14.62281
G01 X5.53071 Y14.47079
G01 X5.50740 Y14.44981
G01 X5.34202 Y14.33065
G01 X5.15614 Y14.24701
G01 X5.12632 Y14.23731
G01 X4.94227 Y14.19819
G01 X4.91108 Y14.19492
G01 X4.70725 Y14.19573
G01 X4.49254 Y14.24137
G01 X4.29201 Y14.33065
G01 X4.11444 Y14.45969
G01 X3.96755 Y14.62281
G01 X3.85779 Y14.81292
G01 X3.78995 Y15.02169
G01 X3.76701 Y15.24000
G01 X3.78995 Y15.45829
G01 X3.85216 Y15.65239
G01 X3.86491 Y15.68105
G01 X3.96755 Y15.85717
G01 X4.10331 Y16.00919
G01 X4.12663 Y16.03017
G01 X4.29252 Y16.14960
G01 X4.39602 Y16.19570
G01 X4.39602 Y23.68598
G01 X4.40372 Y23.76401
G01 X4.42647 Y23.83904
G01 X4.45589 Y23.89558
G01 X4.51319 Y23.96881
G01 X7.22718 Y26.68280
G01 X7.30041 Y26.74010
G01 X7.34364 Y26.76322
G01 X7.41771 Y26.78869
G01 X7.51001 Y26.79997
G01 X15.23001 Y26.79997
G01 X15.29348 Y26.79443
G01 X15.36923 Y26.77447
G01 X15.43961 Y26.74013
G01 X15.50194 Y26.69268
G01 X16.36287 Y25.83282
G01 X16.39635 Y25.79434
G01 X16.43067 Y25.74186
G01 X16.45637 Y25.68463
G01 X16.47649 Y25.60086
G01 X16.48004 Y25.54999
G01 X16.48004 Y25.19997
G01 X16.88002 Y25.19997
G01 X16.90928 Y25.19710
G01 X16.93742 Y25.18857
G01 X16.96336 Y25.17470
G01 X16.98609 Y25.15606
G01 X17.00473 Y25.13333
G01 X17.01860 Y25.10739
G01 X17.02714 Y25.07925
G01 X17.03001 Y25.04999
G01 X17.03001 Y23.44999
G01 X17.02714 Y23.42073
G01 X17.01860 Y23.39259
G01 X17.00473 Y23.36665
G01 X16.98609 Y23.34392
G01 X16.96336 Y23.32528
G01 X16.93742 Y23.31141
G01 X16.90928 Y23.30287
G01 X16.88002 Y23.29998
G01 X16.45005 Y23.29998
G01 X16.45005 Y16.33672
G01 X16.49234 Y16.33334
G01 X16.57329 Y16.31279
G01 X16.63501 Y16.28440
G01 X16.70268 Y16.23525
G01 X16.75861 Y16.17309
G01 X16.79330 Y16.11467
G01 X16.82627 Y16.02115
G01 X16.83501 Y15.93799
G01 X16.83501 Y14.68798
G01 X16.82874 Y14.62034
G01 X16.82221 Y14.58966
G01 X16.79330 Y14.51130
G01 X16.75861 Y14.45288
G01 X16.71378 Y14.40183
G01 X16.63501 Y14.34158
G01 X16.54344 Y14.30350
G01 X16.46115 Y14.28935
G01 X15.59320 Y14.29017
G01 X15.51142 Y14.30757
G01 X15.44901 Y14.33444
G01 X15.36737 Y14.39073
G01 X15.31142 Y14.45288
G01 X15.27672 Y14.51130
G01 X15.24375 Y14.60482
G01 X15.23501 Y14.68798
G01 X15.23501 Y15.93799
G01 X15.24375 Y16.02115
G01 X15.26958 Y16.10068
G01 X15.31142 Y16.17309
G01 X15.36737 Y16.23525
G01 X15.43501 Y16.28440
G01 X15.51142 Y16.31841
G01 X15.59267 Y16.33573
G01 X15.65002 Y16.33692
G01 X15.65002 Y23.29998
G01 X15.28002 Y23.29998
G01 X15.25076 Y23.30287
G01 X15.22262 Y23.31141
G01 X15.19668 Y23.32528
G01 X15.17395 Y23.34392
G01 X15.15528 Y23.36665
G01 X15.14144 Y23.39259
G01 X15.13291 Y23.42073
G01 X15.13001 Y23.44999
G01 X15.13001 Y25.04999
G01 X15.13291 Y25.07925
G01 X15.14144 Y25.10739
G01 X15.15528 Y25.13333
G01 X15.17395 Y25.15606
G01 X15.19668 Y25.17470
G01 X15.22262 Y25.18857
G01 X15.25076 Y25.19710
G01 X15.28002 Y25.19997
G01 X15.68002 Y25.19997
G01 X15.68002 Y25.27846
G01 X15.50222 Y25.34996
G01 X15.28002 Y25.34996
G01 X15.22150 Y25.34420
G01 X15.16521 Y25.32713
G01 X15.11335 Y25.29942
G01 X15.06788 Y25.26210
G01 X15.03059 Y25.21664
G01 X15.00286 Y25.16480
G01 X14.98579 Y25.10851
G01 X14.98002 Y25.04999
