( pcb2gcode 2.5.0 )
( Software-independent Gcode )

G94 ( Millimeters per minute feed rate. )
G21 ( Units == Millimeters. )

G90 ( Absolute coordinates. )
G00 S1000 ( RPM spindle speed. )
G01 F75.00000 ( Feedrate. )


G00 Z40.00000 (Retract to tool change height)
T0
M5      (Spindle stop.)
G04 P1.00000 (Wait for spindle to stop)
(MSG, Change tool bit to mill diameter 0.50000mm)
M0      (Temporary machine stop.)
M3 ( Spindle on clockwise. )
G04 P1.00000 (Wait for spindle to get up to speed)
G04 P0 ( dwell for no time -- G64 should not smooth over this point )
G00 Z5.00000 ( retract )

G00 X45.35992 Y5.42999 ( rapid move to begin. )
G01 F75.00000
( Mill infeed pass 1/1 )
G01 Z-0.10000
G04 P0 ( dwell for no time -- G64 should not smooth over this point )
G01 F75.00000
G01 X45.35992 Y5.42999
G01 X45.35032 Y5.52752
G01 X45.32187 Y5.62130
G01 X45.27567 Y5.70771
G01 X45.22042 Y5.77502
G01 X42.89960 Y5.77502
G01 X42.84435 Y5.70771
G01 X42.79818 Y5.62130
G01 X42.76973 Y5.52752
G01 X42.76010 Y5.42999
G01 X42.76010 Y3.82999
G01 X42.76973 Y3.73243
G01 X42.79818 Y3.63868
G01 X42.84435 Y3.55227
G01 X42.90653 Y3.47650
G01 X42.98228 Y3.41435
G01 X43.06871 Y3.36814
G01 X43.16249 Y3.33969
G01 X43.26002 Y3.33009
G01 X44.86002 Y3.33009
G01 X44.95756 Y3.33969
G01 X45.05133 Y3.36814
G01 X45.13775 Y3.41435
G01 X45.21349 Y3.47650
G01 X45.27567 Y3.55227
G01 X45.32187 Y3.63868
G01 X45.35032 Y3.73243
G01 X45.35992 Y3.82999
G01 X45.11001 Y3.82999
G01 X45.10521 Y3.78117
G01 X45.09098 Y3.73431
G01 X45.06787 Y3.69110
G01 X45.03681 Y3.65321
G01 X44.99891 Y3.62212
G01 X44.95570 Y3.59903
G01 X44.90882 Y3.58478
G01 X44.86002 Y3.57998
G01 X43.26002 Y3.57998
G01 X43.21123 Y3.58478
G01 X43.16434 Y3.59903
G01 X43.12111 Y3.62212
G01 X43.08324 Y3.65321
G01 X43.05215 Y3.69110
G01 X43.02904 Y3.73431
G01 X43.01481 Y3.78117
G01 X43.01001 Y3.82999
G01 X43.01001 Y5.42999
G01 X43.01481 Y5.47876
G01 X43.02904 Y5.52567
G01 X43.05215 Y5.56887
G01 X43.08324 Y5.60677
G01 X43.12111 Y5.63786
G01 X43.16434 Y5.66095
G01 X43.21123 Y5.67517
G01 X43.26002 Y5.68000
G01 X44.86002 Y5.68000
G01 X44.90882 Y5.67517
G01 X44.95570 Y5.66095
G01 X44.99891 Y5.63786
G01 X45.03681 Y5.60677
G01 X45.06787 Y5.56887
G01 X45.09098 Y5.52567
G01 X45.10521 Y5.47876
G01 X45.11001 Y5.42999
G01 X45.11001 Y3.82999
G01 X45.35992 Y3.82999
G01 X45.35992 Y15.58999
G01 X45.35032 Y15.68752
G01 X45.32187 Y15.78130
G01 X45.27567 Y15.86771
G01 X45.22042 Y15.93502
G01 X42.89960 Y15.93502
G01 X42.84435 Y15.86771
G01 X42.79818 Y15.78130
G01 X42.76973 Y15.68752
G01 X42.76010 Y15.58999
G01 X42.76010 Y15.53987
G01 X42.82340 Y15.47233
G01 X42.76010 Y15.53987
G01 X41.18111 Y15.53987
G01 X41.15020 Y15.49530
G01 X41.18111 Y15.53987
G01 X41.15383 Y15.63116
G01 X41.13509 Y15.68001
G01 X41.11134 Y15.72661
G01 X41.05670 Y15.81577
G01 X40.98878 Y15.89527
G01 X40.95180 Y15.93228
G01 X40.86884 Y15.99593
G01 X40.82495 Y16.02443
G01 X40.77834 Y16.04818
G01 X40.68175 Y16.08818
G01 X40.58007 Y16.11259
G01 X40.52841 Y16.12077
G01 X40.47613 Y16.12351
G01 X39.62389 Y16.12351
G01 X39.57161 Y16.12077
G01 X39.51995 Y16.11259
G01 X39.41828 Y16.08818
G01 X39.36943 Y16.06944
G01 X39.27507 Y16.02443
G01 X39.23118 Y15.99593
G01 X39.14822 Y15.93228
G01 X39.07626 Y15.85643
G01 X39.04332 Y15.81577
G01 X38.98871 Y15.72661
G01 X38.96494 Y15.68001
G01 X38.94619 Y15.63116
G01 X38.91650 Y15.53091
G01 X38.90286 Y15.42725
G01 X38.90011 Y15.37498
G01 X38.90011 Y14.12499
G01 X38.90832 Y14.02075
G01 X38.91650 Y13.96909
G01 X38.93004 Y13.91854
G01 X38.96494 Y13.81996
G01 X39.01482 Y13.72809
G01 X39.04332 Y13.68420
G01 X39.07626 Y13.64353
G01 X39.14822 Y13.56769
G01 X39.18889 Y13.53475
G01 X39.27507 Y13.47556
G01 X39.32168 Y13.45176
G01 X39.41828 Y13.41176
G01 X39.51995 Y13.38735
G01 X39.59773 Y13.37714
G01 X39.65002 Y13.37508
G01 X40.50230 Y13.37714
G01 X40.58007 Y13.38735
G01 X40.68175 Y13.41176
G01 X40.77834 Y13.45176
G01 X40.82495 Y13.47556
G01 X40.86884 Y13.50404
G01 X40.95180 Y13.56769
G01 X41.02376 Y13.64353
G01 X41.05670 Y13.68420
G01 X41.08520 Y13.72809
G01 X41.13509 Y13.81996
G01 X41.16999 Y13.91854
G01 X41.18352 Y13.96909
G01 X41.19373 Y14.04008
G01 X41.15398 Y14.09182
G01 X41.19373 Y14.04008
G01 X42.76010 Y14.04008
G01 X42.82340 Y14.10762
G01 X42.76010 Y14.04008
G01 X42.76010 Y13.98999
G01 X42.76973 Y13.89245
G01 X42.79818 Y13.79868
G01 X42.84435 Y13.71224
G01 X42.89962 Y13.64491
G01 X45.22040 Y13.64493
G01 X45.27567 Y13.71224
G01 X45.32187 Y13.79868
G01 X45.35032 Y13.89245
G01 X45.35992 Y13.98999
G01 X45.11001 Y13.98999
G01 X45.10521 Y13.94122
G01 X45.09098 Y13.89431
G01 X45.06787 Y13.85110
G01 X45.03681 Y13.81321
G01 X44.99891 Y13.78212
G01 X44.95570 Y13.75900
G01 X44.90882 Y13.74478
G01 X44.86002 Y13.73998
G01 X43.26002 Y13.73998
G01 X43.21123 Y13.74478
G01 X43.16434 Y13.75900
G01 X43.12111 Y13.78212
G01 X43.08324 Y13.81321
G01 X43.05215 Y13.85110
G01 X43.02904 Y13.89431
G01 X43.01481 Y13.94122
G01 X43.01001 Y13.98999
G01 X43.01001 Y14.28996
G01 X40.95002 Y14.28996
G01 X40.95002 Y14.12499
G01 X40.94319 Y14.04689
G01 X40.93232 Y13.99576
G01 X40.90679 Y13.92161
G01 X40.85452 Y13.83109
G01 X40.78457 Y13.75342
G01 X40.70001 Y13.69195
G01 X40.62894 Y13.65880
G01 X40.60453 Y13.64945
G01 X40.52813 Y13.63183
G01 X40.45002 Y13.62497
G01 X39.65002 Y13.62497
G01 X39.57189 Y13.63183
G01 X39.49552 Y13.64945
G01 X39.42333 Y13.68006
G01 X39.37807 Y13.70622
G01 X39.31546 Y13.75342
G01 X39.24550 Y13.83109
G01 X39.19323 Y13.92161
G01 X39.16770 Y13.99576
G01 X39.15683 Y14.04689
G01 X39.15000 Y14.12499
G01 X39.15000 Y15.37498
G01 X39.16095 Y15.47894
G01 X39.19323 Y15.57835
G01 X39.24550 Y15.66888
G01 X39.31546 Y15.74655
G01 X39.37807 Y15.79375
G01 X39.42333 Y15.81988
G01 X39.47108 Y15.84114
G01 X39.52079 Y15.85730
G01 X39.59775 Y15.87226
G01 X39.62389 Y15.87363
G01 X40.47613 Y15.87363
G01 X40.52813 Y15.86814
G01 X40.60453 Y15.85052
G01 X40.70001 Y15.80800
G01 X40.76425 Y15.76304
G01 X40.80308 Y15.72806
G01 X40.83806 Y15.68923
G01 X40.86877 Y15.64693
G01 X40.90679 Y15.57835
G01 X40.93907 Y15.47894
G01 X40.94865 Y15.40111
G01 X40.95002 Y15.28999
G01 X43.01001 Y15.28999
G01 X43.01001 Y15.58999
G01 X43.01481 Y15.63876
G01 X43.02904 Y15.68567
G01 X43.05215 Y15.72887
G01 X43.08324 Y15.76677
G01 X43.12111 Y15.79786
G01 X43.16434 Y15.82095
G01 X43.21123 Y15.83517
G01 X43.26002 Y15.84000
G01 X44.86002 Y15.84000
G01 X44.90882 Y15.83517
G01 X44.95570 Y15.82095
G01 X44.99891 Y15.79786
G01 X45.03681 Y15.76677
G01 X45.06787 Y15.72887
G01 X45.09098 Y15.68567
G01 X45.10521 Y15.63876
G01 X45.11001 Y15.58999
G01 X45.11001 Y13.98999
G01 X45.35992 Y13.98999
G01 X45.35992 Y13.04999
G01 X45.35032 Y13.14752
G01 X45.32187 Y13.24130
G01 X45.27567 Y13.32771
G01 X45.22042 Y13.39500
G01 X42.89960 Y13.39500
G01 X42.84435 Y13.32771
G01 X42.79818 Y13.24130
G01 X42.76973 Y13.14752
G01 X42.76010 Y13.04999
G01 X42.76010 Y12.99987
G01 X42.82340 Y12.93233
G01 X42.76010 Y12.99987
G01 X38.18665 Y12.99987
G01 X38.17875 Y12.98085
G01 X38.18665 Y12.99987
G01 X37.71569 Y13.47084
G01 X37.57906 Y13.48224
G01 X37.71569 Y13.47084
G01 X37.76885 Y13.50404
G01 X37.85181 Y13.56769
G01 X37.92376 Y13.64353
G01 X37.95668 Y13.68420
G01 X37.98518 Y13.72809
G01 X38.03509 Y13.81996
G01 X38.06999 Y13.91854
G01 X38.08353 Y13.96909
G01 X38.09171 Y14.02075
G01 X38.09991 Y14.12499
G01 X38.09991 Y15.37498
G01 X38.09171 Y15.47922
G01 X38.08353 Y15.53091
G01 X38.06999 Y15.58145
G01 X38.03509 Y15.68001
G01 X37.98518 Y15.77188
G01 X37.95668 Y15.81577
G01 X37.92376 Y15.85643
G01 X37.85181 Y15.93228
G01 X37.76885 Y15.99593
G01 X37.72496 Y16.02443
G01 X37.63060 Y16.06944
G01 X37.58175 Y16.08818
G01 X37.53121 Y16.10172
G01 X37.40230 Y16.12283
G01 X37.35000 Y16.12489
G01 X36.55001 Y16.12489
G01 X36.49771 Y16.12283
G01 X36.41996 Y16.11259
G01 X36.31828 Y16.08818
G01 X36.26944 Y16.06944
G01 X36.17505 Y16.02443
G01 X36.08889 Y15.96520
G01 X36.04823 Y15.93228
G01 X36.01122 Y15.89527
G01 X35.94333 Y15.81577
G01 X35.88869 Y15.72661
G01 X35.86494 Y15.68001
G01 X35.83004 Y15.58145
G01 X35.81650 Y15.53091
G01 X35.81158 Y15.49987
G01 X35.84866 Y15.45021
G01 X35.81158 Y15.49987
G01 X32.63866 Y15.49987
G01 X32.63076 Y15.48084
G01 X32.63866 Y15.49987
G01 X32.06993 Y16.06860
G01 X32.05090 Y16.06070
G01 X32.06993 Y16.06860
G01 X32.06993 Y22.45010
G01 X32.00239 Y22.51339
G01 X32.06993 Y22.45010
G01 X32.12002 Y22.45010
G01 X32.21753 Y22.45970
G01 X32.31130 Y22.48814
G01 X32.39774 Y22.53435
G01 X32.46508 Y22.58959
G01 X32.46508 Y24.91037
G01 X32.39774 Y24.96564
G01 X32.31130 Y25.01184
G01 X32.21753 Y25.04029
G01 X32.12002 Y25.04989
G01 X30.52002 Y25.04989
G01 X30.42248 Y25.04029
G01 X30.32871 Y25.01184
G01 X30.24227 Y24.96564
G01 X30.17499 Y24.91042
G01 X30.17499 Y22.58957
G01 X30.24227 Y22.53435
G01 X30.32871 Y22.48814
G01 X30.42248 Y22.45970
G01 X30.52002 Y22.45010
G01 X30.57013 Y22.45010
G01 X30.63767 Y22.51339
G01 X30.57013 Y22.45010
G01 X30.57013 Y15.76593
G01 X30.59736 Y15.70736
G01 X30.67272 Y15.57079
G01 X30.75456 Y15.45207
G01 X30.84453 Y15.34584
G01 X31.88235 Y14.30642
G01 X31.94887 Y14.24460
G01 X32.02215 Y14.18448
G01 X32.17892 Y14.07983
G01 X32.33594 Y14.00007
G01 X35.81160 Y14.00007
G01 X35.84869 Y14.04973
G01 X35.81160 Y14.00007
G01 X35.81650 Y13.96909
G01 X35.83004 Y13.91854
G01 X35.86494 Y13.81996
G01 X35.88869 Y13.77333
G01 X35.94333 Y13.68420
G01 X36.01122 Y13.60470
G01 X36.04823 Y13.56769
G01 X36.13118 Y13.50404
G01 X36.20012 Y13.46276
G01 X36.22821 Y13.47765
G01 X36.20012 Y13.46276
G01 X36.20012 Y13.17600
G01 X36.20733 Y13.07821
G01 X36.22643 Y12.98209
G01 X36.24068 Y12.93520
G01 X36.27817 Y12.84465
G01 X36.30129 Y12.80145
G01 X36.35572 Y12.71997
G01 X36.41975 Y12.64572
G01 X37.38211 Y11.68677
G01 X37.42001 Y11.65568
G01 X37.50149 Y11.60125
G01 X37.54469 Y11.57813
G01 X37.58904 Y11.55715
G01 X37.68213 Y11.52639
G01 X37.77825 Y11.50729
G01 X37.87601 Y11.50008
G01 X42.76010 Y11.50008
G01 X42.82340 Y11.56762
G01 X42.76010 Y11.50008
G01 X42.76010 Y11.44999
G01 X42.76973 Y11.35245
G01 X42.79818 Y11.25868
G01 X42.84435 Y11.17227
G01 X42.89962 Y11.10491
G01 X45.22040 Y11.10493
G01 X45.27567 Y11.17227
G01 X45.32187 Y11.25868
G01 X45.35032 Y11.35245
G01 X45.35992 Y11.44999
G01 X45.11001 Y11.44999
G01 X45.10521 Y11.40122
G01 X45.09098 Y11.35431
G01 X45.06787 Y11.31110
G01 X45.03681 Y11.27321
G01 X44.99891 Y11.24212
G01 X44.95570 Y11.21903
G01 X44.90882 Y11.20478
G01 X44.86002 Y11.19998
G01 X43.26002 Y11.19998
G01 X43.21123 Y11.20478
G01 X43.16434 Y11.21903
G01 X43.12111 Y11.24212
G01 X43.08324 Y11.27321
G01 X43.05215 Y11.31110
G01 X43.02904 Y11.35431
G01 X43.01481 Y11.40122
G01 X43.01001 Y11.44999
G01 X43.01001 Y11.74996
G01 X37.87601 Y11.74996
G01 X37.80276 Y11.75598
G01 X37.75468 Y11.76553
G01 X37.68467 Y11.78804
G01 X37.61929 Y11.82162
G01 X37.57853 Y11.84885
G01 X37.52247 Y11.89642
G01 X36.59646 Y12.82243
G01 X36.54889 Y12.87849
G01 X36.52166 Y12.91925
G01 X36.47980 Y13.00775
G01 X36.45603 Y13.10272
G01 X36.45001 Y13.17600
G01 X36.45001 Y13.63647
G01 X36.39550 Y13.64945
G01 X36.30002 Y13.69195
G01 X36.21544 Y13.75342
G01 X36.14551 Y13.83109
G01 X36.09324 Y13.92161
G01 X36.06093 Y14.02103
G01 X36.05001 Y14.12499
G01 X36.05001 Y14.24996
G01 X32.32802 Y14.24996
G01 X32.25476 Y14.25598
G01 X32.20668 Y14.26553
G01 X32.13668 Y14.28803
G01 X32.07130 Y14.32161
G01 X31.99266 Y14.37993
G01 X30.94999 Y15.42260
G01 X30.90430 Y15.48018
G01 X30.86858 Y15.54445
G01 X30.83559 Y15.63662
G01 X30.82604 Y15.68470
G01 X30.82002 Y15.75798
G01 X30.82002 Y22.69998
G01 X30.52002 Y22.69998
G01 X30.47125 Y22.70478
G01 X30.42434 Y22.71901
G01 X30.38113 Y22.74212
G01 X30.34324 Y22.77321
G01 X30.31215 Y22.81111
G01 X30.28903 Y22.85431
G01 X30.27481 Y22.90123
G01 X30.27001 Y22.94999
G01 X30.27001 Y24.54999
G01 X30.27481 Y24.59876
G01 X30.28903 Y24.64565
G01 X30.31215 Y24.68888
G01 X30.34324 Y24.72677
G01 X30.38113 Y24.75786
G01 X30.42434 Y24.78095
G01 X30.47125 Y24.79518
G01 X30.52002 Y24.79998
G01 X32.12002 Y24.79998
G01 X32.16878 Y24.79518
G01 X32.21567 Y24.78095
G01 X32.25890 Y24.75786
G01 X32.29680 Y24.72677
G01 X32.32789 Y24.68888
G01 X32.35098 Y24.64565
G01 X32.36520 Y24.59876
G01 X32.37000 Y24.54999
G01 X32.37000 Y22.94999
G01 X32.36520 Y22.90123
G01 X32.35098 Y22.85431
G01 X32.32789 Y22.81111
G01 X32.29680 Y22.77321
G01 X32.25890 Y22.74212
G01 X32.21567 Y22.71901
G01 X32.16878 Y22.70478
G01 X32.12002 Y22.69998
G01 X31.82004 Y22.69998
G01 X31.82004 Y15.96507
G01 X32.53513 Y15.24998
G01 X36.05001 Y15.24998
G01 X36.05001 Y15.37498
G01 X36.05684 Y15.45311
G01 X36.06093 Y15.47894
G01 X36.08386 Y15.55392
G01 X36.10512 Y15.60167
G01 X36.14551 Y15.66888
G01 X36.21544 Y15.74655
G01 X36.30002 Y15.80800
G01 X36.39550 Y15.85052
G01 X36.47190 Y15.86814
G01 X36.55001 Y15.87498
G01 X37.36308 Y15.87465
G01 X37.42813 Y15.86814
G01 X37.47924 Y15.85730
G01 X37.52895 Y15.84114
G01 X37.57670 Y15.81988
G01 X37.62196 Y15.79375
G01 X37.68457 Y15.74655
G01 X37.75452 Y15.66888
G01 X37.80680 Y15.57835
G01 X37.83908 Y15.47894
G01 X37.85000 Y15.37498
G01 X37.85000 Y14.12499
G01 X37.83908 Y14.02103
G01 X37.81617 Y13.94605
G01 X37.79491 Y13.89830
G01 X37.75452 Y13.83109
G01 X37.73806 Y13.81077
G01 X37.68457 Y13.75342
G01 X37.60002 Y13.69195
G01 X37.50451 Y13.64945
G01 X37.45003 Y13.63647
G01 X37.45003 Y13.38308
G01 X38.08312 Y12.74999
G01 X43.01001 Y12.74999
G01 X43.01001 Y13.04999
G01 X43.01481 Y13.09876
G01 X43.02904 Y13.14567
G01 X43.05215 Y13.18887
G01 X43.08324 Y13.22677
G01 X43.12111 Y13.25786
G01 X43.16434 Y13.28095
G01 X43.21123 Y13.29515
G01 X43.26002 Y13.29997
G01 X44.86002 Y13.29997
G01 X44.90882 Y13.29515
G01 X44.95570 Y13.28095
G01 X44.99891 Y13.25786
G01 X45.03681 Y13.22677
G01 X45.06787 Y13.18887
G01 X45.09098 Y13.14567
G01 X45.10521 Y13.09876
G01 X45.11001 Y13.04999
G01 X45.11001 Y11.44999
G01 X45.35992 Y11.44999
G01 X45.35992 Y10.50999
G01 X45.35032 Y10.60752
G01 X45.32187 Y10.70130
G01 X45.27567 Y10.78771
G01 X45.22042 Y10.85502
G01 X42.89960 Y10.85502
G01 X42.84435 Y10.78771
G01 X42.79818 Y10.70130
G01 X42.76973 Y10.60752
G01 X42.76010 Y10.50999
G01 X42.76010 Y10.45987
G01 X42.82340 Y10.39233
G01 X42.76010 Y10.45987
G01 X35.54681 Y10.45987
G01 X35.53891 Y10.44085
G01 X35.54681 Y10.45987
G01 X32.23536 Y13.77127
G01 X32.16246 Y13.80538
G01 X32.05311 Y13.86388
G01 X31.91570 Y13.95250
G01 X31.78286 Y14.05687
G01 X31.70673 Y14.12865
G01 X30.66208 Y15.17427
G01 X30.55568 Y15.30073
G01 X30.46244 Y15.43411
G01 X30.37544 Y15.59240
G01 X30.34138 Y15.66527
G01 X29.52993 Y16.47675
G01 X29.51090 Y16.46885
G01 X29.52993 Y16.47675
G01 X29.52993 Y22.45010
G01 X29.46239 Y22.51339
G01 X29.52993 Y22.45010
G01 X29.58002 Y22.45010
G01 X29.67753 Y22.45970
G01 X29.77130 Y22.48814
G01 X29.85774 Y22.53435
G01 X29.92508 Y22.58959
G01 X29.92508 Y24.91037
G01 X29.85774 Y24.96564
G01 X29.77130 Y25.01184
G01 X29.67753 Y25.04029
G01 X29.58002 Y25.04989
G01 X27.98002 Y25.04989
G01 X27.88248 Y25.04029
G01 X27.78871 Y25.01184
G01 X27.70227 Y24.96564
G01 X27.63499 Y24.91042
G01 X27.63499 Y22.58957
G01 X27.70227 Y22.53435
G01 X27.78871 Y22.48814
G01 X27.88248 Y22.45970
G01 X27.98002 Y22.45010
G01 X28.03013 Y22.45010
G01 X28.09767 Y22.51339
G01 X28.03013 Y22.45010
G01 X28.03013 Y16.47675
G01 X28.04916 Y16.46885
G01 X28.03013 Y16.47675
G01 X24.55326 Y12.99987
G01 X24.56115 Y12.98085
G01 X24.55326 Y12.99987
G01 X23.43845 Y12.99987
G01 X23.40497 Y12.95314
G01 X23.43845 Y12.99987
G01 X23.43352 Y13.03091
G01 X23.40383 Y13.13114
G01 X23.38508 Y13.18001
G01 X23.33520 Y13.27188
G01 X23.30670 Y13.31575
G01 X23.23881 Y13.39528
G01 X23.20180 Y13.43226
G01 X23.16113 Y13.46520
G01 X23.07498 Y13.52441
G01 X23.02834 Y13.54818
G01 X22.93174 Y13.58819
G01 X22.83007 Y13.61260
G01 X22.77840 Y13.62075
G01 X22.72616 Y13.62349
G01 X21.87389 Y13.62349
G01 X21.82164 Y13.62075
G01 X21.71882 Y13.60173
G01 X21.66827 Y13.58819
G01 X21.61943 Y13.56944
G01 X21.52507 Y13.52441
G01 X21.43888 Y13.46520
G01 X21.39822 Y13.43226
G01 X21.36124 Y13.39528
G01 X21.29334 Y13.31575
G01 X21.26484 Y13.27188
G01 X21.21493 Y13.18001
G01 X21.18003 Y13.08143
G01 X21.16650 Y13.03091
G01 X21.15832 Y12.97922
G01 X21.15011 Y12.87498
G01 X21.15011 Y11.62500
G01 X21.15832 Y11.52076
G01 X21.16650 Y11.46907
G01 X21.18003 Y11.41852
G01 X21.21493 Y11.31997
G01 X21.26484 Y11.22810
G01 X21.29334 Y11.18421
G01 X21.36124 Y11.10470
G01 X21.39822 Y11.06770
G01 X21.43888 Y11.03478
G01 X21.52507 Y10.97554
G01 X21.61943 Y10.93054
G01 X21.66827 Y10.91179
G01 X21.76995 Y10.88738
G01 X21.84772 Y10.87714
G01 X21.90002 Y10.87509
G01 X22.75232 Y10.87714
G01 X22.83007 Y10.88738
G01 X22.93174 Y10.91179
G01 X23.02834 Y10.95180
G01 X23.07498 Y10.97554
G01 X23.11884 Y11.00404
G01 X23.20180 Y11.06770
G01 X23.23881 Y11.10470
G01 X23.30670 Y11.18421
G01 X23.33520 Y11.22810
G01 X23.38508 Y11.31997
G01 X23.40383 Y11.36884
G01 X23.43352 Y11.46907
G01 X23.43842 Y11.50008
G01 X23.40505 Y11.54664
G01 X23.43842 Y11.50008
G01 X24.86387 Y11.50008
G01 X24.96166 Y11.50729
G01 X25.05778 Y11.52639
G01 X25.15087 Y11.55715
G01 X25.23842 Y11.60125
G01 X25.31990 Y11.65568
G01 X25.39415 Y11.71971
G01 X28.78002 Y15.10561
G01 X28.78002 Y15.20911
G01 X28.78002 Y15.10561
G01 X34.70591 Y9.17971
G01 X34.78016 Y9.11568
G01 X34.86164 Y9.06125
G01 X34.94920 Y9.01715
G01 X35.04229 Y8.98639
G01 X35.13840 Y8.96729
G01 X35.23616 Y8.96008
G01 X42.76010 Y8.96008
G01 X42.82340 Y9.02762
G01 X42.76010 Y8.96008
G01 X42.76010 Y8.90999
G01 X42.76973 Y8.81245
G01 X42.79818 Y8.71868
G01 X42.84435 Y8.63227
G01 X42.89962 Y8.56493
G01 X45.22040 Y8.56493
G01 X45.27567 Y8.63227
G01 X45.32187 Y8.71868
G01 X45.35032 Y8.81245
G01 X45.35992 Y8.90999
G01 X45.11001 Y8.90999
G01 X45.10521 Y8.86122
G01 X45.09098 Y8.81431
G01 X45.06787 Y8.77110
G01 X45.03681 Y8.73321
G01 X44.99891 Y8.70212
G01 X44.95570 Y8.67903
G01 X44.90882 Y8.66478
G01 X44.86002 Y8.65998
G01 X43.26002 Y8.65998
G01 X43.21123 Y8.66478
G01 X43.16434 Y8.67903
G01 X43.12111 Y8.70212
G01 X43.08324 Y8.73321
G01 X43.05215 Y8.77110
G01 X43.02904 Y8.81431
G01 X43.01481 Y8.86122
G01 X43.01001 Y8.90999
G01 X43.01001 Y9.20996
G01 X35.23616 Y9.20996
G01 X35.16291 Y9.21598
G01 X35.11483 Y9.22554
G01 X35.04483 Y9.24804
G01 X34.95839 Y9.29424
G01 X34.88262 Y9.35642
G01 X28.78002 Y15.45903
G01 X25.21744 Y11.89642
G01 X25.16138 Y11.84885
G01 X25.12061 Y11.82162
G01 X25.05524 Y11.78804
G01 X24.98523 Y11.76553
G01 X24.93715 Y11.75598
G01 X24.86387 Y11.74996
G01 X23.20002 Y11.74996
G01 X23.20002 Y11.62500
G01 X23.18910 Y11.52103
G01 X23.15679 Y11.42162
G01 X23.10452 Y11.33109
G01 X23.03459 Y11.25342
G01 X22.95001 Y11.19198
G01 X22.85453 Y11.14946
G01 X22.77813 Y11.13183
G01 X22.70002 Y11.12500
G01 X21.86080 Y11.12670
G01 X21.74551 Y11.14946
G01 X21.67333 Y11.18009
G01 X21.65001 Y11.19198
G01 X21.58577 Y11.23694
G01 X21.54694 Y11.27191
G01 X21.49550 Y11.33109
G01 X21.44323 Y11.42162
G01 X21.41094 Y11.52103
G01 X21.40139 Y11.59886
G01 X21.40002 Y12.87498
G01 X21.41094 Y12.97894
G01 X21.44323 Y13.07836
G01 X21.49550 Y13.16888
G01 X21.54694 Y13.22807
G01 X21.58577 Y13.26299
G01 X21.65001 Y13.30800
G01 X21.72108 Y13.34115
G01 X21.77079 Y13.35728
G01 X21.84775 Y13.37224
G01 X22.72616 Y13.37361
G01 X22.77813 Y13.36812
G01 X22.85453 Y13.35052
G01 X22.95001 Y13.30800
G01 X23.03459 Y13.24656
G01 X23.10452 Y13.16888
G01 X23.15679 Y13.07836
G01 X23.18910 Y12.97894
G01 X23.20002 Y12.87498
G01 X23.20002 Y12.74999
G01 X24.65679 Y12.74999
G01 X28.28002 Y16.37322
G01 X28.28002 Y22.69998
G01 X27.98002 Y22.69998
G01 X27.93125 Y22.70478
G01 X27.88434 Y22.71901
G01 X27.84113 Y22.74212
G01 X27.80324 Y22.77321
G01 X27.77215 Y22.81111
G01 X27.74903 Y22.85431
G01 X27.73481 Y22.90123
G01 X27.73001 Y22.94999
G01 X27.73001 Y24.54999
G01 X27.73481 Y24.59876
G01 X27.74903 Y24.64565
G01 X27.77215 Y24.68888
G01 X27.80324 Y24.72677
G01 X27.84113 Y24.75786
G01 X27.88434 Y24.78095
G01 X27.93125 Y24.79518
G01 X27.98002 Y24.79998
G01 X29.58002 Y24.79998
G01 X29.62878 Y24.79518
G01 X29.67567 Y24.78095
G01 X29.71890 Y24.75786
G01 X29.75680 Y24.72677
G01 X29.78789 Y24.68888
G01 X29.81098 Y24.64565
G01 X29.82520 Y24.59876
G01 X29.83000 Y24.54999
G01 X29.83000 Y22.94999
G01 X29.82520 Y22.90123
G01 X29.81098 Y22.85431
G01 X29.78789 Y22.81111
G01 X29.75680 Y22.77321
G01 X29.71890 Y22.74212
G01 X29.67567 Y22.71901
G01 X29.62878 Y22.70478
G01 X29.58002 Y22.69998
G01 X29.28004 Y22.69998
G01 X29.28004 Y16.37322
G01 X35.44328 Y10.20999
G01 X43.01001 Y10.20999
G01 X43.01001 Y10.50999
G01 X43.01481 Y10.55876
G01 X43.02904 Y10.60567
G01 X43.05215 Y10.64887
G01 X43.08324 Y10.68677
G01 X43.12111 Y10.71786
G01 X43.16434 Y10.74095
G01 X43.21123 Y10.75517
G01 X43.26002 Y10.76000
G01 X44.86002 Y10.76000
G01 X44.90882 Y10.75517
G01 X44.95570 Y10.74095
G01 X44.99891 Y10.71786
G01 X45.03681 Y10.68677
G01 X45.06787 Y10.64887
G01 X45.09098 Y10.60567
G01 X45.10521 Y10.55876
G01 X45.11001 Y10.50999
G01 X45.11001 Y8.90999
G01 X45.35992 Y8.90999
G01 X45.35992 Y7.96999
G01 X45.35032 Y8.06752
G01 X45.32187 Y8.16130
G01 X45.27567 Y8.24771
G01 X45.22042 Y8.31502
G01 X42.89960 Y8.31502
G01 X42.84435 Y8.24771
G01 X42.79818 Y8.16130
G01 X42.76973 Y8.06752
G01 X42.76010 Y7.96999
G01 X42.76010 Y6.36999
G01 X42.76973 Y6.27245
G01 X42.79818 Y6.17868
G01 X42.84435 Y6.09227
G01 X42.89962 Y6.02493
G01 X45.22040 Y6.02493
G01 X45.27567 Y6.09227
G01 X45.32187 Y6.17868
G01 X45.35032 Y6.27245
G01 X45.35992 Y6.36999
G01 X45.11001 Y6.36999
G01 X45.10521 Y6.32122
G01 X45.09098 Y6.27431
G01 X45.06787 Y6.23110
G01 X45.03681 Y6.19321
G01 X44.99891 Y6.16212
G01 X44.95570 Y6.13903
G01 X44.90882 Y6.12478
G01 X44.86002 Y6.11998
G01 X43.26002 Y6.11998
G01 X43.21123 Y6.12478
G01 X43.16434 Y6.13903
G01 X43.12111 Y6.16212
G01 X43.08324 Y6.19321
G01 X43.05215 Y6.23110
G01 X43.02904 Y6.27431
G01 X43.01481 Y6.32122
G01 X43.01001 Y6.36999
G01 X43.01001 Y7.96999
G01 X43.01481 Y8.01876
G01 X43.02904 Y8.06567
G01 X43.05215 Y8.10887
G01 X43.08324 Y8.14677
G01 X43.12111 Y8.17786
G01 X43.16434 Y8.20095
G01 X43.21123 Y8.21517
G01 X43.26002 Y8.22000
G01 X44.86002 Y8.22000
G01 X44.90882 Y8.21517
G01 X44.95570 Y8.20095
G01 X44.99891 Y8.17786
G01 X45.03681 Y8.14677
G01 X45.06787 Y8.10887
G01 X45.09098 Y8.06567
G01 X45.10521 Y8.01876
G01 X45.11001 Y7.96999
G01 X45.11001 Y6.36999
G04 P0 ( dwell for no time -- G64 should not smooth over this point )
G00 Z5.00000 ( retract )

G00 X9.79992 Y7.96999 ( rapid move to begin. )
G01 F75.00000
( Mill infeed pass 1/1 )
G01 Z-0.10000
G04 P0 ( dwell for no time -- G64 should not smooth over this point )
G01 F75.00000
G01 X9.79992 Y7.96999
G01 X9.79032 Y8.06752
G01 X9.76187 Y8.16130
G01 X9.71567 Y8.24771
G01 X9.66042 Y8.31502
G01 X7.33960 Y8.31502
G01 X7.28435 Y8.24771
G01 X7.23818 Y8.16130
G01 X7.20973 Y8.06752
G01 X7.20010 Y7.96999
G01 X7.20010 Y6.36999
G01 X7.20973 Y6.27245
G01 X7.23818 Y6.17868
G01 X7.28435 Y6.09227
G01 X7.34653 Y6.01650
G01 X7.42228 Y5.95435
G01 X7.50871 Y5.90814
G01 X7.60249 Y5.87969
G01 X7.70002 Y5.87009
G01 X9.30002 Y5.87009
G01 X9.39753 Y5.87969
G01 X9.49131 Y5.90814
G01 X9.57775 Y5.95435
G01 X9.65349 Y6.01650
G01 X9.71567 Y6.09227
G01 X9.76187 Y6.17868
G01 X9.79032 Y6.27245
G01 X9.79992 Y6.36999
G01 X9.55001 Y6.36999
G01 X9.54521 Y6.32122
G01 X9.53098 Y6.27431
G01 X9.50787 Y6.23110
G01 X9.47678 Y6.19321
G01 X9.43891 Y6.16212
G01 X9.39568 Y6.13903
G01 X9.34879 Y6.12478
G01 X9.30002 Y6.11998
G01 X7.70002 Y6.11998
G01 X7.65123 Y6.12478
G01 X7.60434 Y6.13903
G01 X7.56111 Y6.16212
G01 X7.52324 Y6.19321
G01 X7.49215 Y6.23110
G01 X7.46904 Y6.27431
G01 X7.45481 Y6.32122
G01 X7.45001 Y6.36999
G01 X7.45001 Y7.96999
G01 X7.45481 Y8.01876
G01 X7.46904 Y8.06567
G01 X7.49215 Y8.10887
G01 X7.52324 Y8.14677
G01 X7.56111 Y8.17786
G01 X7.60434 Y8.20095
G01 X7.65123 Y8.21517
G01 X7.70002 Y8.22000
G01 X9.30002 Y8.22000
G01 X9.34879 Y8.21517
G01 X9.39568 Y8.20095
G01 X9.43891 Y8.17786
G01 X9.47678 Y8.14677
G01 X9.50787 Y8.10887
G01 X9.53098 Y8.06567
G01 X9.54521 Y8.01876
G01 X9.55001 Y7.96999
G01 X9.55001 Y6.36999
G01 X9.79992 Y6.36999
G01 X9.79992 Y10.50999
G01 X9.79032 Y10.60752
G01 X9.76187 Y10.70130
G01 X9.71567 Y10.78771
G01 X9.66042 Y10.85502
G01 X7.33960 Y10.85502
G01 X7.28435 Y10.78771
G01 X7.23818 Y10.70130
G01 X7.20973 Y10.60752
G01 X7.20010 Y10.50999
G01 X7.20010 Y8.90999
G01 X7.20973 Y8.81245
G01 X7.23818 Y8.71868
G01 X7.28435 Y8.63227
G01 X7.33962 Y8.56493
G01 X9.66040 Y8.56493
G01 X9.71567 Y8.63227
G01 X9.76187 Y8.71868
G01 X9.79032 Y8.81245
G01 X9.79992 Y8.90999
G01 X9.55001 Y8.90999
G01 X9.54521 Y8.86122
G01 X9.53098 Y8.81431
G01 X9.50787 Y8.77110
G01 X9.47678 Y8.73321
G01 X9.43891 Y8.70212
G01 X9.39568 Y8.67903
G01 X9.34879 Y8.66478
G01 X9.30002 Y8.65998
G01 X7.70002 Y8.65998
G01 X7.65123 Y8.66478
G01 X7.60434 Y8.67903
G01 X7.56111 Y8.70212
G01 X7.52324 Y8.73321
G01 X7.49215 Y8.77110
G01 X7.46904 Y8.81431
G01 X7.45481 Y8.86122
G01 X7.45001 Y8.90999
G01 X7.45001 Y10.50999
G01 X7.45481 Y10.55876
G01 X7.46904 Y10.60567
G01 X7.49215 Y10.64887
G01 X7.52324 Y10.68677
G01 X7.56111 Y10.71786
G01 X7.60434 Y10.74095
G01 X7.65123 Y10.75517
G01 X7.70002 Y10.76000
G01 X9.30002 Y10.76000
G01 X9.34879 Y10.75517
G01 X9.39568 Y10.74095
G01 X9.43891 Y10.71786
G01 X9.47678 Y10.68677
G01 X9.50787 Y10.64887
G01 X9.53098 Y10.60567
G01 X9.54521 Y10.55876
G01 X9.55001 Y10.50999
G01 X9.55001 Y8.90999
G04 P0 ( dwell for no time -- G64 should not smooth over this point )
G00 Z5.00000 ( retract )

G00 X7.27099 Y24.79995 ( rapid move to begin. )
G01 F75.00000
( Mill infeed pass 1/1 )
G01 Z-0.10000
G04 P0 ( dwell for no time -- G64 should not smooth over this point )
G01 F75.00000
G01 X7.27099 Y24.79995
G01 X7.23962 Y24.78032
G01 X7.11087 Y24.67539
G01 X7.10457 Y24.68029
G01 X7.11087 Y24.67539
G01 X7.08913 Y24.64191
G01 X7.07084 Y24.60038
G01 X6.92926 Y24.25868
G01 X5.54593 Y22.87534
G01 X5.52690 Y22.88324
G01 X5.54593 Y22.87534
G01 X5.54593 Y16.10888
G01 X5.47839 Y16.04559
G01 X5.54593 Y16.10888
G01 X5.59602 Y16.10888
G01 X5.69353 Y16.09928
G01 X5.78733 Y16.07083
G01 X5.87374 Y16.02463
G01 X5.94951 Y15.96248
G01 X6.01166 Y15.88671
G01 X6.05786 Y15.80030
G01 X6.08631 Y15.70652
G01 X6.09591 Y15.60899
G01 X6.09591 Y14.00899
G01 X6.08631 Y13.91145
G01 X6.05786 Y13.81768
G01 X6.01166 Y13.73127
G01 X5.94819 Y13.65443
G01 X3.64385 Y13.65443
G01 X3.58037 Y13.73127
G01 X3.53417 Y13.81768
G01 X3.50572 Y13.91145
G01 X3.49612 Y14.00899
G01 X3.49612 Y15.60899
G01 X3.50572 Y15.70652
G01 X3.53417 Y15.80030
G01 X3.58037 Y15.88671
G01 X3.64253 Y15.96248
G01 X3.71830 Y16.02463
G01 X3.80471 Y16.07083
G01 X3.89848 Y16.09928
G01 X3.99602 Y16.10888
G01 X4.04613 Y16.10888
G01 X4.11367 Y16.04559
G01 X4.04613 Y16.10888
G01 X4.04613 Y23.18598
G01 X4.05335 Y23.28375
G01 X4.07245 Y23.37986
G01 X4.10321 Y23.47295
G01 X4.14730 Y23.56051
G01 X4.20173 Y23.64199
G01 X4.26577 Y23.71623
G01 X6.37976 Y25.83023
G01 X6.49340 Y25.92344
G01 X6.57869 Y25.97178
G01 X6.66924 Y26.00930
G01 X6.76373 Y26.03546
G01 X6.91001 Y26.04986
G01 X15.83001 Y26.04986
G01 X15.92780 Y26.04265
G01 X16.02388 Y26.02355
G01 X16.07080 Y26.00932
G01 X16.16132 Y25.97178
G01 X16.20453 Y25.94872
G01 X16.28601 Y25.89428
G01 X16.36026 Y25.83025
G01 X16.61027 Y25.58026
G01 X16.66239 Y25.52162
G01 X16.70852 Y25.45814
G01 X16.76462 Y25.35479
G01 X16.77964 Y25.31854
G01 X16.81304 Y25.20579
G01 X16.82531 Y25.12832
G01 X16.82993 Y25.04989
G01 X16.77697 Y24.99462
G01 X16.82993 Y25.04989
G01 X16.88002 Y25.04989
G01 X16.97753 Y25.04029
G01 X17.07130 Y25.01184
G01 X17.15774 Y24.96564
G01 X17.22508 Y24.91037
G01 X17.22508 Y22.58959
G01 X17.15774 Y22.53435
G01 X17.07130 Y22.48814
G01 X16.97753 Y22.45970
G01 X16.88002 Y22.45010
G01 X16.79993 Y22.45010
G01 X16.73145 Y22.51497
G01 X16.79993 Y22.45010
G01 X16.79993 Y16.09253
G01 X16.77209 Y16.07815
G01 X16.79993 Y16.09253
G01 X16.85385 Y16.05892
G01 X16.93679 Y15.99527
G01 X17.00877 Y15.91943
G01 X17.04169 Y15.87876
G01 X17.07019 Y15.83489
G01 X17.12007 Y15.74300
G01 X17.15497 Y15.64445
G01 X17.16854 Y15.59390
G01 X17.17671 Y15.54221
G01 X17.18492 Y15.43799
G01 X17.18492 Y14.18798
G01 X17.17671 Y14.08377
G01 X17.16854 Y14.03208
G01 X17.15497 Y13.98153
G01 X17.12007 Y13.88298
G01 X17.09632 Y13.83635
G01 X17.04169 Y13.74722
G01 X16.97379 Y13.66769
G01 X16.93679 Y13.63071
G01 X16.85385 Y13.56706
G01 X16.80996 Y13.53856
G01 X16.76333 Y13.51481
G01 X16.66673 Y13.47480
G01 X16.61621 Y13.46124
G01 X16.51339 Y13.44216
G01 X16.46115 Y13.43942
G01 X15.60887 Y13.43942
G01 X15.55663 Y13.44216
G01 X15.50494 Y13.45039
G01 X15.40329 Y13.47480
G01 X15.30669 Y13.51481
G01 X15.26006 Y13.53856
G01 X15.21619 Y13.56706
G01 X15.13323 Y13.63071
G01 X15.09623 Y13.66769
G01 X15.02833 Y13.74722
G01 X14.97370 Y13.83635
G01 X14.94995 Y13.88298
G01 X14.93120 Y13.93182
G01 X14.90151 Y14.03208
G01 X14.89331 Y14.08377
G01 X14.88510 Y14.18798
G01 X14.88510 Y15.43799
G01 X14.89331 Y15.54221
G01 X14.90151 Y15.59390
G01 X14.91505 Y15.64445
G01 X14.94995 Y15.74300
G01 X14.99983 Y15.83489
G01 X15.02833 Y15.87876
G01 X15.06125 Y15.91943
G01 X15.13323 Y15.99527
G01 X15.17390 Y16.02821
G01 X15.26006 Y16.08742
G01 X15.30014 Y16.10784
G01 X15.32940 Y16.09227
G01 X15.30014 Y16.10784
G01 X15.30014 Y22.45010
G01 X15.36628 Y22.51106
G01 X15.30014 Y22.45010
G01 X15.18248 Y22.45970
G01 X15.08871 Y22.48814
G01 X15.00227 Y22.53435
G01 X14.93499 Y22.58957
G01 X14.93303 Y24.60099
G01 X14.94172 Y24.60336
G01 X14.93303 Y24.60099
G01 X14.91787 Y24.64217
G01 X14.88942 Y24.67554
G01 X14.89295 Y24.67867
G01 X14.88942 Y24.67554
G01 X14.77192 Y24.77219
G01 X14.72770 Y24.79995
G01 X12.74002 Y24.79998
G01 X12.68612 Y24.79363
G01 X12.64434 Y24.78095
G01 X12.60113 Y24.75786
G01 X12.56324 Y24.72677
G01 X12.53215 Y24.68888
G01 X12.50903 Y24.64565
G01 X12.49430 Y24.59350
G01 X12.45930 Y24.57295
G01 X12.39499 Y24.52004
G01 X12.39499 Y22.58957
G01 X12.46227 Y22.53435
G01 X12.54871 Y22.48814
G01 X12.64248 Y22.45970
G01 X12.74002 Y22.45010
G01 X14.34002 Y22.45010
G01 X14.43753 Y22.45970
G01 X14.53130 Y22.48814
G01 X14.61774 Y22.53435
G01 X14.68508 Y22.58959
G01 X14.68508 Y24.52004
G01 X14.62076 Y24.57295
G01 X14.58574 Y24.59353
G01 X14.57098 Y24.64565
G01 X14.54789 Y24.68888
G01 X14.51680 Y24.72677
G01 X14.47890 Y24.75786
G01 X14.43567 Y24.78095
G01 X14.39389 Y24.79363
G01 X14.34004 Y24.79995
G01 X14.39389 Y24.79363
G01 X14.43567 Y24.78095
G01 X14.47890 Y24.75786
G01 X14.51680 Y24.72677
G01 X14.54789 Y24.68888
G01 X14.57098 Y24.64565
G01 X14.58520 Y24.59876
G01 X14.59000 Y24.54999
G01 X14.59000 Y22.94999
G01 X14.68508 Y22.58959
G01 X14.59000 Y22.94999
G01 X14.58520 Y22.90123
G01 X14.57098 Y22.85431
G01 X14.54789 Y22.81111
G01 X14.51680 Y22.77321
G01 X14.47890 Y22.74212
G01 X14.43567 Y22.71901
G01 X14.38878 Y22.70478
G01 X14.34002 Y22.69998
G01 X12.74002 Y22.69998
G01 X12.69125 Y22.70478
G01 X12.64434 Y22.71901
G01 X12.60113 Y22.74212
G01 X12.56324 Y22.77321
G01 X12.53215 Y22.81111
G01 X12.50903 Y22.85431
G01 X12.49481 Y22.90123
G01 X12.49001 Y22.94999
G01 X12.49001 Y24.54999
G01 X12.49481 Y24.59876
G01 X12.50903 Y24.64565
G01 X12.53215 Y24.68888
G01 X12.56324 Y24.72677
G01 X12.60113 Y24.75786
G01 X12.64434 Y24.78095
G01 X12.68612 Y24.79363
G01 X12.74002 Y24.79998
G01 X12.18770 Y24.79995
G01 X12.35237 Y24.79995
G01 X12.30814 Y24.77219
G01 X12.27002 Y24.74085
G01 X12.23192 Y24.77219
G01 X12.18770 Y24.79995
G01 X10.20002 Y24.79998
G01 X10.14612 Y24.79363
G01 X10.10434 Y24.78095
G01 X10.06113 Y24.75786
G01 X10.02324 Y24.72677
G01 X9.99215 Y24.68888
G01 X9.96903 Y24.64565
G01 X9.95430 Y24.59350
G01 X9.91930 Y24.57295
G01 X9.85499 Y24.52004
G01 X9.85499 Y22.58957
G01 X9.92227 Y22.53435
G01 X10.00871 Y22.48814
G01 X10.10248 Y22.45970
G01 X10.20002 Y22.45010
G01 X11.80002 Y22.45010
G01 X11.89753 Y22.45970
G01 X11.99130 Y22.48814
G01 X12.07774 Y22.53435
G01 X12.14508 Y22.58959
G01 X12.14508 Y24.52004
G01 X12.08076 Y24.57295
G01 X12.04574 Y24.59353
G01 X12.03098 Y24.64565
G01 X12.00789 Y24.68888
G01 X11.97680 Y24.72677
G01 X11.93890 Y24.75786
G01 X11.89567 Y24.78095
G01 X11.85389 Y24.79363
G01 X11.80004 Y24.79995
G01 X11.85389 Y24.79363
G01 X11.89567 Y24.78095
G01 X11.93890 Y24.75786
G01 X11.97680 Y24.72677
G01 X12.00789 Y24.68888
G01 X12.03098 Y24.64565
G01 X12.04520 Y24.59876
G01 X12.05000 Y24.54999
G01 X12.05000 Y22.94999
G01 X12.14508 Y22.58959
G01 X12.05000 Y22.94999
G01 X12.04520 Y22.90123
G01 X12.03098 Y22.85431
G01 X12.00789 Y22.81111
G01 X11.97680 Y22.77321
G01 X11.93890 Y22.74212
G01 X11.89567 Y22.71901
G01 X11.84878 Y22.70478
G01 X11.80002 Y22.69998
G01 X10.20002 Y22.69998
G01 X10.15125 Y22.70478
G01 X10.10434 Y22.71901
G01 X10.06113 Y22.74212
G01 X10.02324 Y22.77321
G01 X9.99215 Y22.81111
G01 X9.96903 Y22.85431
G01 X9.95481 Y22.90123
G01 X9.95001 Y22.94999
G01 X9.95001 Y24.54999
G01 X9.95481 Y24.59876
G01 X9.96903 Y24.64565
G01 X9.99215 Y24.68888
G01 X10.02324 Y24.72677
G01 X10.06113 Y24.75786
G01 X10.10434 Y24.78095
G01 X10.14612 Y24.79363
G01 X10.20002 Y24.79998
G01 X9.64770 Y24.79995
G01 X9.81237 Y24.79995
G01 X9.76814 Y24.77219
G01 X9.73002 Y24.74085
G01 X9.69192 Y24.77219
G01 X9.64770 Y24.79995
G01 X7.66002 Y24.79998
G01 X7.60706 Y24.79391
G01 X7.56434 Y24.78095
G01 X7.52113 Y24.75786
G01 X7.48324 Y24.72677
G01 X7.45215 Y24.68888
G01 X7.42903 Y24.64565
G01 X7.41435 Y24.59406
G01 X7.38801 Y24.57902
G01 X7.30544 Y24.51303
G01 X7.16012 Y24.16297
G01 X7.16012 Y22.94999
G01 X7.16972 Y22.85246
G01 X7.19817 Y22.75868
G01 X7.24435 Y22.67227
G01 X7.30653 Y22.59650
G01 X7.38227 Y22.53435
G01 X7.46871 Y22.48814
G01 X7.56248 Y22.45970
G01 X7.66002 Y22.45010
G01 X7.71013 Y22.45010
G01 X7.77767 Y22.51339
G01 X7.71013 Y22.45010
G01 X7.71013 Y16.08988
G01 X7.77564 Y16.02997
G01 X7.71013 Y16.08988
G01 X7.70002 Y16.08988
G01 X7.60249 Y16.08028
G01 X7.50871 Y16.05184
G01 X7.42228 Y16.00563
G01 X7.34653 Y15.94348
G01 X7.28435 Y15.86771
G01 X7.23818 Y15.78130
G01 X7.20973 Y15.68752
G01 X7.20010 Y15.58999
G01 X7.20010 Y13.98999
G01 X7.20973 Y13.89245
G01 X7.23818 Y13.79868
G01 X7.28435 Y13.71224
G01 X7.33962 Y13.64493
G01 X9.66040 Y13.64493
G01 X9.71567 Y13.71224
G01 X9.76187 Y13.79868
G01 X9.79032 Y13.89245
G01 X9.79992 Y14.00007
G01 X9.74000 Y14.06558
G01 X9.79992 Y14.00007
G01 X11.81008 Y14.00007
G01 X11.83995 Y14.04374
G01 X11.81008 Y14.00007
G01 X11.84995 Y13.88298
G01 X11.87370 Y13.83635
G01 X11.92834 Y13.74722
G01 X11.99623 Y13.66769
G01 X12.03324 Y13.63071
G01 X12.07390 Y13.59776
G01 X12.16006 Y13.53856
G01 X12.25442 Y13.49355
G01 X12.30329 Y13.47480
G01 X12.40494 Y13.45039
G01 X12.48272 Y13.44011
G01 X12.53502 Y13.43810
G01 X13.38731 Y13.44011
G01 X13.51619 Y13.46124
G01 X13.56674 Y13.47480
G01 X13.61558 Y13.49355
G01 X13.70997 Y13.53856
G01 X13.79613 Y13.59776
G01 X13.83679 Y13.63071
G01 X13.87380 Y13.66769
G01 X13.94169 Y13.74722
G01 X13.99633 Y13.83635
G01 X14.02008 Y13.88298
G01 X14.05498 Y13.98153
G01 X14.06852 Y14.03208
G01 X14.07672 Y14.08377
G01 X14.08492 Y14.18798
G01 X14.08492 Y15.43799
G01 X14.07672 Y15.54221
G01 X14.06852 Y15.59390
G01 X14.03882 Y15.69415
G01 X14.02008 Y15.74300
G01 X13.99633 Y15.78963
G01 X13.94169 Y15.87876
G01 X13.87380 Y15.95826
G01 X13.83679 Y15.99527
G01 X13.79613 Y16.02821
G01 X13.70997 Y16.08742
G01 X13.61558 Y16.13243
G01 X13.56674 Y16.15118
G01 X13.46509 Y16.17558
G01 X13.36118 Y16.18719
G01 X12.50885 Y16.18719
G01 X12.40494 Y16.17558
G01 X12.30329 Y16.15118
G01 X12.20670 Y16.11117
G01 X12.16006 Y16.08742
G01 X12.11617 Y16.05892
G01 X12.03324 Y15.99527
G01 X11.96126 Y15.91943
G01 X11.92834 Y15.87876
G01 X11.87370 Y15.78963
G01 X11.84995 Y15.74300
G01 X11.83118 Y15.69415
G01 X11.80149 Y15.59390
G01 X11.78887 Y15.49987
G01 X11.83339 Y15.44457
G01 X11.78887 Y15.49987
G01 X9.79992 Y15.49987
G01 X9.73462 Y15.43114
G01 X9.79992 Y15.49987
G01 X9.79992 Y15.58999
G01 X9.79032 Y15.68752
G01 X9.76187 Y15.78130
G01 X9.71567 Y15.86771
G01 X9.65349 Y15.94348
G01 X9.57775 Y16.00563
G01 X9.49131 Y16.05184
G01 X9.39753 Y16.08028
G01 X9.30002 Y16.08988
G01 X9.20993 Y16.08988
G01 X9.14120 Y16.02458
G01 X9.20993 Y16.08988
G01 X9.20993 Y22.45010
G01 X9.14239 Y22.51339
G01 X9.20993 Y22.45010
G01 X9.26002 Y22.45010
G01 X9.35753 Y22.45970
G01 X9.45130 Y22.48814
G01 X9.53774 Y22.53435
G01 X9.60508 Y22.58959
G01 X9.60508 Y24.52004
G01 X9.54076 Y24.57295
G01 X9.50574 Y24.59353
G01 X9.49098 Y24.64565
G01 X9.46789 Y24.68888
G01 X9.43680 Y24.72677
G01 X9.39890 Y24.75786
G01 X9.35567 Y24.78095
G01 X9.31389 Y24.79363
G01 X9.26004 Y24.79995
G01 X9.31389 Y24.79363
G01 X9.35567 Y24.78095
G01 X9.39890 Y24.75786
G01 X9.43680 Y24.72677
G01 X9.46789 Y24.68888
G01 X9.49098 Y24.64565
G01 X9.50520 Y24.59876
G01 X9.51000 Y24.54999
G01 X9.51000 Y22.94999
G01 X9.50520 Y22.90123
G01 X9.49098 Y22.85431
G01 X9.46789 Y22.81111
G01 X9.43680 Y22.77321
G01 X9.39890 Y22.74212
G01 X9.35567 Y22.71901
G01 X9.30878 Y22.70478
G01 X9.26002 Y22.69998
G01 X8.96004 Y22.69998
G01 X8.96004 Y15.84000
G01 X9.30002 Y15.84000
G01 X9.34879 Y15.83517
G01 X9.39568 Y15.82095
G01 X9.43891 Y15.79786
G01 X9.47678 Y15.76677
G01 X9.50787 Y15.72887
G01 X9.53098 Y15.68567
G01 X9.54521 Y15.63876
G01 X9.55001 Y15.58999
G01 X9.55001 Y15.24998
G01 X12.03502 Y15.24998
G01 X12.03502 Y15.43799
G01 X12.04185 Y15.51610
G01 X12.05272 Y15.56723
G01 X12.07825 Y15.64135
G01 X12.13050 Y15.73187
G01 X12.18193 Y15.79105
G01 X12.20045 Y15.80957
G01 X12.26306 Y15.85674
G01 X12.30832 Y15.88287
G01 X12.35607 Y15.90413
G01 X12.40578 Y15.92029
G01 X12.45691 Y15.93116
G01 X12.53502 Y15.93799
G01 X13.33502 Y15.93799
G01 X13.41312 Y15.93116
G01 X13.48952 Y15.91351
G01 X13.56168 Y15.88287
G01 X13.60695 Y15.85674
G01 X13.66958 Y15.80957
G01 X13.72305 Y15.75222
G01 X13.75378 Y15.70993
G01 X13.79178 Y15.64135
G01 X13.82409 Y15.54193
G01 X13.83501 Y15.43799
G01 X13.83501 Y14.18798
G01 X14.08492 Y14.18798
G01 X13.83501 Y14.18798
G01 X13.82409 Y14.08402
G01 X13.79178 Y13.98463
G01 X13.73951 Y13.89411
G01 X13.68808 Y13.83492
G01 X13.66958 Y13.81638
G01 X13.60695 Y13.76921
G01 X13.58500 Y13.75496
G01 X13.51396 Y13.72184
G01 X13.46425 Y13.70566
G01 X13.41312 Y13.69479
G01 X13.34810 Y13.68831
G01 X12.52194 Y13.68831
G01 X12.45691 Y13.69479
G01 X12.40578 Y13.70566
G01 X12.35607 Y13.72184
G01 X12.28500 Y13.75496
G01 X12.20045 Y13.81638
G01 X12.14698 Y13.87376
G01 X12.11625 Y13.91605
G01 X12.07825 Y13.98463
G01 X12.04594 Y14.08402
G01 X12.03639 Y14.16185
G01 X12.03502 Y14.24996
G01 X9.55001 Y14.24996
G01 X9.55001 Y13.98999
G01 X9.54521 Y13.94122
G01 X9.53098 Y13.89431
G01 X9.50787 Y13.85110
G01 X9.47678 Y13.81321
G01 X9.43891 Y13.78212
G01 X9.39568 Y13.75900
G01 X9.34879 Y13.74478
G01 X9.30002 Y13.73998
G01 X7.70002 Y13.73998
G01 X7.65123 Y13.74478
G01 X7.60434 Y13.75900
G01 X7.56111 Y13.78212
G01 X7.52324 Y13.81321
G01 X7.49215 Y13.85110
G01 X7.46904 Y13.89431
G01 X7.45481 Y13.94122
G01 X7.45001 Y13.98999
G01 X7.45001 Y15.58999
G01 X7.45481 Y15.63876
G01 X7.46904 Y15.68567
G01 X7.49215 Y15.72887
G01 X7.52324 Y15.76677
G01 X7.56111 Y15.79786
G01 X7.60434 Y15.82095
G01 X7.65123 Y15.83517
G01 X7.70002 Y15.84000
G01 X7.96002 Y15.84000
G01 X7.96002 Y22.69998
G01 X7.66002 Y22.69998
G01 X7.61125 Y22.70478
G01 X7.56434 Y22.71901
G01 X7.52113 Y22.74212
G01 X7.48324 Y22.77321
G01 X7.45215 Y22.81111
G01 X7.42903 Y22.85431
G01 X7.41481 Y22.90123
G01 X7.41001 Y22.94999
G01 X7.41001 Y24.54999
G01 X7.41481 Y24.59876
G01 X7.42903 Y24.64565
G01 X7.45215 Y24.68888
G01 X7.48324 Y24.72677
G01 X7.52113 Y24.75786
G01 X7.56434 Y24.78095
G01 X7.60706 Y24.79391
G01 X7.66002 Y24.79998
G01 X7.11712 Y24.79995
G01 X5.29604 Y22.97887
G01 X5.29604 Y15.85900
G01 X5.59602 Y15.85900
G01 X5.64478 Y15.85417
G01 X5.69167 Y15.83995
G01 X5.73490 Y15.81686
G01 X5.77280 Y15.78577
G01 X5.80389 Y15.74787
G01 X5.82698 Y15.70467
G01 X5.84120 Y15.65775
G01 X5.84600 Y15.60899
G01 X5.84600 Y14.00899
G01 X5.84120 Y13.96022
G01 X5.82698 Y13.91331
G01 X5.80389 Y13.87010
G01 X5.77280 Y13.83221
G01 X5.73490 Y13.80109
G01 X5.69167 Y13.77803
G01 X5.64478 Y13.76378
G01 X5.59602 Y13.75898
G01 X3.99602 Y13.75898
G01 X3.94725 Y13.76378
G01 X3.90034 Y13.77803
G01 X3.85713 Y13.80109
G01 X3.81924 Y13.83221
G01 X3.78815 Y13.87010
G01 X3.76503 Y13.91331
G01 X3.75081 Y13.96022
G01 X3.74601 Y14.00899
G01 X3.74601 Y15.60899
G01 X3.75081 Y15.65775
G01 X3.76503 Y15.70467
G01 X3.78815 Y15.74787
G01 X3.81924 Y15.78577
G01 X3.85713 Y15.81686
G01 X3.90034 Y15.83995
G01 X3.94725 Y15.85417
G01 X3.99602 Y15.85900
G01 X4.29602 Y15.85900
G01 X4.29602 Y23.18598
G01 X4.30565 Y23.28352
G01 X4.33409 Y23.37732
G01 X4.36767 Y23.44270
G01 X4.39490 Y23.48347
G01 X4.44247 Y23.53953
G01 X6.55647 Y25.65352
G01 X6.63223 Y25.71570
G01 X6.69650 Y25.75141
G01 X6.74178 Y25.77018
G01 X6.81247 Y25.79035
G01 X6.91001 Y25.79997
G01 X15.83001 Y25.79997
G01 X15.90329 Y25.79395
G01 X15.99826 Y25.77018
G01 X16.08675 Y25.72832
G01 X16.12749 Y25.70109
G01 X16.18355 Y25.65354
G01 X16.43356 Y25.40356
G01 X16.47237 Y25.35931
G01 X16.51593 Y25.29411
G01 X16.53374 Y25.25916
G01 X16.56089 Y25.18560
G01 X16.57004 Y25.14745
G01 X16.58004 Y25.04999
G01 X16.58004 Y24.79998
G01 X16.88002 Y24.79998
G01 X16.92878 Y24.79518
G01 X16.97567 Y24.78095
G01 X17.01890 Y24.75786
G01 X17.05680 Y24.72677
G01 X17.08789 Y24.68888
G01 X17.11098 Y24.64565
G01 X17.12520 Y24.59876
G01 X17.13000 Y24.54999
G01 X17.13000 Y22.94999
G01 X17.22508 Y22.58959
G01 X17.13000 Y22.94999
G01 X17.12520 Y22.90123
G01 X17.11098 Y22.85431
G01 X17.08789 Y22.81111
G01 X17.05680 Y22.77321
G01 X17.01890 Y22.74212
G01 X16.97567 Y22.71901
G01 X16.92878 Y22.70478
G01 X16.88002 Y22.69998
G01 X16.55005 Y22.69998
G01 X16.55005 Y15.92331
G01 X16.61395 Y15.90413
G01 X16.66170 Y15.88287
G01 X16.70697 Y15.85674
G01 X16.76958 Y15.80957
G01 X16.83953 Y15.73187
G01 X16.87992 Y15.66466
G01 X16.90117 Y15.61694
G01 X16.92409 Y15.54193
G01 X16.93501 Y15.43799
G01 X16.93364 Y14.16185
G01 X16.92409 Y14.08402
G01 X16.89178 Y13.98463
G01 X16.83953 Y13.89411
G01 X16.76958 Y13.81638
G01 X16.68502 Y13.75496
G01 X16.61395 Y13.72184
G01 X16.56424 Y13.70566
G01 X16.48728 Y13.69073
G01 X15.60887 Y13.68936
G01 X15.55691 Y13.69479
G01 X15.48050 Y13.71247
G01 X15.40834 Y13.74310
G01 X15.36308 Y13.76921
G01 X15.30044 Y13.81638
G01 X15.24697 Y13.87376
G01 X15.21624 Y13.91605
G01 X15.17824 Y13.98463
G01 X15.14593 Y14.08402
G01 X15.13501 Y14.18798
G01 X15.13501 Y15.43799
G01 X15.14593 Y15.54193
G01 X15.17824 Y15.64135
G01 X15.21624 Y15.70993
G01 X15.24697 Y15.75222
G01 X15.30044 Y15.80957
G01 X15.36308 Y15.85674
G01 X15.40834 Y15.88287
G01 X15.48050 Y15.91351
G01 X15.55002 Y15.92969
G01 X15.55002 Y22.69998
G01 X15.28002 Y22.69998
G01 X15.23125 Y22.70478
G01 X15.18434 Y22.71901
G01 X15.14113 Y22.74212
G01 X15.10324 Y22.77321
G01 X15.07215 Y22.81111
G01 X15.04903 Y22.85431
G01 X15.03481 Y22.90123
G01 X15.03001 Y22.94999
G01 X15.03001 Y24.54999
G01 X15.03481 Y24.59876
G01 X15.04903 Y24.64565
G01 X15.07215 Y24.68888
G01 X15.10324 Y24.72677
G01 X15.14113 Y24.75786
G01 X15.18434 Y24.78095
G01 X15.23125 Y24.79518
G01 X15.27977 Y24.79995
G01 X14.72770 Y24.79995
G04 P0 ( dwell for no time -- G64 should not smooth over this point )
G00 Z5.00000 ( retract )

G00 X19.67003 Y22.94999 ( rapid move to begin. )
G01 F75.00000
( Mill infeed pass 1/1 )
G01 Z-0.10000
G04 P0 ( dwell for no time -- G64 should not smooth over this point )
G01 F75.00000
G01 X19.67003 Y22.94999
G01 X19.66520 Y22.90123
G01 X19.65098 Y22.85431
G01 X19.62789 Y22.81111
G01 X19.59683 Y22.77321
G01 X19.55890 Y22.74212
G01 X19.51567 Y22.71901
G01 X19.46878 Y22.70478
G01 X19.42002 Y22.69998
G01 X17.82002 Y22.69998
G01 X17.77128 Y22.70478
G01 X17.72434 Y22.71901
G01 X17.68113 Y22.74212
G01 X17.64324 Y22.77321
G01 X17.61215 Y22.81111
G01 X17.58903 Y22.85431
G01 X17.57481 Y22.90123
G01 X17.57001 Y22.94999
G01 X17.57001 Y24.54999
G01 X17.57481 Y24.59876
G01 X17.58903 Y24.64565
G01 X17.61215 Y24.68888
G01 X17.64324 Y24.72677
G01 X17.68113 Y24.75786
G01 X17.72434 Y24.78095
G01 X17.77128 Y24.79518
G01 X17.82002 Y24.79998
G01 X19.42002 Y24.79998
G01 X19.46878 Y24.79518
G01 X19.51567 Y24.78095
G01 X19.55890 Y24.75786
G01 X19.59683 Y24.72677
G01 X19.62789 Y24.68888
G01 X19.65098 Y24.64565
G01 X19.66520 Y24.59876
G01 X19.67003 Y24.54999
G01 X19.67003 Y22.94999
G01 X19.76508 Y22.58959
G01 X19.76508 Y24.91037
G01 X19.69774 Y24.96564
G01 X19.61130 Y25.01184
G01 X19.51753 Y25.04029
G01 X19.42002 Y25.04989
G01 X17.82002 Y25.04989
G01 X17.72248 Y25.04029
G01 X17.62871 Y25.01184
G01 X17.54227 Y24.96564
G01 X17.47499 Y24.91042
G01 X17.47499 Y22.58957
G01 X17.54227 Y22.53435
G01 X17.62871 Y22.48814
G01 X17.72248 Y22.45970
G01 X17.82002 Y22.45010
G01 X19.42002 Y22.45010
G01 X19.51753 Y22.45970
G01 X19.61130 Y22.48814
G01 X19.69774 Y22.53435
G01 X19.76508 Y22.58959
G01 X22.30508 Y22.58959
G01 X22.21000 Y22.94999
G01 X22.20520 Y22.90123
G01 X22.19098 Y22.85431
G01 X22.16789 Y22.81111
G01 X22.13680 Y22.77321
G01 X22.09890 Y22.74212
G01 X22.05567 Y22.71901
G01 X22.00878 Y22.70478
G01 X21.96002 Y22.69998
G01 X20.36002 Y22.69998
G01 X20.31125 Y22.70478
G01 X20.26434 Y22.71901
G01 X20.22113 Y22.74212
G01 X20.18326 Y22.77321
G01 X20.15215 Y22.81111
G01 X20.12903 Y22.85431
G01 X20.11483 Y22.90123
G01 X20.11001 Y22.94999
G01 X20.11001 Y24.54999
G01 X20.11483 Y24.59876
G01 X20.12903 Y24.64565
G01 X20.15215 Y24.68888
G01 X20.18326 Y24.72677
G01 X20.22113 Y24.75786
G01 X20.26434 Y24.78095
G01 X20.31125 Y24.79518
G01 X20.36002 Y24.79998
G01 X21.96002 Y24.79998
G01 X22.00878 Y24.79518
G01 X22.05567 Y24.78095
G01 X22.09890 Y24.75786
G01 X22.13680 Y24.72677
G01 X22.16789 Y24.68888
G01 X22.19098 Y24.64565
G01 X22.20520 Y24.59876
G01 X22.21000 Y24.54999
G01 X22.21000 Y22.94999
G01 X22.30508 Y22.58959
G01 X22.23774 Y22.53435
G01 X22.15130 Y22.48814
G01 X22.05753 Y22.45970
G01 X21.96002 Y22.45010
G01 X20.36002 Y22.45010
G01 X20.26248 Y22.45970
G01 X20.16871 Y22.48814
G01 X20.08227 Y22.53435
G01 X20.01501 Y22.58957
G01 X20.01501 Y24.91042
G01 X20.08227 Y24.96564
G01 X20.16871 Y25.01184
G01 X20.26248 Y25.04029
G01 X20.36002 Y25.04989
G01 X21.96002 Y25.04989
G01 X22.05753 Y25.04029
G01 X22.15130 Y25.01184
G01 X22.23774 Y24.96564
G01 X22.30508 Y24.91037
G01 X22.30508 Y22.58959
G01 X24.84508 Y22.58959
G01 X24.75000 Y22.94999
G01 X24.74520 Y22.90123
G01 X24.73098 Y22.85431
G01 X24.70789 Y22.81111
G01 X24.67680 Y22.77321
G01 X24.63890 Y22.74212
G01 X24.59567 Y22.71901
G01 X24.54878 Y22.70478
G01 X24.50002 Y22.69998
G01 X22.90002 Y22.69998
G01 X22.85125 Y22.70478
G01 X22.80434 Y22.71901
G01 X22.76113 Y22.74212
G01 X22.72324 Y22.77321
G01 X22.69215 Y22.81111
G01 X22.66903 Y22.85431
G01 X22.65481 Y22.90123
G01 X22.65001 Y22.94999
G01 X22.65001 Y24.54999
G01 X22.65481 Y24.59876
G01 X22.66903 Y24.64565
G01 X22.69215 Y24.68888
G01 X22.72324 Y24.72677
G01 X22.76113 Y24.75786
G01 X22.80434 Y24.78095
G01 X22.85125 Y24.79518
G01 X22.90002 Y24.79998
G01 X24.50002 Y24.79998
G01 X24.54878 Y24.79518
G01 X24.59567 Y24.78095
G01 X24.63890 Y24.75786
G01 X24.67680 Y24.72677
G01 X24.70789 Y24.68888
G01 X24.73098 Y24.64565
G01 X24.74520 Y24.59876
G01 X24.75000 Y24.54999
G01 X24.75000 Y22.94999
G01 X24.84508 Y22.58959
G01 X24.77774 Y22.53435
G01 X24.69130 Y22.48814
G01 X24.59753 Y22.45970
G01 X24.50002 Y22.45010
G01 X22.90002 Y22.45010
G01 X22.80248 Y22.45970
G01 X22.70871 Y22.48814
G01 X22.62227 Y22.53435
G01 X22.55499 Y22.58957
G01 X22.55499 Y24.91042
G01 X22.62227 Y24.96564
G01 X22.70871 Y25.01184
G01 X22.80248 Y25.04029
G01 X22.90002 Y25.04989
G01 X24.50002 Y25.04989
G01 X24.59753 Y25.04029
G01 X24.69130 Y25.01184
G01 X24.77774 Y24.96564
G01 X24.84508 Y24.91037
G01 X24.84508 Y22.58959
G01 X27.38508 Y22.58959
G01 X27.38508 Y24.91037
G01 X27.31774 Y24.96564
G01 X27.23130 Y25.01184
G01 X27.13753 Y25.04029
G01 X27.04002 Y25.04989
G01 X25.44002 Y25.04989
G01 X25.34248 Y25.04029
G01 X25.24871 Y25.01184
G01 X25.16227 Y24.96564
G01 X25.09499 Y24.91042
G01 X25.09499 Y22.58957
G01 X25.16227 Y22.53435
G01 X25.24871 Y22.48814
G01 X25.34248 Y22.45970
G01 X25.44002 Y22.45010
G01 X27.04002 Y22.45010
G01 X27.13753 Y22.45970
G01 X27.23130 Y22.48814
G01 X27.31774 Y22.53435
G01 X27.38508 Y22.58959
G01 X27.29000 Y22.94999
G01 X27.28520 Y22.90123
G01 X27.27098 Y22.85431
G01 X27.24789 Y22.81111
G01 X27.21680 Y22.77321
G01 X27.17890 Y22.74212
G01 X27.13567 Y22.71901
G01 X27.08878 Y22.70478
G01 X27.04002 Y22.69998
G01 X25.44002 Y22.69998
G01 X25.39125 Y22.70478
G01 X25.34434 Y22.71901
G01 X25.30113 Y22.74212
G01 X25.26324 Y22.77321
G01 X25.23215 Y22.81111
G01 X25.20903 Y22.85431
G01 X25.19481 Y22.90123
G01 X25.19001 Y22.94999
G01 X25.19001 Y24.54999
G01 X25.19481 Y24.59876
G01 X25.20903 Y24.64565
G01 X25.23215 Y24.68888
G01 X25.26324 Y24.72677
G01 X25.30113 Y24.75786
G01 X25.34434 Y24.78095
G01 X25.39125 Y24.79518
G01 X25.44002 Y24.79998
G01 X27.04002 Y24.79998
G01 X27.08878 Y24.79518
G01 X27.13567 Y24.78095
G01 X27.17890 Y24.75786
G01 X27.21680 Y24.72677
G01 X27.24789 Y24.68888
G01 X27.27098 Y24.64565
G01 X27.28520 Y24.59876
G01 X27.29000 Y24.54999
G01 X27.29000 Y22.94999
G04 P0 ( dwell for no time -- G64 should not smooth over this point )
G00 Z5.00000 ( retract )

G00 X34.91000 Y22.94999 ( rapid move to begin. )
G01 F75.00000
( Mill infeed pass 1/1 )
G01 Z-0.10000
G04 P0 ( dwell for no time -- G64 should not smooth over this point )
G01 F75.00000
G01 X34.91000 Y22.94999
G01 X34.90520 Y22.90123
G01 X34.89098 Y22.85431
G01 X34.86789 Y22.81111
G01 X34.83680 Y22.77321
G01 X34.79890 Y22.74212
G01 X34.75567 Y22.71901
G01 X34.70878 Y22.70478
G01 X34.66002 Y22.69998
G01 X33.06002 Y22.69998
G01 X33.01125 Y22.70478
G01 X32.96434 Y22.71901
G01 X32.92113 Y22.74212
G01 X32.88324 Y22.77321
G01 X32.85215 Y22.81111
G01 X32.82903 Y22.85431
G01 X32.81481 Y22.90123
G01 X32.81001 Y22.94999
G01 X32.81001 Y24.54999
G01 X32.81481 Y24.59876
G01 X32.82903 Y24.64565
G01 X32.85215 Y24.68888
G01 X32.88324 Y24.72677
G01 X32.92113 Y24.75786
G01 X32.96434 Y24.78095
G01 X33.01125 Y24.79518
G01 X33.06002 Y24.79998
G01 X34.66002 Y24.79998
G01 X34.70878 Y24.79518
G01 X34.75567 Y24.78095
G01 X34.79890 Y24.75786
G01 X34.83680 Y24.72677
G01 X34.86789 Y24.68888
G01 X34.89098 Y24.64565
G01 X34.90520 Y24.59876
G01 X34.91000 Y24.54999
G01 X34.91000 Y22.94999
G01 X35.00508 Y22.58959
G01 X35.00508 Y24.91037
G01 X34.93774 Y24.96564
G01 X34.85130 Y25.01184
G01 X34.75753 Y25.04029
G01 X34.66002 Y25.04989
G01 X33.06002 Y25.04989
G01 X32.96248 Y25.04029
G01 X32.86871 Y25.01184
G01 X32.78227 Y24.96564
G01 X32.71499 Y24.91042
G01 X32.71499 Y22.58957
G01 X32.78227 Y22.53435
G01 X32.86871 Y22.48814
G01 X32.96248 Y22.45970
G01 X33.06002 Y22.45010
G01 X34.66002 Y22.45010
G01 X34.75753 Y22.45970
G01 X34.85130 Y22.48814
G01 X34.93774 Y22.53435
G01 X35.00508 Y22.58959
G01 X37.54508 Y22.58959
G01 X37.45000 Y22.94999
G01 X37.44520 Y22.90123
G01 X37.43098 Y22.85431
G01 X37.40789 Y22.81111
G01 X37.37680 Y22.77321
G01 X37.33890 Y22.74212
G01 X37.29567 Y22.71901
G01 X37.24878 Y22.70478
G01 X37.20002 Y22.69998
G01 X35.60002 Y22.69998
G01 X35.55125 Y22.70478
G01 X35.50434 Y22.71901
G01 X35.46113 Y22.74212
G01 X35.42324 Y22.77321
G01 X35.39215 Y22.81111
G01 X35.36903 Y22.85431
G01 X35.35481 Y22.90123
G01 X35.35001 Y22.94999
G01 X35.35001 Y24.54999
G01 X35.35481 Y24.59876
G01 X35.36903 Y24.64565
G01 X35.39215 Y24.68888
G01 X35.42324 Y24.72677
G01 X35.46113 Y24.75786
G01 X35.50434 Y24.78095
G01 X35.55125 Y24.79518
G01 X35.60002 Y24.79998
G01 X37.20002 Y24.79998
G01 X37.24878 Y24.79518
G01 X37.29567 Y24.78095
G01 X37.33890 Y24.75786
G01 X37.37680 Y24.72677
G01 X37.40789 Y24.68888
G01 X37.43098 Y24.64565
G01 X37.44520 Y24.59876
G01 X37.45000 Y24.54999
G01 X37.45000 Y22.94999
G01 X37.54508 Y22.58959
G01 X37.47774 Y22.53435
G01 X37.39130 Y22.48814
G01 X37.29753 Y22.45970
G01 X37.20002 Y22.45010
G01 X35.60002 Y22.45010
G01 X35.50248 Y22.45970
G01 X35.40871 Y22.48814
G01 X35.32227 Y22.53435
G01 X35.25499 Y22.58957
G01 X35.25499 Y24.91042
G01 X35.32227 Y24.96564
G01 X35.40871 Y25.01184
G01 X35.50248 Y25.04029
G01 X35.60002 Y25.04989
G01 X37.20002 Y25.04989
G01 X37.29753 Y25.04029
G01 X37.39130 Y25.01184
G01 X37.47774 Y24.96564
G01 X37.54508 Y24.91037
G01 X37.54508 Y22.58959
G01 X40.08508 Y22.58959
G01 X39.99000 Y22.94999
G01 X39.98520 Y22.90123
G01 X39.97098 Y22.85431
G01 X39.94789 Y22.81111
G01 X39.91680 Y22.77321
G01 X39.87890 Y22.74212
G01 X39.83567 Y22.71901
G01 X39.78878 Y22.70478
G01 X39.74002 Y22.69998
G01 X38.14002 Y22.69998
G01 X38.09125 Y22.70478
G01 X38.04434 Y22.71901
G01 X38.00113 Y22.74212
G01 X37.96324 Y22.77321
G01 X37.93215 Y22.81111
G01 X37.90903 Y22.85431
G01 X37.89481 Y22.90123
G01 X37.89001 Y22.94999
G01 X37.89001 Y24.54999
G01 X37.89481 Y24.59876
G01 X37.90903 Y24.64565
G01 X37.93215 Y24.68888
G01 X37.96324 Y24.72677
G01 X38.00113 Y24.75786
G01 X38.04434 Y24.78095
G01 X38.09125 Y24.79518
G01 X38.14002 Y24.79998
G01 X39.74002 Y24.79998
G01 X39.78878 Y24.79518
G01 X39.83567 Y24.78095
G01 X39.87890 Y24.75786
G01 X39.91680 Y24.72677
G01 X39.94789 Y24.68888
G01 X39.97098 Y24.64565
G01 X39.98520 Y24.59876
G01 X39.99000 Y24.54999
G01 X39.99000 Y22.94999
G01 X40.08508 Y22.58959
G01 X40.01774 Y22.53435
G01 X39.93130 Y22.48814
G01 X39.83753 Y22.45970
G01 X39.74002 Y22.45010
G01 X38.14002 Y22.45010
G01 X38.04248 Y22.45970
G01 X37.94871 Y22.48814
G01 X37.86227 Y22.53435
G01 X37.79499 Y22.58957
G01 X37.79499 Y24.91042
G01 X37.86227 Y24.96564
G01 X37.94871 Y25.01184
G01 X38.04248 Y25.04029
G01 X38.14002 Y25.04989
G01 X39.74002 Y25.04989
G01 X39.83753 Y25.04029
G01 X39.93130 Y25.01184
G01 X40.01774 Y24.96564
G01 X40.08508 Y24.91037
G01 X40.08508 Y22.58959
G01 X42.62508 Y22.58959
G01 X42.53000 Y22.94999
G01 X42.52520 Y22.90123
G01 X42.51098 Y22.85431
G01 X42.48789 Y22.81111
G01 X42.45680 Y22.77321
G01 X42.41890 Y22.74212
G01 X42.37567 Y22.71901
G01 X42.32878 Y22.70478
G01 X42.28002 Y22.69998
G01 X40.68002 Y22.69998
G01 X40.63125 Y22.70478
G01 X40.58434 Y22.71901
G01 X40.54113 Y22.74212
G01 X40.50324 Y22.77321
G01 X40.47215 Y22.81111
G01 X40.44903 Y22.85431
G01 X40.43481 Y22.90123
G01 X40.43001 Y22.94999
G01 X40.43001 Y24.54999
G01 X40.43481 Y24.59876
G01 X40.44903 Y24.64565
G01 X40.47215 Y24.68888
G01 X40.50324 Y24.72677
G01 X40.54113 Y24.75786
G01 X40.58434 Y24.78095
G01 X40.63125 Y24.79518
G01 X40.68002 Y24.79998
G01 X42.28002 Y24.79998
G01 X42.32878 Y24.79518
G01 X42.37567 Y24.78095
G01 X42.41890 Y24.75786
G01 X42.45680 Y24.72677
G01 X42.48789 Y24.68888
G01 X42.51098 Y24.64565
G01 X42.52520 Y24.59876
G01 X42.53000 Y24.54999
G01 X42.53000 Y22.94999
G01 X42.62508 Y22.58959
G01 X42.55774 Y22.53435
G01 X42.47130 Y22.48814
G01 X42.37753 Y22.45970
G01 X42.28002 Y22.45010
G01 X40.68002 Y22.45010
G01 X40.58248 Y22.45970
G01 X40.48871 Y22.48814
G01 X40.40227 Y22.53435
G01 X40.33499 Y22.58957
G01 X40.33499 Y24.91042
G01 X40.40227 Y24.96564
G01 X40.48871 Y25.01184
G01 X40.58248 Y25.04029
G01 X40.68002 Y25.04989
G01 X42.28002 Y25.04989
G01 X42.37753 Y25.04029
G01 X42.47130 Y25.01184
G01 X42.55774 Y24.96564
G01 X42.62508 Y24.91037
G01 X42.62508 Y22.58959
G01 X45.16508 Y22.58959
G01 X45.07000 Y22.94999
G01 X45.06520 Y22.90123
G01 X45.05100 Y22.85431
G01 X45.02789 Y22.81111
G01 X44.99680 Y22.77321
G01 X44.95893 Y22.74212
G01 X44.91567 Y22.71901
G01 X44.86878 Y22.70478
G01 X44.82002 Y22.69998
G01 X43.22002 Y22.69998
G01 X43.17125 Y22.70478
G01 X43.12434 Y22.71901
G01 X43.08113 Y22.74212
G01 X43.04324 Y22.77321
G01 X43.01215 Y22.81111
G01 X42.98903 Y22.85431
G01 X42.97481 Y22.90123
G01 X42.97001 Y22.94999
G01 X42.97001 Y24.54999
G01 X42.97481 Y24.59876
G01 X42.98903 Y24.64565
G01 X43.01215 Y24.68888
G01 X43.04324 Y24.72677
G01 X43.08113 Y24.75786
G01 X43.12434 Y24.78095
G01 X43.17125 Y24.79518
G01 X43.22002 Y24.79998
G01 X44.82002 Y24.79998
G01 X44.86878 Y24.79518
G01 X44.91567 Y24.78095
G01 X44.95893 Y24.75786
G01 X44.99680 Y24.72677
G01 X45.02789 Y24.68888
G01 X45.05100 Y24.64565
G01 X45.06520 Y24.59876
G01 X45.07000 Y24.54999
G01 X45.07000 Y22.94999
G01 X45.16508 Y22.58959
G01 X45.09774 Y22.53435
G01 X45.01130 Y22.48814
G01 X44.91753 Y22.45970
G01 X44.82002 Y22.45010
G01 X43.22002 Y22.45010
G01 X43.12248 Y22.45970
G01 X43.02871 Y22.48814
G01 X42.94227 Y22.53435
G01 X42.87499 Y22.58957
G01 X42.87499 Y24.91042
G01 X42.94227 Y24.96564
G01 X43.02871 Y25.01184
G01 X43.12248 Y25.04029
G01 X43.22002 Y25.04989
G01 X44.82002 Y25.04989
G01 X44.91753 Y25.04029
G01 X45.01130 Y25.01184
G01 X45.09774 Y24.96564
G01 X45.16508 Y24.91037
G01 X45.16508 Y22.58959
G01 X47.70508 Y22.58959
G01 X47.61000 Y22.94999
G01 X47.60520 Y22.90123
G01 X47.59098 Y22.85431
G01 X47.56789 Y22.81111
G01 X47.53680 Y22.77321
G01 X47.49890 Y22.74212
G01 X47.45567 Y22.71901
G01 X47.40878 Y22.70478
G01 X47.36002 Y22.69998
G01 X45.76002 Y22.69998
G01 X45.71125 Y22.70478
G01 X45.66434 Y22.71901
G01 X45.62113 Y22.74212
G01 X45.58324 Y22.77321
G01 X45.55215 Y22.81111
G01 X45.52903 Y22.85431
G01 X45.51481 Y22.90123
G01 X45.51001 Y22.94999
G01 X45.51001 Y24.54999
G01 X45.51481 Y24.59876
G01 X45.52903 Y24.64565
G01 X45.55215 Y24.68888
G01 X45.58324 Y24.72677
G01 X45.62113 Y24.75786
G01 X45.66434 Y24.78095
G01 X45.71125 Y24.79518
G01 X45.76002 Y24.79998
G01 X47.36002 Y24.79998
G01 X47.40878 Y24.79518
G01 X47.45567 Y24.78095
G01 X47.49890 Y24.75786
G01 X47.53680 Y24.72677
G01 X47.56789 Y24.68888
G01 X47.59098 Y24.64565
G01 X47.60520 Y24.59876
G01 X47.61000 Y24.54999
G01 X47.61000 Y22.94999
G01 X47.70508 Y22.58959
G01 X47.63774 Y22.53435
G01 X47.55130 Y22.48814
G01 X47.45753 Y22.45970
G01 X47.36002 Y22.45010
G01 X45.76002 Y22.45010
G01 X45.66248 Y22.45970
G01 X45.56873 Y22.48814
G01 X45.48227 Y22.53435
G01 X45.41499 Y22.58957
G01 X45.41499 Y24.91042
G01 X45.48227 Y24.96564
G01 X45.56873 Y25.01184
G01 X45.66248 Y25.04029
G01 X45.76002 Y25.04989
G01 X47.36002 Y25.04989
G01 X47.45753 Y25.04029
G01 X47.55130 Y25.01184
G01 X47.63774 Y24.96564
G01 X47.70508 Y24.91037
G01 X47.70508 Y22.58959
G01 X50.24508 Y22.58959
G01 X50.15000 Y22.94999
G01 X50.14520 Y22.90123
G01 X50.13098 Y22.85431
G01 X50.10789 Y22.81111
G01 X50.07680 Y22.77321
G01 X50.03890 Y22.74212
G01 X49.99567 Y22.71901
G01 X49.94878 Y22.70478
G01 X49.90002 Y22.69998
G01 X48.30002 Y22.69998
G01 X48.25125 Y22.70478
G01 X48.20434 Y22.71901
G01 X48.16113 Y22.74212
G01 X48.12324 Y22.77321
G01 X48.09215 Y22.81111
G01 X48.06903 Y22.85431
G01 X48.05481 Y22.90123
G01 X48.05001 Y22.94999
G01 X48.05001 Y24.54999
G01 X48.05481 Y24.59876
G01 X48.06903 Y24.64565
G01 X48.09215 Y24.68888
G01 X48.12324 Y24.72677
G01 X48.16113 Y24.75786
G01 X48.20434 Y24.78095
G01 X48.25125 Y24.79518
G01 X48.30002 Y24.79998
G01 X49.90002 Y24.79998
G01 X49.94878 Y24.79518
G01 X49.99567 Y24.78095
G01 X50.03890 Y24.75786
G01 X50.07680 Y24.72677
G01 X50.10789 Y24.68888
G01 X50.13098 Y24.64565
G01 X50.14520 Y24.59876
G01 X50.15000 Y24.54999
G01 X50.15000 Y22.94999
G01 X50.24508 Y22.58959
G01 X50.17774 Y22.53435
G01 X50.09130 Y22.48814
G01 X49.99753 Y22.45970
G01 X49.90002 Y22.45010
G01 X48.30002 Y22.45010
G01 X48.20248 Y22.45970
G01 X48.10871 Y22.48814
G01 X48.02227 Y22.53435
G01 X47.95499 Y22.58957
G01 X47.95499 Y24.91042
G01 X48.02227 Y24.96564
G01 X48.10871 Y25.01184
G01 X48.20248 Y25.04029
G01 X48.30002 Y25.04989
G01 X49.90002 Y25.04989
G01 X49.99753 Y25.04029
G01 X50.09130 Y25.01184
G01 X50.17774 Y24.96564
G01 X50.24508 Y24.91037
G01 X50.24508 Y22.58959
G01 X52.78508 Y22.58959
G01 X52.69000 Y22.94999
G01 X52.68520 Y22.90123
G01 X52.67098 Y22.85431
G01 X52.64789 Y22.81111
G01 X52.61680 Y22.77321
G01 X52.57890 Y22.74212
G01 X52.53567 Y22.71901
G01 X52.48878 Y22.70478
G01 X52.44002 Y22.69998
G01 X50.84002 Y22.69998
G01 X50.79125 Y22.70478
G01 X50.74434 Y22.71901
G01 X50.70113 Y22.74212
G01 X50.66324 Y22.77321
G01 X50.63215 Y22.81111
G01 X50.60903 Y22.85431
G01 X50.59481 Y22.90123
G01 X50.59001 Y22.94999
G01 X50.59001 Y24.54999
G01 X50.59481 Y24.59876
G01 X50.60903 Y24.64565
G01 X50.63215 Y24.68888
G01 X50.66324 Y24.72677
G01 X50.70113 Y24.75786
G01 X50.74434 Y24.78095
G01 X50.79125 Y24.79518
G01 X50.84002 Y24.79998
G01 X52.44002 Y24.79998
G01 X52.48878 Y24.79518
G01 X52.53567 Y24.78095
G01 X52.57890 Y24.75786
G01 X52.61680 Y24.72677
G01 X52.64789 Y24.68888
G01 X52.67098 Y24.64565
G01 X52.68520 Y24.59876
G01 X52.69000 Y24.54999
G01 X52.69000 Y22.94999
G01 X52.78508 Y22.58959
G01 X52.71774 Y22.53435
G01 X52.63130 Y22.48814
G01 X52.53753 Y22.45970
G01 X52.44002 Y22.45010
G01 X50.84002 Y22.45010
G01 X50.74248 Y22.45970
G01 X50.64871 Y22.48814
G01 X50.56227 Y22.53435
G01 X50.49499 Y22.58957
G01 X50.49499 Y24.91042
G01 X50.56227 Y24.96564
G01 X50.64871 Y25.01184
G01 X50.74248 Y25.04029
G01 X50.84002 Y25.04989
G01 X52.44002 Y25.04989
G01 X52.53753 Y25.04029
G01 X52.63130 Y25.01184
G01 X52.71774 Y24.96564
G01 X52.78508 Y24.91037
G01 X52.78508 Y22.58959
G01 X55.32508 Y22.58959
G01 X55.23000 Y22.94999
G01 X55.22520 Y22.90123
G01 X55.21098 Y22.85431
G01 X55.18789 Y22.81111
G01 X55.15680 Y22.77321
G01 X55.11890 Y22.74212
G01 X55.07567 Y22.71901
G01 X55.02878 Y22.70478
G01 X54.98002 Y22.69998
G01 X53.38002 Y22.69998
G01 X53.33125 Y22.70478
G01 X53.28434 Y22.71901
G01 X53.24113 Y22.74212
G01 X53.20324 Y22.77321
G01 X53.17215 Y22.81111
G01 X53.14903 Y22.85431
G01 X53.13481 Y22.90123
G01 X53.13001 Y22.94999
G01 X53.13001 Y24.54999
G01 X53.13481 Y24.59876
G01 X53.14903 Y24.64565
G01 X53.17215 Y24.68888
G01 X53.20324 Y24.72677
G01 X53.24113 Y24.75786
G01 X53.28434 Y24.78095
G01 X53.33125 Y24.79518
G01 X53.38002 Y24.79998
G01 X54.98002 Y24.79998
G01 X55.02878 Y24.79518
G01 X55.07567 Y24.78095
G01 X55.11890 Y24.75786
G01 X55.15680 Y24.72677
G01 X55.18789 Y24.68888
G01 X55.21098 Y24.64565
G01 X55.22520 Y24.59876
G01 X55.23000 Y24.54999
G01 X55.23000 Y22.94999
G01 X55.32508 Y22.58959
G01 X55.25774 Y22.53435
G01 X55.17130 Y22.48814
G01 X55.07753 Y22.45970
G01 X54.98002 Y22.45010
G01 X53.38002 Y22.45010
G01 X53.28248 Y22.45970
G01 X53.18871 Y22.48814
G01 X53.10227 Y22.53435
G01 X53.03499 Y22.58957
G01 X53.03499 Y24.91042
G01 X53.10227 Y24.96564
G01 X53.18871 Y25.01184
G01 X53.28248 Y25.04029
G01 X53.38002 Y25.04989
G01 X54.98002 Y25.04989
G01 X55.07753 Y25.04029
G01 X55.17130 Y25.01184
G01 X55.25774 Y24.96564
G01 X55.32508 Y24.91037
G01 X55.32508 Y22.58959
G01 X57.86508 Y22.58959
G01 X57.86508 Y24.91037
G01 X57.79777 Y24.96564
G01 X57.71130 Y25.01184
G01 X57.61753 Y25.04029
G01 X57.52002 Y25.04989
G01 X55.92002 Y25.04989
G01 X55.82248 Y25.04029
G01 X55.72871 Y25.01184
G01 X55.64227 Y24.96564
G01 X55.57499 Y24.91042
G01 X55.57499 Y22.58957
G01 X55.64227 Y22.53435
G01 X55.72871 Y22.48814
G01 X55.82248 Y22.45970
G01 X55.92002 Y22.45010
G01 X57.52002 Y22.45010
G01 X57.61753 Y22.45970
G01 X57.71130 Y22.48814
G01 X57.79777 Y22.53435
G01 X57.86508 Y22.58959
G01 X57.77000 Y22.94999
G01 X57.76520 Y22.90123
G01 X57.75098 Y22.85431
G01 X57.72789 Y22.81111
G01 X57.69680 Y22.77321
G01 X57.65890 Y22.74212
G01 X57.61567 Y22.71901
G01 X57.56878 Y22.70478
G01 X57.52002 Y22.69998
G01 X55.92002 Y22.69998
G01 X55.87125 Y22.70478
G01 X55.82434 Y22.71901
G01 X55.78113 Y22.74212
G01 X55.74324 Y22.77321
G01 X55.71215 Y22.81111
G01 X55.68903 Y22.85431
G01 X55.67481 Y22.90123
G01 X55.67001 Y22.94999
G01 X55.67001 Y24.54999
G01 X55.67481 Y24.59876
G01 X55.68903 Y24.64565
G01 X55.71215 Y24.68888
G01 X55.74324 Y24.72677
G01 X55.78113 Y24.75786
G01 X55.82434 Y24.78095
G01 X55.87125 Y24.79518
G01 X55.92002 Y24.79998
G01 X57.52002 Y24.79998
G01 X57.56878 Y24.79518
G01 X57.61567 Y24.78095
G01 X57.65890 Y24.75786
G01 X57.69680 Y24.72677
G01 X57.72789 Y24.68888
G01 X57.75098 Y24.64565
G01 X57.76520 Y24.59876
G01 X57.77000 Y24.54999
G01 X57.77000 Y22.94999
G04 P0 ( dwell for no time -- G64 should not smooth over this point )
G00 Z5.00000 ( retract )

G00 X60.53002 Y22.78555 ( rapid move to begin. )
G01 F75.00000
( Mill infeed pass 1/1 )
G01 Z-0.10000
G04 P0 ( dwell for no time -- G64 should not smooth over this point )
G01 F75.00000
G01 X60.53002 Y22.78555
G01 X60.52186 Y22.75868
G01 X60.47566 Y22.67227
G01 X60.41348 Y22.59650
G01 X60.33774 Y22.53435
G01 X60.25130 Y22.48814
G01 X60.15753 Y22.45970
G01 X60.06002 Y22.45010
G01 X60.00993 Y22.45010
G01 X59.94239 Y22.51339
G01 X60.00993 Y22.45010
G01 X60.00993 Y19.75998
G01 X60.00531 Y19.68165
G01 X59.98389 Y19.56600
G01 X59.94462 Y19.45516
G01 X59.90901 Y19.38528
G01 X59.84241 Y19.28835
G01 X59.79029 Y19.22971
G01 X57.36028 Y16.79971
G01 X57.28603 Y16.73568
G01 X57.20455 Y16.68125
G01 X57.16134 Y16.65813
G01 X57.07079 Y16.62064
G01 X57.02390 Y16.60639
G01 X56.92779 Y16.58729
G01 X56.83000 Y16.58008
G01 X45.35992 Y16.58008
G01 X45.29662 Y16.64762
G01 X45.35992 Y16.58008
G01 X45.35992 Y16.52999
G01 X45.35032 Y16.43245
G01 X45.32187 Y16.33868
G01 X45.27567 Y16.25227
G01 X45.22040 Y16.18493
G01 X42.89962 Y16.18493
G01 X42.84435 Y16.25227
G01 X42.79818 Y16.33868
G01 X42.76973 Y16.43245
G01 X42.76010 Y16.52999
G01 X42.76010 Y18.12999
G01 X42.76973 Y18.22752
G01 X42.79818 Y18.32130
G01 X42.84435 Y18.40771
G01 X42.90653 Y18.48348
G01 X42.98228 Y18.54563
G01 X43.06871 Y18.59184
G01 X43.16249 Y18.62028
G01 X43.26002 Y18.62988
G01 X44.86002 Y18.62988
G01 X44.95756 Y18.62028
G01 X45.05133 Y18.59184
G01 X45.13775 Y18.54563
G01 X45.21349 Y18.48348
G01 X45.27567 Y18.40771
G01 X45.32187 Y18.32130
G01 X45.35032 Y18.22752
G01 X45.35992 Y18.12999
G01 X45.35992 Y18.07987
G01 X45.29662 Y18.01233
G01 X45.35992 Y18.07987
G01 X56.51941 Y18.07987
G01 X56.52728 Y18.06085
G01 X56.51941 Y18.07987
G01 X58.51013 Y20.07060
G01 X58.52916 Y20.06270
G01 X58.51013 Y20.07060
G01 X58.51013 Y22.45010
G01 X58.57767 Y22.51339
G01 X58.51013 Y22.45010
G01 X58.46002 Y22.45010
G01 X58.36248 Y22.45970
G01 X58.26871 Y22.48814
G01 X58.18230 Y22.53435
G01 X58.11501 Y22.58957
G01 X58.11501 Y24.91042
G01 X58.18230 Y24.96564
G01 X58.26871 Y25.01184
G01 X58.36248 Y25.04029
G01 X58.46002 Y25.04989
G01 X60.06002 Y25.04989
G01 X60.15753 Y25.04029
G01 X60.25130 Y25.01184
G01 X60.33774 Y24.96564
G01 X60.41348 Y24.90348
G01 X60.47566 Y24.82771
G01 X60.52186 Y24.74130
G01 X60.53002 Y24.71440
G01 X60.53002 Y24.38652
G01 X60.53002 Y24.71440
G01 X60.53817 Y24.74130
G01 X60.58435 Y24.82771
G01 X60.64653 Y24.90348
G01 X60.72227 Y24.96564
G01 X60.80871 Y25.01184
G01 X60.90248 Y25.04029
G01 X61.00002 Y25.04989
G01 X62.60002 Y25.04989
G01 X62.69753 Y25.04029
G01 X62.79130 Y25.01184
G01 X62.87774 Y24.96564
G01 X62.95348 Y24.90348
G01 X63.01566 Y24.82771
G01 X63.06186 Y24.74130
G01 X63.09031 Y24.64750
G01 X63.09991 Y24.54999
G01 X63.09991 Y24.49988
G01 X63.03662 Y24.43234
G01 X63.09991 Y24.49988
G01 X64.95010 Y24.49988
G01 X65.01340 Y24.43234
G01 X64.95010 Y24.49988
G01 X64.95010 Y24.54999
G01 X64.95973 Y24.64750
G01 X64.98818 Y24.74130
G01 X65.03435 Y24.82771
G01 X65.09653 Y24.90348
G01 X65.17227 Y24.96564
G01 X65.25871 Y25.01184
G01 X65.35249 Y25.04029
G01 X65.45002 Y25.04989
G01 X67.05002 Y25.04989
G01 X67.14753 Y25.04029
G01 X67.24131 Y25.01184
G01 X67.32774 Y24.96564
G01 X67.40349 Y24.90348
G01 X67.46567 Y24.82771
G01 X67.51187 Y24.74130
G01 X67.54032 Y24.64750
G01 X67.54992 Y24.54999
G01 X67.54992 Y22.94999
G01 X67.30001 Y22.94999
G01 X67.30001 Y24.54999
G01 X67.29521 Y24.59876
G01 X67.28098 Y24.64565
G01 X67.25787 Y24.68888
G01 X67.22678 Y24.72677
G01 X67.18891 Y24.75786
G01 X67.14568 Y24.78095
G01 X67.09879 Y24.79518
G01 X67.05002 Y24.79998
G01 X65.45002 Y24.79998
G01 X65.40123 Y24.79518
G01 X65.35434 Y24.78095
G01 X65.31111 Y24.75786
G01 X65.27324 Y24.72677
G01 X65.24215 Y24.68888
G01 X65.21904 Y24.64565
G01 X65.20481 Y24.59876
G01 X65.20001 Y24.54999
G01 X65.20001 Y24.24999
G01 X62.85000 Y24.24999
G01 X62.85000 Y24.54999
G01 X62.84520 Y24.59876
G01 X62.83098 Y24.64565
G01 X62.80789 Y24.68888
G01 X62.77680 Y24.72677
G01 X62.73890 Y24.75786
G01 X62.69567 Y24.78095
G01 X62.64878 Y24.79518
G01 X62.60002 Y24.79998
G01 X61.00002 Y24.79998
G01 X60.95125 Y24.79518
G01 X60.90434 Y24.78095
G01 X60.86113 Y24.75786
G01 X60.82324 Y24.72677
G01 X60.79215 Y24.68888
G01 X60.76903 Y24.64565
G01 X60.75481 Y24.59876
G01 X60.75001 Y24.54999
G01 X60.75001 Y24.34999
G01 X60.31000 Y24.34999
G01 X60.31000 Y24.54999
G01 X60.30520 Y24.59876
G01 X60.29098 Y24.64565
G01 X60.26789 Y24.68888
G01 X60.23680 Y24.72677
G01 X60.19890 Y24.75786
G01 X60.15567 Y24.78095
G01 X60.10878 Y24.79518
G01 X60.06002 Y24.79998
G01 X58.46002 Y24.79998
G01 X58.41125 Y24.79518
G01 X58.36434 Y24.78095
G01 X58.32113 Y24.75786
G01 X58.28324 Y24.72677
G01 X58.25215 Y24.68888
G01 X58.22906 Y24.64565
G01 X58.21483 Y24.59876
G01 X58.21003 Y24.54999
G01 X58.21003 Y22.94999
G01 X58.21483 Y22.90123
G01 X58.22906 Y22.85431
G01 X58.25215 Y22.81111
G01 X58.28324 Y22.77321
G01 X58.32113 Y22.74212
G01 X58.36434 Y22.71901
G01 X58.41125 Y22.70478
G01 X58.46002 Y22.69998
G01 X58.76002 Y22.69998
G01 X58.76002 Y19.96707
G01 X56.62291 Y17.82999
G01 X45.11001 Y17.82999
G01 X45.11001 Y18.12999
G01 X45.10521 Y18.17876
G01 X45.09098 Y18.22567
G01 X45.06787 Y18.26887
G01 X45.03681 Y18.30677
G01 X44.99891 Y18.33786
G01 X44.95570 Y18.36095
G01 X44.90882 Y18.37517
G01 X44.86002 Y18.38000
G01 X43.26002 Y18.38000
G01 X43.21123 Y18.37517
G01 X43.16434 Y18.36095
G01 X43.12111 Y18.33786
G01 X43.08324 Y18.30677
G01 X43.05215 Y18.26887
G01 X43.02904 Y18.22567
G01 X43.01481 Y18.17876
G01 X43.01001 Y18.12999
G01 X43.01001 Y16.52999
G01 X43.01481 Y16.48122
G01 X43.02904 Y16.43431
G01 X43.05215 Y16.39110
G01 X43.08324 Y16.35321
G01 X43.12111 Y16.32212
G01 X43.16434 Y16.29903
G01 X43.21123 Y16.28478
G01 X43.26002 Y16.27998
G01 X44.86002 Y16.27998
G01 X44.90882 Y16.28478
G01 X44.95570 Y16.29903
G01 X44.99891 Y16.32212
G01 X45.03681 Y16.35321
G01 X45.06787 Y16.39110
G01 X45.09098 Y16.43431
G01 X45.10521 Y16.48122
G01 X45.11001 Y16.52999
G01 X45.11001 Y16.82996
G01 X56.83000 Y16.82996
G01 X56.90328 Y16.83598
G01 X56.95136 Y16.84553
G01 X56.99825 Y16.85976
G01 X57.08674 Y16.90162
G01 X57.12751 Y16.92885
G01 X57.18357 Y16.97642
G01 X59.61359 Y19.40641
G01 X59.65240 Y19.45066
G01 X59.69593 Y19.51584
G01 X59.71376 Y19.55079
G01 X59.74089 Y19.62435
G01 X59.75618 Y19.70126
G01 X59.76004 Y19.75998
G01 X59.76004 Y22.69998
G01 X60.06002 Y22.69998
G01 X60.10878 Y22.70478
G01 X60.15567 Y22.71901
G01 X60.19890 Y22.74212
G01 X60.23680 Y22.77321
G01 X60.26789 Y22.81111
G01 X60.29098 Y22.85431
G01 X60.30520 Y22.90123
G01 X60.31000 Y22.94999
G01 X60.31000 Y23.34997
G01 X60.75001 Y23.34997
G01 X60.75001 Y22.94999
G01 X60.75481 Y22.90123
G01 X60.76903 Y22.85431
G01 X60.79215 Y22.81111
G01 X60.82324 Y22.77321
G01 X60.86113 Y22.74212
G01 X60.90434 Y22.71901
G01 X60.95125 Y22.70478
G01 X61.00002 Y22.69998
G01 X62.60002 Y22.69998
G01 X62.64878 Y22.70478
G01 X62.69567 Y22.71901
G01 X62.73890 Y22.74212
G01 X62.77680 Y22.77321
G01 X62.80789 Y22.81111
G01 X62.83098 Y22.85431
G01 X62.84520 Y22.90123
G01 X62.85000 Y22.94999
G01 X62.85000 Y23.24997
G01 X65.20001 Y23.24997
G01 X65.20001 Y22.94999
G01 X65.20481 Y22.90123
G01 X65.21904 Y22.85431
G01 X65.24215 Y22.81111
G01 X65.27324 Y22.77321
G01 X65.31111 Y22.74212
G01 X65.35434 Y22.71901
G01 X65.40123 Y22.70478
G01 X65.45002 Y22.69998
G01 X67.05002 Y22.69998
G01 X67.09879 Y22.70478
G01 X67.14568 Y22.71901
G01 X67.18891 Y22.74212
G01 X67.22678 Y22.77321
G01 X67.25787 Y22.81111
G01 X67.28098 Y22.85431
G01 X67.29521 Y22.90123
G01 X67.30001 Y22.94999
G01 X67.54992 Y22.94999
G01 X67.54032 Y22.85246
G01 X67.51187 Y22.75868
G01 X67.46567 Y22.67227
G01 X67.40349 Y22.59650
G01 X67.32774 Y22.53435
G01 X67.24131 Y22.48814
G01 X67.14753 Y22.45970
G01 X67.05002 Y22.45010
G01 X65.45002 Y22.45010
G01 X65.35249 Y22.45970
G01 X65.25871 Y22.48814
G01 X65.17227 Y22.53435
G01 X65.09653 Y22.59650
G01 X65.03435 Y22.67227
G01 X64.98818 Y22.75868
G01 X64.95973 Y22.85246
G01 X64.95010 Y22.94999
G01 X64.95010 Y23.00008
G01 X65.01340 Y23.06762
G01 X64.95010 Y23.00008
G01 X63.09991 Y23.00008
G01 X63.03662 Y23.06762
G01 X63.09991 Y23.00008
G01 X63.09991 Y22.94999
G01 X63.09031 Y22.85246
G01 X63.06186 Y22.75868
G01 X63.01566 Y22.67227
G01 X62.95348 Y22.59650
G01 X62.87774 Y22.53435
G01 X62.79130 Y22.48814
G01 X62.69753 Y22.45970
G01 X62.60002 Y22.45010
G01 X61.00002 Y22.45010
G01 X60.90248 Y22.45970
G01 X60.80871 Y22.48814
G01 X60.72227 Y22.53435
G01 X60.64653 Y22.59650
G01 X60.58435 Y22.67227
G01 X60.53817 Y22.75868
G01 X60.53002 Y22.78555
G01 X60.53002 Y23.11347
G04 P0 ( dwell for no time -- G64 should not smooth over this point )
G00 Z5.00000 ( retract )

G00 X67.30001 Y34.70999 ( rapid move to begin. )
G01 F75.00000
( Mill infeed pass 1/1 )
G01 Z-0.10000
G04 P0 ( dwell for no time -- G64 should not smooth over this point )
G01 F75.00000
G01 X67.30001 Y34.70999
G01 X67.30001 Y36.30999
G01 X67.29521 Y36.35875
G01 X67.28098 Y36.40567
G01 X67.25787 Y36.44887
G01 X67.22678 Y36.48677
G01 X67.18891 Y36.51786
G01 X67.14568 Y36.54095
G01 X67.09879 Y36.55517
G01 X67.05002 Y36.56000
G01 X65.45002 Y36.56000
G01 X65.40123 Y36.55517
G01 X65.35434 Y36.54095
G01 X65.31111 Y36.51786
G01 X65.27324 Y36.48677
G01 X65.24215 Y36.44887
G01 X65.21904 Y36.40567
G01 X65.20481 Y36.35875
G01 X65.20001 Y36.30999
G01 X65.20001 Y36.00999
G01 X36.76161 Y36.00999
G01 X31.82004 Y40.95158
G01 X31.82004 Y48.09998
G01 X32.12002 Y48.09998
G01 X32.16878 Y48.10478
G01 X32.21567 Y48.11901
G01 X32.25890 Y48.14212
G01 X32.29680 Y48.17321
G01 X32.32789 Y48.21111
G01 X32.35098 Y48.25431
G01 X32.36520 Y48.30123
G01 X32.37000 Y48.34999
G01 X32.37000 Y49.94999
G01 X32.36520 Y49.99876
G01 X32.35098 Y50.04565
G01 X32.32789 Y50.08888
G01 X32.29680 Y50.12677
G01 X32.25890 Y50.15786
G01 X32.21567 Y50.18095
G01 X32.16878 Y50.19518
G01 X32.12002 Y50.19998
G01 X30.52002 Y50.19998
G01 X30.47125 Y50.19518
G01 X30.42434 Y50.18095
G01 X30.38113 Y50.15786
G01 X30.34324 Y50.12677
G01 X30.31215 Y50.08888
G01 X30.28903 Y50.04565
G01 X30.27481 Y49.99876
G01 X30.27001 Y49.94999
G01 X30.27001 Y48.34999
G01 X30.27481 Y48.30123
G01 X30.28903 Y48.25431
G01 X30.31215 Y48.21111
G01 X30.34324 Y48.17321
G01 X30.38113 Y48.14212
G01 X30.42434 Y48.11901
G01 X30.47125 Y48.10478
G01 X30.52002 Y48.09998
G01 X30.82002 Y48.09998
G01 X30.82002 Y40.74450
G01 X30.82604 Y40.67122
G01 X30.84981 Y40.57625
G01 X30.89167 Y40.48775
G01 X30.91890 Y40.44699
G01 X30.96648 Y40.39093
G01 X36.20096 Y35.15642
G01 X36.27693 Y35.09457
G01 X36.34533 Y35.05624
G01 X36.41889 Y35.02912
G01 X36.45704 Y35.01997
G01 X36.55450 Y35.00996
G01 X65.20001 Y35.00996
G01 X65.20001 Y34.70999
G01 X65.20481 Y34.66122
G01 X65.21904 Y34.61431
G01 X65.24215 Y34.57110
G01 X65.27324 Y34.53321
G01 X65.31111 Y34.50212
G01 X65.35434 Y34.47903
G01 X65.40123 Y34.46478
G01 X65.45002 Y34.45998
G01 X67.05002 Y34.45998
G01 X67.09879 Y34.46478
G01 X67.14568 Y34.47903
G01 X67.18891 Y34.50212
G01 X67.22678 Y34.53321
G01 X67.25787 Y34.57110
G01 X67.28098 Y34.61431
G01 X67.29521 Y34.66122
G01 X67.30001 Y34.70999
G01 X67.54992 Y34.70999
G01 X67.54992 Y32.16999
G01 X67.30001 Y32.16999
G01 X67.30001 Y33.76999
G01 X67.29521 Y33.81875
G01 X67.28098 Y33.86567
G01 X67.25787 Y33.90887
G01 X67.22678 Y33.94677
G01 X67.18891 Y33.97786
G01 X67.14568 Y34.00095
G01 X67.09879 Y34.01517
G01 X67.05002 Y34.02000
G01 X65.45002 Y34.02000
G01 X65.40123 Y34.01517
G01 X65.35434 Y34.00095
G01 X65.31111 Y33.97786
G01 X65.27324 Y33.94677
G01 X65.24215 Y33.90887
G01 X65.21904 Y33.86567
G01 X65.20481 Y33.81875
G01 X65.20001 Y33.76999
G01 X65.20001 Y33.46999
G01 X36.88013 Y33.46999
G01 X29.28004 Y41.07007
G01 X29.28004 Y48.09998
G01 X29.58002 Y48.09998
G01 X29.62878 Y48.10478
G01 X29.67567 Y48.11901
G01 X29.71890 Y48.14212
G01 X29.75680 Y48.17321
G01 X29.78789 Y48.21111
G01 X29.81098 Y48.25431
G01 X29.82520 Y48.30123
G01 X29.83000 Y48.34999
G01 X29.83000 Y49.94999
G01 X29.82520 Y49.99876
G01 X29.81098 Y50.04565
G01 X29.78789 Y50.08888
G01 X29.75680 Y50.12677
G01 X29.71890 Y50.15786
G01 X29.67567 Y50.18095
G01 X29.62878 Y50.19518
G01 X29.58002 Y50.19998
G01 X27.98002 Y50.19998
G01 X27.93125 Y50.19518
G01 X27.88434 Y50.18095
G01 X27.84113 Y50.15786
G01 X27.80324 Y50.12677
G01 X27.77215 Y50.08888
G01 X27.74903 Y50.04565
G01 X27.73481 Y49.99876
G01 X27.73001 Y49.94999
G01 X27.73001 Y48.34999
G01 X27.73481 Y48.30123
G01 X27.74903 Y48.25431
G01 X27.77215 Y48.21111
G01 X27.80324 Y48.17321
G01 X27.84113 Y48.14212
G01 X27.88434 Y48.11901
G01 X27.93125 Y48.10478
G01 X27.98002 Y48.09998
G01 X28.28002 Y48.09998
G01 X28.28002 Y40.86299
G01 X28.28604 Y40.78971
G01 X28.29559 Y40.74163
G01 X28.32858 Y40.64945
G01 X28.37890 Y40.56548
G01 X28.42648 Y40.50942
G01 X36.31947 Y32.61642
G01 X36.37553 Y32.56885
G01 X36.41630 Y32.54162
G01 X36.48168 Y32.50804
G01 X36.55168 Y32.48553
G01 X36.59976 Y32.47598
G01 X36.67302 Y32.46996
G01 X65.20001 Y32.46996
G01 X65.20001 Y32.16999
G01 X65.20481 Y32.12122
G01 X65.21904 Y32.07431
G01 X65.24215 Y32.03110
G01 X65.27324 Y31.99321
G01 X65.31111 Y31.96212
G01 X65.35434 Y31.93903
G01 X65.40123 Y31.92478
G01 X65.45002 Y31.91998
G01 X67.05002 Y31.91998
G01 X67.09879 Y31.92478
G01 X67.14568 Y31.93903
G01 X67.18891 Y31.96212
G01 X67.22678 Y31.99321
G01 X67.25787 Y32.03110
G01 X67.28098 Y32.07431
G01 X67.29521 Y32.12122
G01 X67.30001 Y32.16999
G01 X67.54992 Y32.16999
G01 X67.54032 Y32.07245
G01 X67.51187 Y31.97868
G01 X67.46567 Y31.89227
G01 X67.40349 Y31.81650
G01 X67.32774 Y31.75434
G01 X67.24131 Y31.70814
G01 X67.14753 Y31.67969
G01 X67.05002 Y31.67009
G01 X65.45002 Y31.67009
G01 X65.35249 Y31.67969
G01 X65.25871 Y31.70814
G01 X65.17227 Y31.75434
G01 X65.09653 Y31.81650
G01 X65.03435 Y31.89227
G01 X64.98818 Y31.97868
G01 X64.95973 Y32.07245
G01 X64.95010 Y32.16999
G01 X64.95010 Y32.22008
G01 X65.01340 Y32.28762
G01 X64.95010 Y32.22008
G01 X36.67302 Y32.22008
G01 X36.57525 Y32.22729
G01 X36.47914 Y32.24639
G01 X36.38605 Y32.27715
G01 X36.29849 Y32.32125
G01 X36.21701 Y32.37568
G01 X36.14277 Y32.43971
G01 X28.24977 Y40.33271
G01 X28.18573 Y40.40696
G01 X28.13130 Y40.48844
G01 X28.10819 Y40.53164
G01 X28.08721 Y40.57599
G01 X28.05645 Y40.66908
G01 X28.03735 Y40.76520
G01 X28.03013 Y40.86299
G01 X28.03013 Y47.85010
G01 X28.09767 Y47.91339
G01 X28.03013 Y47.85010
G01 X27.98002 Y47.85010
G01 X27.88248 Y47.85970
G01 X27.78871 Y47.88814
G01 X27.70227 Y47.93435
G01 X27.63499 Y47.98957
G01 X27.63499 Y50.31042
G01 X27.70227 Y50.36564
G01 X27.78871 Y50.41184
G01 X27.88248 Y50.44029
G01 X27.98002 Y50.44989
G01 X29.58002 Y50.44989
G01 X29.67753 Y50.44029
G01 X29.77130 Y50.41184
G01 X29.85774 Y50.36564
G01 X29.92510 Y50.31037
G01 X29.92510 Y47.98962
G01 X29.85774 Y47.93435
G01 X29.77130 Y47.88814
G01 X29.67753 Y47.85970
G01 X29.58002 Y47.85010
G01 X29.52993 Y47.85010
G01 X29.46239 Y47.91339
G01 X29.52993 Y47.85010
G01 X29.52993 Y41.17360
G01 X29.51090 Y41.16570
G01 X29.52993 Y41.17360
G01 X30.45693 Y40.24661
G01 X30.54814 Y40.13459
G01 X30.62632 Y40.05075
G01 X35.86080 Y34.81624
G01 X35.93111 Y34.74997
G01 X36.05610 Y34.64743
G01 X36.98366 Y33.71987
G01 X36.97576 Y33.70085
G01 X36.98366 Y33.71987
G01 X64.95010 Y33.71987
G01 X65.01340 Y33.65233
G01 X64.95010 Y33.71987
G01 X64.95010 Y33.76999
G01 X64.95973 Y33.86752
G01 X64.98818 Y33.96130
G01 X65.03435 Y34.04771
G01 X65.08960 Y34.11502
G01 X67.41042 Y34.11502
G01 X67.46567 Y34.04771
G01 X67.51187 Y33.96130
G01 X67.54032 Y33.86752
G01 X67.54992 Y33.76999
G01 X67.54992 Y36.30999
G01 X67.54032 Y36.40752
G01 X67.51187 Y36.50130
G01 X67.46567 Y36.58771
G01 X67.41042 Y36.65502
G01 X65.08960 Y36.65502
G01 X65.03435 Y36.58771
G01 X64.98818 Y36.50130
G01 X64.95973 Y36.40752
G01 X64.95010 Y36.30999
G01 X64.95010 Y36.25987
G01 X65.01340 Y36.19233
G01 X64.95010 Y36.25987
G01 X36.86514 Y36.25987
G01 X36.85724 Y36.24085
G01 X36.86514 Y36.25987
G01 X35.91485 Y37.21016
G01 X35.83703 Y37.27422
G01 X35.75280 Y37.35273
G01 X33.16281 Y39.94272
G01 X33.08430 Y40.02695
G01 X33.02022 Y40.10482
G01 X32.06993 Y41.05511
G01 X32.05090 Y41.04721
G01 X32.06993 Y41.05511
G01 X32.06993 Y47.85010
G01 X32.00239 Y47.91339
G01 X32.06993 Y47.85010
G01 X32.12002 Y47.85010
G01 X32.21753 Y47.85970
G01 X32.31130 Y47.88814
G01 X32.39774 Y47.93435
G01 X32.46510 Y47.98962
G01 X32.46510 Y50.31037
G01 X32.39774 Y50.36564
G01 X32.31130 Y50.41184
G01 X32.21753 Y50.44029
G01 X32.12002 Y50.44989
G01 X30.52002 Y50.44989
G01 X30.42248 Y50.44029
G01 X30.32871 Y50.41184
G01 X30.24227 Y50.36564
G01 X30.17499 Y50.31042
G01 X30.17499 Y47.98957
G01 X30.24227 Y47.93435
G01 X30.32871 Y47.88814
G01 X30.42248 Y47.85970
G01 X30.52002 Y47.85010
G01 X30.57013 Y47.85010
G01 X30.63767 Y47.91339
G01 X30.57013 Y47.85010
G01 X30.57013 Y40.74450
G01 X30.57735 Y40.64671
G01 X30.59645 Y40.55059
G01 X30.61070 Y40.50370
G01 X30.65766 Y40.39545
G01 X30.73534 Y40.30015
G01 X30.80409 Y40.22636
G01 X36.03665 Y34.99381
G01 X36.09527 Y34.93841
G01 X36.19207 Y34.85751
G01 X36.24970 Y34.82538
G01 X36.28595 Y34.81037
G01 X36.39870 Y34.77697
G01 X36.47619 Y34.76470
G01 X36.55450 Y34.76008
G01 X64.95010 Y34.76008
G01 X65.01340 Y34.82762
G01 X64.95010 Y34.76008
G01 X64.95010 Y34.70999
G01 X64.95973 Y34.61245
G01 X64.98818 Y34.51868
G01 X65.03435 Y34.43227
G01 X65.08962 Y34.36491
G01 X67.41040 Y34.36491
G01 X67.46567 Y34.43227
G01 X67.51187 Y34.51868
G01 X67.54032 Y34.61245
G01 X67.54992 Y34.70999
G01 X67.54994 Y38.84999
G01 X67.54034 Y38.94752
G01 X67.51189 Y39.04130
G01 X67.46569 Y39.12771
G01 X67.40351 Y39.20348
G01 X67.32777 Y39.26563
G01 X67.24133 Y39.31183
G01 X67.14756 Y39.34028
G01 X67.05005 Y39.34988
G01 X65.45005 Y39.34988
G01 X65.35251 Y39.34028
G01 X65.25874 Y39.31183
G01 X65.17230 Y39.26563
G01 X65.09656 Y39.20348
G01 X65.03438 Y39.12771
G01 X64.98820 Y39.04130
G01 X64.95975 Y38.94752
G01 X64.95013 Y38.84999
G01 X64.95013 Y38.79987
G01 X65.01342 Y38.73233
G01 X64.95013 Y38.79987
G01 X36.76065 Y38.79987
G01 X36.75275 Y38.78085
G01 X36.76065 Y38.79987
G01 X34.60993 Y40.95059
G01 X34.59090 Y40.94269
G01 X34.60993 Y40.95059
G01 X34.60993 Y47.85010
G01 X34.54239 Y47.91339
G01 X34.60993 Y47.85010
G01 X34.66002 Y47.85010
G01 X34.75753 Y47.85970
G01 X34.85130 Y47.88814
G01 X34.93774 Y47.93435
G01 X35.00508 Y47.98959
G01 X35.00508 Y50.31037
G01 X34.93774 Y50.36564
G01 X34.85130 Y50.41184
G01 X34.75753 Y50.44029
G01 X34.66002 Y50.44989
G01 X33.06002 Y50.44989
G01 X32.96248 Y50.44029
G01 X32.86871 Y50.41184
G01 X32.78227 Y50.36564
G01 X32.71499 Y50.31042
G01 X32.71499 Y47.98957
G01 X32.78227 Y47.93435
G01 X32.86871 Y47.88814
G01 X32.96248 Y47.85970
G01 X33.06002 Y47.85010
G01 X33.11013 Y47.85010
G01 X33.17767 Y47.91339
G01 X33.11013 Y47.85010
G01 X33.11013 Y40.63998
G01 X33.11735 Y40.54219
G01 X33.13645 Y40.44607
G01 X33.16721 Y40.35298
G01 X33.21054 Y40.26682
G01 X33.27153 Y40.19248
G01 X33.34061 Y40.11834
G01 X35.92842 Y37.53053
G01 X36.00256 Y37.46144
G01 X36.07683 Y37.40051
G01 X36.16304 Y37.35715
G01 X36.25613 Y37.32639
G01 X36.35224 Y37.30729
G01 X36.45001 Y37.30008
G01 X64.95013 Y37.30008
G01 X65.01342 Y37.36762
G01 X64.95013 Y37.30008
G01 X64.95013 Y37.24999
G01 X64.95975 Y37.15245
G01 X64.98820 Y37.05868
G01 X65.03438 Y36.97227
G01 X65.08965 Y36.90493
G01 X67.41042 Y36.90491
G01 X67.46569 Y36.97227
G01 X67.51189 Y37.05868
G01 X67.54034 Y37.15245
G01 X67.54994 Y37.24999
G01 X67.30003 Y37.24999
G01 X67.29523 Y37.20122
G01 X67.28101 Y37.15431
G01 X67.25789 Y37.11110
G01 X67.22680 Y37.07321
G01 X67.18893 Y37.04212
G01 X67.14570 Y37.01903
G01 X67.09881 Y37.00478
G01 X67.05005 Y36.99998
G01 X65.45005 Y36.99998
G01 X65.40126 Y37.00478
G01 X65.35437 Y37.01903
G01 X65.31114 Y37.04212
G01 X65.27327 Y37.07321
G01 X65.24218 Y37.11110
G01 X65.21906 Y37.15431
G01 X65.20484 Y37.20122
G01 X65.20004 Y37.24999
G01 X65.20004 Y37.54996
G01 X36.45001 Y37.54996
G01 X36.37675 Y37.55598
G01 X36.32867 Y37.56553
G01 X36.25867 Y37.58804
G01 X36.19329 Y37.62162
G01 X36.15252 Y37.64885
G01 X36.09646 Y37.69642
G01 X33.50648 Y40.28641
G01 X33.45890 Y40.34247
G01 X33.43167 Y40.38323
G01 X33.39809 Y40.44861
G01 X33.37559 Y40.51861
G01 X33.36604 Y40.56670
G01 X33.36002 Y40.63998
G01 X33.36002 Y48.09998
G01 X33.06002 Y48.09998
G01 X33.01125 Y48.10478
G01 X32.96434 Y48.11901
G01 X32.92113 Y48.14212
G01 X32.88324 Y48.17321
G01 X32.85215 Y48.21111
G01 X32.82903 Y48.25431
G01 X32.81481 Y48.30123
G01 X32.81001 Y48.34999
G01 X32.81001 Y49.94999
G01 X32.81481 Y49.99876
G01 X32.82903 Y50.04565
G01 X32.85215 Y50.08888
G01 X32.88324 Y50.12677
G01 X32.92113 Y50.15786
G01 X32.96434 Y50.18095
G01 X33.01125 Y50.19518
G01 X33.06002 Y50.19998
G01 X34.66002 Y50.19998
G01 X34.70878 Y50.19518
G01 X34.75567 Y50.18095
G01 X34.79890 Y50.15786
G01 X34.83680 Y50.12677
G01 X34.86789 Y50.08888
G01 X34.89098 Y50.04565
G01 X34.90520 Y49.99876
G01 X34.91000 Y49.94999
G01 X34.91000 Y48.34999
G01 X34.90520 Y48.30123
G01 X34.89098 Y48.25431
G01 X34.86789 Y48.21111
G01 X34.83680 Y48.17321
G01 X34.79890 Y48.14212
G01 X34.75567 Y48.11901
G01 X34.70878 Y48.10478
G01 X34.66002 Y48.09998
G01 X34.36004 Y48.09998
G01 X34.36004 Y40.84706
G01 X36.65712 Y38.54999
G01 X65.20004 Y38.54999
G01 X65.20004 Y38.84999
G01 X65.20484 Y38.89875
G01 X65.21906 Y38.94567
G01 X65.24218 Y38.98887
G01 X65.27327 Y39.02677
G01 X65.31114 Y39.05786
G01 X65.35437 Y39.08095
G01 X65.40126 Y39.09517
G01 X65.45005 Y39.10000
G01 X67.05005 Y39.10000
G01 X67.09881 Y39.09517
G01 X67.14570 Y39.08095
G01 X67.18893 Y39.05786
G01 X67.22680 Y39.02677
G01 X67.25789 Y38.98887
G01 X67.28101 Y38.94567
G01 X67.29523 Y38.89875
G01 X67.30003 Y38.84999
G01 X67.30003 Y37.24999
G04 P0 ( dwell for no time -- G64 should not smooth over this point )
G00 Z5.00000 ( retract )

G00 X67.30001 Y43.44998 ( rapid move to begin. )
G01 F75.00000
( Mill infeed pass 1/1 )
G01 Z-0.10000
G04 P0 ( dwell for no time -- G64 should not smooth over this point )
G01 F75.00000
G01 X67.30001 Y43.44998
G01 X67.29521 Y43.40121
G01 X67.28098 Y43.35432
G01 X67.25787 Y43.31109
G01 X67.22678 Y43.27322
G01 X67.18891 Y43.24213
G01 X67.14568 Y43.21902
G01 X67.09879 Y43.20479
G01 X67.05002 Y43.19999
G01 X65.45002 Y43.19999
G01 X65.40123 Y43.20479
G01 X65.35434 Y43.21902
G01 X65.31111 Y43.24213
G01 X65.27324 Y43.27322
G01 X65.24215 Y43.31109
G01 X65.21904 Y43.35432
G01 X65.20481 Y43.40121
G01 X65.20001 Y43.44998
G01 X65.20001 Y43.74995
G01 X61.25001 Y43.74995
G01 X61.15255 Y43.75996
G01 X61.07708 Y43.78122
G01 X61.00589 Y43.81406
G01 X60.94071 Y43.85760
G01 X60.89646 Y43.89641
G01 X58.90648 Y45.88642
G01 X58.85890 Y45.94248
G01 X58.83167 Y45.98325
G01 X58.78981 Y46.07174
G01 X58.76604 Y46.16671
G01 X58.76002 Y46.23999
G01 X58.76002 Y48.09998
G01 X58.46002 Y48.09998
G01 X58.41125 Y48.10478
G01 X58.36434 Y48.11901
G01 X58.32113 Y48.14212
G01 X58.28324 Y48.17321
G01 X58.25215 Y48.21111
G01 X58.22906 Y48.25431
G01 X58.21483 Y48.30123
G01 X58.21003 Y48.34999
G01 X58.21003 Y49.94999
G01 X58.21483 Y49.99876
G01 X58.22906 Y50.04565
G01 X58.25215 Y50.08888
G01 X58.28324 Y50.12677
G01 X58.32113 Y50.15786
G01 X58.36434 Y50.18095
G01 X58.41125 Y50.19518
G01 X58.46002 Y50.19998
G01 X60.06002 Y50.19998
G01 X60.10878 Y50.19518
G01 X60.15567 Y50.18095
G01 X60.19890 Y50.15786
G01 X60.23680 Y50.12677
G01 X60.26789 Y50.08888
G01 X60.29098 Y50.04565
G01 X60.30520 Y49.99876
G01 X60.31000 Y49.94999
G01 X60.31000 Y48.34999
G01 X60.30520 Y48.30123
G01 X60.29098 Y48.25431
G01 X60.26789 Y48.21111
G01 X60.23680 Y48.17321
G01 X60.19890 Y48.14212
G01 X60.15567 Y48.11901
G01 X60.10878 Y48.10478
G01 X60.06002 Y48.09998
G01 X59.76004 Y48.09998
G01 X59.76004 Y46.44708
G01 X61.45712 Y44.74997
G01 X65.20001 Y44.74997
G01 X65.20001 Y45.05000
G01 X65.20481 Y45.09877
G01 X65.21904 Y45.14566
G01 X65.24215 Y45.18889
G01 X65.27324 Y45.22676
G01 X65.31111 Y45.25785
G01 X65.35434 Y45.28096
G01 X65.40123 Y45.29519
G01 X65.45002 Y45.29999
G01 X67.05002 Y45.29999
G01 X67.09879 Y45.29519
G01 X67.14568 Y45.28096
G01 X67.18891 Y45.25785
G01 X67.22678 Y45.22676
G01 X67.25787 Y45.18889
G01 X67.28098 Y45.14566
G01 X67.29521 Y45.09877
G01 X67.30001 Y45.05000
G01 X67.30001 Y43.44998
G01 X67.54992 Y43.44998
G01 X67.54992 Y45.05000
G01 X67.54032 Y45.14751
G01 X67.51187 Y45.24129
G01 X67.46567 Y45.32772
G01 X67.40349 Y45.40347
G01 X67.32774 Y45.46565
G01 X67.24131 Y45.51182
G01 X67.14753 Y45.54027
G01 X67.05002 Y45.54990
G01 X65.45002 Y45.54990
G01 X65.35249 Y45.54027
G01 X65.25871 Y45.51182
G01 X65.17227 Y45.46565
G01 X65.09653 Y45.40347
G01 X65.03435 Y45.32772
G01 X64.98818 Y45.24129
G01 X64.95973 Y45.14751
G01 X64.95010 Y45.05000
G01 X64.95010 Y44.99986
G01 X65.01340 Y44.93232
G01 X64.95010 Y44.99986
G01 X61.56065 Y44.99986
G01 X61.55275 Y44.98084
G01 X61.56065 Y44.99986
G01 X60.00993 Y46.55058
G01 X59.99090 Y46.54271
G01 X60.00993 Y46.55058
G01 X60.00993 Y47.85010
G01 X59.94239 Y47.91339
G01 X60.00993 Y47.85010
G01 X60.06002 Y47.85010
G01 X60.15753 Y47.85970
G01 X60.25130 Y47.88814
G01 X60.33774 Y47.93435
G01 X60.40508 Y47.98959
G01 X60.40508 Y50.31037
G01 X60.33774 Y50.36564
G01 X60.25130 Y50.41184
G01 X60.15753 Y50.44029
G01 X60.06002 Y50.44989
G01 X58.46002 Y50.44989
G01 X58.36248 Y50.44029
G01 X58.26871 Y50.41184
G01 X58.18230 Y50.36564
G01 X58.11501 Y50.31042
G01 X58.11501 Y47.98957
G01 X58.18230 Y47.93435
G01 X58.26871 Y47.88814
G01 X58.36248 Y47.85970
G01 X58.46002 Y47.85010
G01 X58.51013 Y47.85010
G01 X58.57767 Y47.91339
G01 X58.51013 Y47.85010
G01 X58.51013 Y46.23999
G01 X58.51735 Y46.14220
G01 X58.53645 Y46.04609
G01 X58.55070 Y45.99920
G01 X58.58819 Y45.90865
G01 X58.61128 Y45.86544
G01 X58.66573 Y45.78396
G01 X58.72977 Y45.70971
G01 X60.71976 Y43.71970
G01 X60.77840 Y43.66758
G01 X60.87533 Y43.60098
G01 X60.98145 Y43.55036
G01 X61.09420 Y43.51696
G01 X61.17170 Y43.50469
G01 X61.25001 Y43.50007
G01 X64.95010 Y43.50007
G01 X65.01340 Y43.56761
G01 X64.95010 Y43.50007
G01 X64.95010 Y43.44998
G01 X64.95973 Y43.35247
G01 X64.98818 Y43.25869
G01 X65.03435 Y43.17225
G01 X65.09653 Y43.09651
G01 X65.17227 Y43.03433
G01 X65.25871 Y42.98813
G01 X65.35249 Y42.95968
G01 X65.45002 Y42.95008
G01 X67.05002 Y42.95008
G01 X67.14753 Y42.95968
G01 X67.24131 Y42.98813
G01 X67.32774 Y43.03433
G01 X67.40349 Y43.09651
G01 X67.46567 Y43.17225
G01 X67.51187 Y43.25869
G01 X67.54032 Y43.35247
G01 X67.54992 Y43.44998
G04 P0 ( dwell for no time -- G64 should not smooth over this point )
G00 Z5.00000 ( retract )

G00 X63.09991 Y48.34999 ( rapid move to begin. )
G01 F75.00000
( Mill infeed pass 1/1 )
G01 Z-0.10000
G04 P0 ( dwell for no time -- G64 should not smooth over this point )
G01 F75.00000
G01 X63.09991 Y48.34999
G01 X63.09031 Y48.25246
G01 X63.06186 Y48.15868
G01 X63.01566 Y48.07227
G01 X62.95348 Y47.99650
G01 X62.87774 Y47.93435
G01 X62.79130 Y47.88814
G01 X62.69753 Y47.85970
G01 X62.60002 Y47.85010
G01 X61.00002 Y47.85010
G01 X60.90248 Y47.85970
G01 X60.80871 Y47.88814
G01 X60.72227 Y47.93435
G01 X60.65499 Y47.98957
G01 X60.65499 Y50.31042
G01 X60.72227 Y50.36564
G01 X60.80871 Y50.41184
G01 X60.90248 Y50.44029
G01 X61.00002 Y50.44989
G01 X62.60002 Y50.44989
G01 X62.69753 Y50.44029
G01 X62.79130 Y50.41184
G01 X62.87774 Y50.36564
G01 X62.95348 Y50.30348
G01 X63.01566 Y50.22771
G01 X63.06186 Y50.14130
G01 X63.09031 Y50.04750
G01 X63.09991 Y49.94999
G01 X63.09991 Y48.34999
G01 X62.85000 Y48.34999
G01 X62.85000 Y49.94999
G01 X62.84520 Y49.99876
G01 X62.83098 Y50.04565
G01 X62.80789 Y50.08888
G01 X62.77680 Y50.12677
G01 X62.73890 Y50.15786
G01 X62.69567 Y50.18095
G01 X62.64878 Y50.19518
G01 X62.60002 Y50.19998
G01 X61.00002 Y50.19998
G01 X60.95125 Y50.19518
G01 X60.90434 Y50.18095
G01 X60.86113 Y50.15786
G01 X60.82324 Y50.12677
G01 X60.79215 Y50.08888
G01 X60.76903 Y50.04565
G01 X60.75481 Y49.99876
G01 X60.75001 Y49.94999
G01 X60.75001 Y48.34999
G01 X60.75481 Y48.30123
G01 X60.76903 Y48.25431
G01 X60.79215 Y48.21111
G01 X60.82324 Y48.17321
G01 X60.86113 Y48.14212
G01 X60.90434 Y48.11901
G01 X60.95125 Y48.10478
G01 X61.00002 Y48.09998
G01 X62.60002 Y48.09998
G01 X62.64878 Y48.10478
G01 X62.69567 Y48.11901
G01 X62.73890 Y48.14212
G01 X62.77680 Y48.17321
G01 X62.80789 Y48.21111
G01 X62.83098 Y48.25431
G01 X62.84520 Y48.30123
G01 X62.85000 Y48.34999
G04 P0 ( dwell for no time -- G64 should not smooth over this point )
G00 Z5.00000 ( retract )

G00 X57.77000 Y48.34999 ( rapid move to begin. )
G01 F75.00000
( Mill infeed pass 1/1 )
G01 Z-0.10000
G04 P0 ( dwell for no time -- G64 should not smooth over this point )
G01 F75.00000
G01 X57.77000 Y48.34999
G01 X57.77000 Y49.94999
G01 X57.76520 Y49.99876
G01 X57.75098 Y50.04565
G01 X57.72789 Y50.08888
G01 X57.69680 Y50.12677
G01 X57.65890 Y50.15786
G01 X57.61567 Y50.18095
G01 X57.56878 Y50.19518
G01 X57.52002 Y50.19998
G01 X55.92002 Y50.19998
G01 X55.87125 Y50.19518
G01 X55.82434 Y50.18095
G01 X55.78113 Y50.15786
G01 X55.74324 Y50.12677
G01 X55.71215 Y50.08888
G01 X55.68903 Y50.04565
G01 X55.67481 Y49.99876
G01 X55.67001 Y49.94999
G01 X55.67001 Y48.34999
G01 X55.67481 Y48.30123
G01 X55.68903 Y48.25431
G01 X55.71215 Y48.21111
G01 X55.74324 Y48.17321
G01 X55.78113 Y48.14212
G01 X55.82434 Y48.11901
G01 X55.87125 Y48.10478
G01 X55.92002 Y48.09998
G01 X57.52002 Y48.09998
G01 X57.56878 Y48.10478
G01 X57.61567 Y48.11901
G01 X57.65890 Y48.14212
G01 X57.69680 Y48.17321
G01 X57.72789 Y48.21111
G01 X57.75098 Y48.25431
G01 X57.76520 Y48.30123
G01 X57.77000 Y48.34999
G01 X57.86508 Y47.98959
G01 X57.79777 Y47.93435
G01 X57.71130 Y47.88814
G01 X57.61753 Y47.85970
G01 X57.52002 Y47.85010
G01 X55.92002 Y47.85010
G01 X55.82248 Y47.85970
G01 X55.72871 Y47.88814
G01 X55.64227 Y47.93435
G01 X55.57499 Y47.98957
G01 X55.57499 Y50.31042
G01 X55.64227 Y50.36564
G01 X55.72871 Y50.41184
G01 X55.82248 Y50.44029
G01 X55.92002 Y50.44989
G01 X57.52002 Y50.44989
G01 X57.61753 Y50.44029
G01 X57.71130 Y50.41184
G01 X57.79777 Y50.36564
G01 X57.86508 Y50.31037
G01 X57.86508 Y47.98959
G01 X55.32508 Y47.98959
G01 X55.32508 Y50.31037
G01 X55.25774 Y50.36564
G01 X55.17130 Y50.41184
G01 X55.07753 Y50.44029
G01 X54.98002 Y50.44989
G01 X53.38002 Y50.44989
G01 X53.28248 Y50.44029
G01 X53.18871 Y50.41184
G01 X53.10227 Y50.36564
G01 X53.03499 Y50.31042
G01 X53.03499 Y47.98957
G01 X53.10227 Y47.93435
G01 X53.18871 Y47.88814
G01 X53.28248 Y47.85970
G01 X53.38002 Y47.85010
G01 X54.98002 Y47.85010
G01 X55.07753 Y47.85970
G01 X55.17130 Y47.88814
G01 X55.25774 Y47.93435
G01 X55.32508 Y47.98959
G01 X55.23000 Y48.34999
G01 X55.23000 Y49.94999
G01 X55.22520 Y49.99876
G01 X55.21098 Y50.04565
G01 X55.18789 Y50.08888
G01 X55.15680 Y50.12677
G01 X55.11890 Y50.15786
G01 X55.07567 Y50.18095
G01 X55.02878 Y50.19518
G01 X54.98002 Y50.19998
G01 X53.38002 Y50.19998
G01 X53.33125 Y50.19518
G01 X53.28434 Y50.18095
G01 X53.24113 Y50.15786
G01 X53.20324 Y50.12677
G01 X53.17215 Y50.08888
G01 X53.14903 Y50.04565
G01 X53.13481 Y49.99876
G01 X53.13001 Y49.94999
G01 X53.13001 Y48.34999
G01 X53.13481 Y48.30123
G01 X53.14903 Y48.25431
G01 X53.17215 Y48.21111
G01 X53.20324 Y48.17321
G01 X53.24113 Y48.14212
G01 X53.28434 Y48.11901
G01 X53.33125 Y48.10478
G01 X53.38002 Y48.09998
G01 X54.98002 Y48.09998
G01 X55.02878 Y48.10478
G01 X55.07567 Y48.11901
G01 X55.11890 Y48.14212
G01 X55.15680 Y48.17321
G01 X55.18789 Y48.21111
G01 X55.21098 Y48.25431
G01 X55.22520 Y48.30123
G01 X55.23000 Y48.34999
G01 X55.32508 Y47.98959
G01 X52.78508 Y47.98959
G01 X52.78508 Y50.31037
G01 X52.71774 Y50.36564
G01 X52.63130 Y50.41184
G01 X52.53753 Y50.44029
G01 X52.44002 Y50.44989
G01 X50.84002 Y50.44989
G01 X50.74248 Y50.44029
G01 X50.64871 Y50.41184
G01 X50.56227 Y50.36564
G01 X50.49499 Y50.31042
G01 X50.49499 Y47.98957
G01 X50.56227 Y47.93435
G01 X50.64871 Y47.88814
G01 X50.74248 Y47.85970
G01 X50.84002 Y47.85010
G01 X52.44002 Y47.85010
G01 X52.53753 Y47.85970
G01 X52.63130 Y47.88814
G01 X52.71774 Y47.93435
G01 X52.78508 Y47.98959
G01 X52.69000 Y48.34999
G01 X52.69000 Y49.94999
G01 X52.68520 Y49.99876
G01 X52.67098 Y50.04565
G01 X52.64789 Y50.08888
G01 X52.61680 Y50.12677
G01 X52.57890 Y50.15786
G01 X52.53567 Y50.18095
G01 X52.48878 Y50.19518
G01 X52.44002 Y50.19998
G01 X50.84002 Y50.19998
G01 X50.79125 Y50.19518
G01 X50.74434 Y50.18095
G01 X50.70113 Y50.15786
G01 X50.66324 Y50.12677
G01 X50.63215 Y50.08888
G01 X50.60903 Y50.04565
G01 X50.59481 Y49.99876
G01 X50.59001 Y49.94999
G01 X50.59001 Y48.34999
G01 X50.59481 Y48.30123
G01 X50.60903 Y48.25431
G01 X50.63215 Y48.21111
G01 X50.66324 Y48.17321
G01 X50.70113 Y48.14212
G01 X50.74434 Y48.11901
G01 X50.79125 Y48.10478
G01 X50.84002 Y48.09998
G01 X52.44002 Y48.09998
G01 X52.48878 Y48.10478
G01 X52.53567 Y48.11901
G01 X52.57890 Y48.14212
G01 X52.61680 Y48.17321
G01 X52.64789 Y48.21111
G01 X52.67098 Y48.25431
G01 X52.68520 Y48.30123
G01 X52.69000 Y48.34999
G01 X52.78508 Y47.98959
G01 X50.24508 Y47.98959
G01 X50.24508 Y50.31037
G01 X50.17774 Y50.36564
G01 X50.09130 Y50.41184
G01 X49.99753 Y50.44029
G01 X49.90002 Y50.44989
G01 X48.30002 Y50.44989
G01 X48.20248 Y50.44029
G01 X48.10871 Y50.41184
G01 X48.02227 Y50.36564
G01 X47.95499 Y50.31042
G01 X47.95499 Y47.98957
G01 X48.02227 Y47.93435
G01 X48.10871 Y47.88814
G01 X48.20248 Y47.85970
G01 X48.30002 Y47.85010
G01 X49.90002 Y47.85010
G01 X49.99753 Y47.85970
G01 X50.09130 Y47.88814
G01 X50.17774 Y47.93435
G01 X50.24508 Y47.98959
G01 X50.15000 Y48.34999
G01 X50.15000 Y49.94999
G01 X50.14520 Y49.99876
G01 X50.13098 Y50.04565
G01 X50.10789 Y50.08888
G01 X50.07680 Y50.12677
G01 X50.03890 Y50.15786
G01 X49.99567 Y50.18095
G01 X49.94878 Y50.19518
G01 X49.90002 Y50.19998
G01 X48.30002 Y50.19998
G01 X48.25125 Y50.19518
G01 X48.20434 Y50.18095
G01 X48.16113 Y50.15786
G01 X48.12324 Y50.12677
G01 X48.09215 Y50.08888
G01 X48.06903 Y50.04565
G01 X48.05481 Y49.99876
G01 X48.05001 Y49.94999
G01 X48.05001 Y48.34999
G01 X48.05481 Y48.30123
G01 X48.06903 Y48.25431
G01 X48.09215 Y48.21111
G01 X48.12324 Y48.17321
G01 X48.16113 Y48.14212
G01 X48.20434 Y48.11901
G01 X48.25125 Y48.10478
G01 X48.30002 Y48.09998
G01 X49.90002 Y48.09998
G01 X49.94878 Y48.10478
G01 X49.99567 Y48.11901
G01 X50.03890 Y48.14212
G01 X50.07680 Y48.17321
G01 X50.10789 Y48.21111
G01 X50.13098 Y48.25431
G01 X50.14520 Y48.30123
G01 X50.15000 Y48.34999
G01 X50.24508 Y47.98959
G01 X47.70508 Y47.98959
G01 X47.70508 Y50.31037
G01 X47.63774 Y50.36564
G01 X47.55130 Y50.41184
G01 X47.45753 Y50.44029
G01 X47.36002 Y50.44989
G01 X45.76002 Y50.44989
G01 X45.66248 Y50.44029
G01 X45.56873 Y50.41184
G01 X45.48227 Y50.36564
G01 X45.41499 Y50.31042
G01 X45.41499 Y47.98957
G01 X45.48227 Y47.93435
G01 X45.56873 Y47.88814
G01 X45.66248 Y47.85970
G01 X45.76002 Y47.85010
G01 X47.36002 Y47.85010
G01 X47.45753 Y47.85970
G01 X47.55130 Y47.88814
G01 X47.63774 Y47.93435
G01 X47.70508 Y47.98959
G01 X47.61000 Y48.34999
G01 X47.61000 Y49.94999
G01 X47.60520 Y49.99876
G01 X47.59098 Y50.04565
G01 X47.56789 Y50.08888
G01 X47.53680 Y50.12677
G01 X47.49890 Y50.15786
G01 X47.45567 Y50.18095
G01 X47.40878 Y50.19518
G01 X47.36002 Y50.19998
G01 X45.76002 Y50.19998
G01 X45.71125 Y50.19518
G01 X45.66434 Y50.18095
G01 X45.62113 Y50.15786
G01 X45.58324 Y50.12677
G01 X45.55215 Y50.08888
G01 X45.52903 Y50.04565
G01 X45.51481 Y49.99876
G01 X45.51001 Y49.94999
G01 X45.51001 Y48.34999
G01 X45.51481 Y48.30123
G01 X45.52903 Y48.25431
G01 X45.55215 Y48.21111
G01 X45.58324 Y48.17321
G01 X45.62113 Y48.14212
G01 X45.66434 Y48.11901
G01 X45.71125 Y48.10478
G01 X45.76002 Y48.09998
G01 X47.36002 Y48.09998
G01 X47.40878 Y48.10478
G01 X47.45567 Y48.11901
G01 X47.49890 Y48.14212
G01 X47.53680 Y48.17321
G01 X47.56789 Y48.21111
G01 X47.59098 Y48.25431
G01 X47.60520 Y48.30123
G01 X47.61000 Y48.34999
G01 X47.70508 Y47.98959
G01 X45.16508 Y47.98959
G01 X45.16508 Y50.31037
G01 X45.09774 Y50.36564
G01 X45.01130 Y50.41184
G01 X44.91753 Y50.44029
G01 X44.82002 Y50.44989
G01 X43.22002 Y50.44989
G01 X43.12248 Y50.44029
G01 X43.02871 Y50.41184
G01 X42.94227 Y50.36564
G01 X42.87499 Y50.31042
G01 X42.87499 Y47.98957
G01 X42.94227 Y47.93435
G01 X43.02871 Y47.88814
G01 X43.12248 Y47.85970
G01 X43.22002 Y47.85010
G01 X44.82002 Y47.85010
G01 X44.91753 Y47.85970
G01 X45.01130 Y47.88814
G01 X45.09774 Y47.93435
G01 X45.16508 Y47.98959
G01 X45.07000 Y48.34999
G01 X45.07000 Y49.94999
G01 X45.06520 Y49.99876
G01 X45.05100 Y50.04565
G01 X45.02789 Y50.08888
G01 X44.99680 Y50.12677
G01 X44.95893 Y50.15786
G01 X44.91567 Y50.18095
G01 X44.86878 Y50.19518
G01 X44.82002 Y50.19998
G01 X43.22002 Y50.19998
G01 X43.17125 Y50.19518
G01 X43.12434 Y50.18095
G01 X43.08113 Y50.15786
G01 X43.04324 Y50.12677
G01 X43.01215 Y50.08888
G01 X42.98903 Y50.04565
G01 X42.97481 Y49.99876
G01 X42.97001 Y49.94999
G01 X42.97001 Y48.34999
G01 X42.97481 Y48.30123
G01 X42.98903 Y48.25431
G01 X43.01215 Y48.21111
G01 X43.04324 Y48.17321
G01 X43.08113 Y48.14212
G01 X43.12434 Y48.11901
G01 X43.17125 Y48.10478
G01 X43.22002 Y48.09998
G01 X44.82002 Y48.09998
G01 X44.86878 Y48.10478
G01 X44.91567 Y48.11901
G01 X44.95893 Y48.14212
G01 X44.99680 Y48.17321
G01 X45.02789 Y48.21111
G01 X45.05100 Y48.25431
G01 X45.06520 Y48.30123
G01 X45.07000 Y48.34999
G01 X45.16508 Y47.98959
G01 X42.62508 Y47.98959
G01 X42.62508 Y50.31037
G01 X42.55774 Y50.36564
G01 X42.47130 Y50.41184
G01 X42.37753 Y50.44029
G01 X42.28002 Y50.44989
G01 X40.68002 Y50.44989
G01 X40.58248 Y50.44029
G01 X40.48871 Y50.41184
G01 X40.40227 Y50.36564
G01 X40.33499 Y50.31042
G01 X40.33499 Y47.98957
G01 X40.40227 Y47.93435
G01 X40.48871 Y47.88814
G01 X40.58248 Y47.85970
G01 X40.68002 Y47.85010
G01 X42.28002 Y47.85010
G01 X42.37753 Y47.85970
G01 X42.47130 Y47.88814
G01 X42.55774 Y47.93435
G01 X42.62508 Y47.98959
G01 X42.53000 Y48.34999
G01 X42.53000 Y49.94999
G01 X42.52520 Y49.99876
G01 X42.51098 Y50.04565
G01 X42.48789 Y50.08888
G01 X42.45680 Y50.12677
G01 X42.41890 Y50.15786
