( pcb2gcode 2.5.0 )
( Software-independent Gcode )

G94 ( Millimeters per minute feed rate. )
G21 ( Units == Millimeters. )

G90 ( Absolute coordinates. )
G00 S1000 ( RPM spindle speed. )
G01 F200.00000 ( Feedrate. )


G00 Z40.00000 (Retract to tool change height)
T0
M5      (Spindle stop.)
G04 P1.00000 (Wait for spindle to stop)
(MSG, Change tool bit to mill diameter 0.30000mm)
M0      (Temporary machine stop.)
M3 ( Spindle on clockwise. )
G04 P1.00000 (Wait for spindle to get up to speed)
G04 P0 ( dwell for no time -- G64 should not smooth over this point )
G00 Z5.00000 ( retract )

G00 X43.04908 Y6.32498 ( rapid move to begin. )
G01 F200.00000
( Mill infeed pass 1/1 )
G01 Z-0.15000
G04 P0 ( dwell for no time -- G64 should not smooth over this point )
G01 F200.00000
G01 X43.04908 Y6.32498
G01 X45.30821 Y6.32498
G01 X45.35885 Y6.26328
G01 X45.41430 Y6.15958
G01 X45.44841 Y6.04703
G01 X45.45997 Y5.92999
G01 X45.45997 Y4.32999
G01 X45.16000 Y4.32999
G01 X45.16000 Y5.92999
G01 X45.15423 Y5.98851
G01 X45.13716 Y6.04479
G01 X45.10943 Y6.09663
G01 X45.07214 Y6.14210
G01 X45.02667 Y6.17941
G01 X44.97481 Y6.20712
G01 X44.91855 Y6.22419
G01 X44.86002 Y6.22996
G01 X43.26000 Y6.22996
G01 X43.20148 Y6.22419
G01 X43.14522 Y6.20712
G01 X43.09335 Y6.17941
G01 X43.04789 Y6.14210
G01 X43.01060 Y6.09663
G01 X42.98286 Y6.04479
G01 X42.96579 Y5.98851
G01 X42.96003 Y5.92999
G01 X42.96003 Y4.32999
G01 X42.96579 Y4.27147
G01 X42.98286 Y4.21518
G01 X43.01060 Y4.16334
G01 X43.04789 Y4.11787
G01 X43.09335 Y4.08056
G01 X43.14522 Y4.05285
G01 X43.20148 Y4.03578
G01 X43.26000 Y4.03001
G01 X44.86002 Y4.03001
G01 X44.91855 Y4.03578
G01 X44.97481 Y4.05285
G01 X45.02667 Y4.08056
G01 X45.07214 Y4.11787
G01 X45.10943 Y4.16334
G01 X45.13716 Y4.21518
G01 X45.15423 Y4.27147
G01 X45.16000 Y4.32999
G01 X45.01001 Y4.32999
G01 X45.00714 Y4.30073
G01 X44.99861 Y4.27258
G01 X44.98474 Y4.24665
G01 X44.96607 Y4.22392
G01 X44.94334 Y4.20527
G01 X44.91743 Y4.19141
G01 X44.88928 Y4.18287
G01 X44.86002 Y4.17998
G01 X43.26000 Y4.17998
G01 X43.23074 Y4.18287
G01 X43.20260 Y4.19141
G01 X43.17669 Y4.20527
G01 X43.15396 Y4.22392
G01 X43.13529 Y4.24665
G01 X43.12142 Y4.27258
G01 X43.11288 Y4.30073
G01 X43.11001 Y4.32999
G01 X43.11001 Y5.92999
G01 X43.11288 Y5.95925
G01 X43.12142 Y5.98739
G01 X43.13529 Y6.01332
G01 X43.15396 Y6.03606
G01 X43.17669 Y6.05470
G01 X43.20260 Y6.06857
G01 X43.23074 Y6.07710
G01 X43.26000 Y6.08000
G01 X44.86002 Y6.08000
G01 X44.88928 Y6.07710
G01 X44.91743 Y6.06857
G01 X44.94334 Y6.05470
G01 X44.96607 Y6.03606
G01 X44.98474 Y6.01332
G01 X44.99861 Y5.98739
G01 X45.00714 Y5.95925
G01 X45.01001 Y5.92999
G01 X45.01001 Y4.32999
G01 X45.45997 Y4.32999
G01 X45.44841 Y4.21295
G01 X45.41430 Y4.10040
G01 X45.35885 Y3.99669
G01 X45.28423 Y3.90576
G01 X45.19332 Y3.83116
G01 X45.08959 Y3.77571
G01 X44.97707 Y3.74157
G01 X44.86002 Y3.73004
G01 X43.26000 Y3.73004
G01 X43.14296 Y3.74157
G01 X43.03044 Y3.77571
G01 X42.92670 Y3.83116
G01 X42.83580 Y3.90576
G01 X42.76117 Y3.99669
G01 X42.70575 Y4.10040
G01 X42.67161 Y4.21295
G01 X42.66008 Y4.32999
G01 X42.66008 Y5.92999
G01 X42.67161 Y6.04703
G01 X42.70575 Y6.15958
G01 X42.76117 Y6.26328
G01 X42.81182 Y6.32498
G01 X43.04908 Y6.32498
G01 X43.01004 Y6.30413
G01 X42.94184 Y6.24815
G01 X42.88588 Y6.17997
G01 X42.84431 Y6.10217
G01 X42.81870 Y6.01777
G01 X42.81004 Y5.92999
G01 X42.81004 Y4.32999
G01 X42.81870 Y4.24221
G01 X42.84431 Y4.15780
G01 X42.88588 Y4.08000
G01 X42.94184 Y4.01183
G01 X43.01004 Y3.95585
G01 X43.08781 Y3.91427
G01 X43.17222 Y3.88866
G01 X43.26000 Y3.88003
G01 X44.86002 Y3.88003
G01 X44.94781 Y3.88866
G01 X45.03221 Y3.91427
G01 X45.10999 Y3.95585
G01 X45.17818 Y4.01183
G01 X45.23414 Y4.08000
G01 X45.27572 Y4.15780
G01 X45.30132 Y4.24221
G01 X45.30998 Y4.32999
G01 X45.30998 Y5.92999
G01 X45.30132 Y6.01777
G01 X45.27572 Y6.10217
G01 X45.23414 Y6.17997
G01 X45.17818 Y6.24815
G01 X45.10999 Y6.30413
G01 X45.07095 Y6.32498
G01 X45.07095 Y6.65688
G01 X45.10943 Y6.70334
G01 X45.13716 Y6.75518
G01 X45.15423 Y6.81147
G01 X45.16000 Y6.86999
G01 X45.45997 Y6.86999
G01 X45.01001 Y6.86999
G01 X45.00714 Y6.84073
G01 X44.99861 Y6.81258
G01 X44.98474 Y6.78665
G01 X44.96607 Y6.76392
G01 X44.94334 Y6.74527
G01 X44.91743 Y6.73141
G01 X44.88928 Y6.72287
G01 X44.86002 Y6.71998
G01 X43.26000 Y6.71998
G01 X43.23074 Y6.72287
G01 X43.20260 Y6.73141
G01 X43.17669 Y6.74527
G01 X43.15396 Y6.76392
G01 X43.13529 Y6.78665
G01 X43.12142 Y6.81258
G01 X43.11288 Y6.84073
G01 X43.11001 Y6.86999
G01 X43.11001 Y8.46999
G01 X43.11288 Y8.49925
G01 X43.12142 Y8.52739
G01 X43.13529 Y8.55332
G01 X43.15396 Y8.57606
G01 X43.17669 Y8.59470
G01 X43.20260 Y8.60857
G01 X43.23074 Y8.61710
G01 X43.26000 Y8.62000
G01 X44.86002 Y8.62000
G01 X44.88928 Y8.61710
G01 X44.91743 Y8.60857
G01 X44.94334 Y8.59470
G01 X44.96607 Y8.57606
G01 X44.98474 Y8.55332
G01 X44.99861 Y8.52739
G01 X45.00714 Y8.49925
G01 X45.01001 Y8.46999
G01 X45.01001 Y6.86999
G01 X45.16000 Y6.86999
G01 X45.16000 Y8.46999
G01 X45.15423 Y8.52851
G01 X45.13716 Y8.58479
G01 X45.10943 Y8.63664
G01 X45.07214 Y8.68210
G01 X45.02667 Y8.71941
G01 X44.97481 Y8.74712
G01 X44.91855 Y8.76419
G01 X44.86002 Y8.76996
G01 X43.26000 Y8.76996
G01 X43.20148 Y8.76419
G01 X43.14522 Y8.74712
G01 X43.09335 Y8.71941
G01 X43.04789 Y8.68210
G01 X43.01060 Y8.63664
G01 X42.98286 Y8.58479
G01 X42.96579 Y8.52851
G01 X42.96003 Y8.46999
G01 X42.96003 Y6.86999
G01 X42.96579 Y6.81147
G01 X42.98286 Y6.75518
G01 X43.01060 Y6.70334
G01 X43.04789 Y6.65787
G01 X43.09335 Y6.62056
G01 X43.14522 Y6.59285
G01 X43.20148 Y6.57576
G01 X43.26000 Y6.57001
G01 X44.86002 Y6.57001
G01 X44.91855 Y6.57576
G01 X44.97481 Y6.59285
G01 X45.02667 Y6.62056
G01 X45.07095 Y6.65688
G01 X45.07097 Y14.27688
G01 X45.10943 Y14.32334
G01 X45.13716 Y14.37518
G01 X45.15423 Y14.43147
G01 X45.16000 Y14.48999
G01 X45.45997 Y14.48999
G01 X45.01001 Y14.48999
G01 X45.00714 Y14.46073
G01 X44.99861 Y14.43258
G01 X44.98474 Y14.40665
G01 X44.96607 Y14.38392
G01 X44.94334 Y14.36527
G01 X44.91743 Y14.35141
G01 X44.88928 Y14.34287
G01 X44.86002 Y14.33998
G01 X43.26000 Y14.33998
G01 X43.23074 Y14.34287
G01 X43.20260 Y14.35141
G01 X43.17669 Y14.36527
G01 X43.15396 Y14.38392
G01 X43.13529 Y14.40665
G01 X43.12142 Y14.43258
G01 X43.11288 Y14.46073
G01 X43.11001 Y14.48999
G01 X43.11001 Y14.88996
G01 X40.85002 Y14.88996
G01 X40.84919 Y14.60932
G01 X40.84126 Y14.54183
G01 X40.82107 Y14.47696
G01 X40.78218 Y14.40304
G01 X40.76374 Y14.37767
G01 X40.71766 Y14.32773
G01 X40.63603 Y14.27145
G01 X40.55846 Y14.24051
G01 X40.50733 Y14.22964
G01 X40.45787 Y14.22519
G01 X39.65000 Y14.22499
G01 X39.59270 Y14.22964
G01 X39.54157 Y14.24051
G01 X39.45000 Y14.27858
G01 X39.37126 Y14.33883
G01 X39.32641 Y14.38986
G01 X39.29173 Y14.44831
G01 X39.25876 Y14.54183
G01 X39.25000 Y14.62499
G01 X39.25000 Y15.87500
G01 X39.25876 Y15.95816
G01 X39.29173 Y16.05168
G01 X39.32641 Y16.11010
G01 X39.37126 Y16.16113
G01 X39.45000 Y16.22141
G01 X39.54157 Y16.25948
G01 X39.62389 Y16.27363
G01 X40.49183 Y16.27279
G01 X40.57362 Y16.25542
G01 X40.65002 Y16.22141
G01 X40.71766 Y16.17226
G01 X40.78218 Y16.09695
G01 X40.81543 Y16.03769
G01 X40.84126 Y15.95816
G01 X40.85002 Y15.87500
G01 X40.85002 Y15.68999
G01 X43.11001 Y15.68999
G01 X43.11001 Y16.08999
G01 X43.11288 Y16.11925
G01 X43.12142 Y16.14739
G01 X43.13529 Y16.17332
G01 X43.15396 Y16.19606
G01 X43.17669 Y16.21470
G01 X43.20260 Y16.22857
G01 X43.23074 Y16.23710
G01 X43.26000 Y16.24000
G01 X44.86002 Y16.24000
G01 X44.88928 Y16.23710
G01 X44.91743 Y16.22857
G01 X44.94334 Y16.21470
G01 X44.96607 Y16.19606
G01 X44.98474 Y16.17332
G01 X44.99861 Y16.14739
G01 X45.00714 Y16.11925
G01 X45.01001 Y16.08999
G01 X45.01001 Y14.48999
G01 X45.16000 Y14.48999
G01 X45.16000 Y16.08999
G01 X45.15423 Y16.14851
G01 X45.13716 Y16.20479
G01 X45.10943 Y16.25663
G01 X45.07097 Y16.30307
G01 X45.02667 Y16.33941
G01 X44.97481 Y16.36713
G01 X44.91855 Y16.38419
G01 X44.86002 Y16.38996
G01 X43.26000 Y16.38996
G01 X43.20148 Y16.38419
G01 X43.14522 Y16.36713
G01 X43.09335 Y16.33941
G01 X43.04789 Y16.30210
G01 X43.01060 Y16.25663
G01 X42.98286 Y16.20479
G01 X42.96579 Y16.14851
G01 X42.96003 Y16.08999
G01 X42.96003 Y15.83995
G01 X43.00397 Y15.79603
G01 X42.96003 Y15.83995
G01 X40.99999 Y15.83995
G01 X40.96158 Y15.79916
G01 X40.99999 Y15.83995
G01 X40.99999 Y15.87500
G01 X40.98797 Y15.98933
G01 X40.95244 Y16.09867
G01 X40.89496 Y16.19827
G01 X40.84022 Y16.26151
G01 X40.81802 Y16.28371
G01 X40.75135 Y16.33418
G01 X40.69701 Y16.36555
G01 X40.61998 Y16.39804
G01 X40.50751 Y16.42196
G01 X39.62389 Y16.42359
G01 X39.56151 Y16.41704
G01 X39.48005 Y16.39804
G01 X39.45074 Y16.38678
G01 X39.37502 Y16.35128
G01 X39.28201 Y16.28371
G01 X39.20507 Y16.19827
G01 X39.16184 Y16.12666
G01 X39.13634 Y16.06936
G01 X39.11205 Y15.98933
G01 X39.10004 Y15.87500
G01 X39.10004 Y14.62499
G01 X39.11205 Y14.51064
G01 X39.14759 Y14.40129
G01 X39.18798 Y14.32804
G01 X39.22483 Y14.27731
G01 X39.28201 Y14.21628
G01 X39.34868 Y14.16578
G01 X39.40301 Y14.13444
G01 X39.48005 Y14.10193
G01 X39.56151 Y14.08293
G01 X39.63430 Y14.07541
G01 X40.46572 Y14.07541
G01 X40.53852 Y14.08293
G01 X40.58965 Y14.09380
G01 X40.61998 Y14.10193
G01 X40.69701 Y14.13444
G01 X40.75135 Y14.16578
G01 X40.81802 Y14.21628
G01 X40.84022 Y14.23848
G01 X40.89496 Y14.30172
G01 X40.95244 Y14.40129
G01 X40.98797 Y14.51064
G01 X40.99999 Y14.62499
G01 X40.99999 Y14.74000
G01 X40.96090 Y14.78117
G01 X40.99999 Y14.74000
G01 X42.96003 Y14.74000
G01 X43.00397 Y14.78392
G01 X42.96003 Y14.74000
G01 X42.96003 Y14.48999
G01 X42.96579 Y14.43147
G01 X42.98286 Y14.37518
G01 X43.01060 Y14.32334
G01 X43.04789 Y14.27787
G01 X43.09335 Y14.24056
G01 X43.14522 Y14.21285
G01 X43.20148 Y14.19578
G01 X43.26000 Y14.19001
G01 X44.86002 Y14.19001
G01 X44.91855 Y14.19578
G01 X44.97481 Y14.21285
G01 X45.02667 Y14.24056
G01 X45.07097 Y14.27688
G01 X45.07095 Y16.48498
G01 X42.81182 Y16.48498
G01 X42.76117 Y16.42328
G01 X42.70575 Y16.31958
G01 X42.67161 Y16.20703
G01 X42.66498 Y16.13992
G01 X42.69117 Y16.10713
G01 X42.66498 Y16.13992
G01 X41.25617 Y16.13992
G01 X41.24111 Y16.11633
G01 X41.25617 Y16.13992
G01 X41.22648 Y16.22069
G01 X41.19795 Y16.27665
G01 X41.13763 Y16.37457
G01 X41.06313 Y16.46222
G01 X41.01873 Y16.50662
G01 X40.96994 Y16.54614
G01 X40.87499 Y16.61107
G01 X40.77128 Y16.66083
G01 X40.71266 Y16.68333
G01 X40.60088 Y16.71046
G01 X40.53885 Y16.72026
G01 X40.47614 Y16.72356
G01 X39.62389 Y16.72356
G01 X39.56118 Y16.72026
G01 X39.49915 Y16.71046
G01 X39.38737 Y16.68333
G01 X39.28099 Y16.63957
G01 X39.22503 Y16.61107
G01 X39.13009 Y16.54614
G01 X39.08130 Y16.50662
G01 X39.03690 Y16.46222
G01 X38.96240 Y16.37457
G01 X38.92818 Y16.32191
G01 X38.87355 Y16.22069
G01 X38.83489 Y16.11236
G01 X38.81863 Y16.05171
G01 X38.80883 Y15.98968
G01 X38.80007 Y15.87500
G01 X38.80007 Y14.62499
G01 X38.80883 Y14.51031
G01 X38.81863 Y14.44828
G01 X38.83489 Y14.38763
G01 X38.87355 Y14.27930
G01 X38.92818 Y14.17808
G01 X38.96240 Y14.12540
G01 X39.03690 Y14.03777
G01 X39.08130 Y13.99337
G01 X39.13009 Y13.95385
G01 X39.22503 Y13.88892
G01 X39.28099 Y13.86040
G01 X39.38737 Y13.81663
G01 X39.49915 Y13.78953
G01 X39.59247 Y13.77724
G01 X39.65000 Y13.77505
G01 X40.48142 Y13.77587
G01 X40.60088 Y13.78953
G01 X40.71266 Y13.81663
G01 X40.81904 Y13.86040
G01 X40.87499 Y13.88892
G01 X40.92765 Y13.92311
G01 X41.01873 Y13.99337
G01 X41.09811 Y14.07660
G01 X41.13763 Y14.12540
G01 X41.17184 Y14.17808
G01 X41.22648 Y14.27930
G01 X41.24898 Y14.33792
G01 X41.27918 Y14.44003
G01 X41.26064 Y14.46675
G01 X41.27918 Y14.44003
G01 X42.66498 Y14.44003
G01 X42.69117 Y14.47282
G01 X42.66498 Y14.44003
G01 X42.67161 Y14.37295
G01 X42.70575 Y14.26040
G01 X42.76117 Y14.15669
G01 X42.81184 Y14.09494
G01 X45.30818 Y14.09494
G01 X45.35885 Y14.15669
G01 X45.41430 Y14.26040
G01 X45.44841 Y14.37295
G01 X45.45997 Y14.48999
G01 X45.45997 Y16.08999
G01 X45.44841 Y16.20703
G01 X45.41430 Y16.31958
G01 X45.35885 Y16.42328
G01 X45.30821 Y16.48498
G01 X45.07095 Y16.48498
G01 X45.10999 Y16.46413
G01 X45.17818 Y16.40815
G01 X45.23414 Y16.33997
G01 X45.27572 Y16.26217
G01 X45.30132 Y16.17777
G01 X45.30998 Y16.08999
G01 X45.30998 Y14.48999
G01 X45.30132 Y14.40221
G01 X45.27572 Y14.31780
G01 X45.23414 Y14.24000
G01 X45.17818 Y14.17183
G01 X45.10999 Y14.11585
G01 X45.07097 Y14.09497
G01 X43.04916 Y14.09494
G01 X43.01004 Y14.11585
G01 X42.94184 Y14.17183
G01 X42.88588 Y14.24000
G01 X42.84431 Y14.31780
G01 X42.81870 Y14.40221
G01 X42.81004 Y14.48999
G01 X42.81004 Y14.59001
G01 X42.84969 Y14.63154
G01 X42.81004 Y14.59001
G01 X41.14814 Y14.59001
G01 X41.12048 Y14.62387
G01 X41.14814 Y14.59001
G01 X41.13468 Y14.47945
G01 X41.12249 Y14.43396
G01 X41.08947 Y14.34028
G01 X41.06808 Y14.29832
G01 X41.01629 Y14.21356
G01 X40.98665 Y14.17696
G01 X40.91838 Y14.10482
G01 X40.79999 Y14.01879
G01 X40.66631 Y13.95928
G01 X40.56968 Y13.93622
G01 X40.49968 Y13.92702
G01 X39.65000 Y13.92502
G01 X39.60032 Y13.92702
G01 X39.47921 Y13.94709
G01 X39.43372 Y13.95928
G01 X39.34200 Y13.99743
G01 X39.30004 Y14.01879
G01 X39.21825 Y14.07518
G01 X39.18165 Y14.10482
G01 X39.11338 Y14.17696
G01 X39.08373 Y14.21356
G01 X39.03194 Y14.29832
G01 X38.99369 Y14.38425
G01 X38.96534 Y14.47945
G01 X38.95005 Y14.62499
G01 X38.95005 Y15.87500
G01 X38.95798 Y15.97401
G01 X38.97754 Y16.06601
G01 X39.01056 Y16.15968
G01 X39.08373 Y16.28640
G01 X39.18165 Y16.39517
G01 X39.30004 Y16.48117
G01 X39.43372 Y16.54068
G01 X39.57685 Y16.57111
G01 X40.52318 Y16.57111
G01 X40.66631 Y16.54068
G01 X40.75803 Y16.50256
G01 X40.79999 Y16.48117
G01 X40.88177 Y16.42481
G01 X40.95167 Y16.36187
G01 X41.01629 Y16.28640
G01 X41.08947 Y16.15968
G01 X41.12249 Y16.06601
G01 X41.13953 Y15.98993
G01 X41.11721 Y15.96006
G01 X41.13953 Y15.98993
G01 X42.81004 Y15.98993
G01 X42.84972 Y15.94841
G01 X42.81004 Y15.98993
G01 X42.81004 Y16.08999
G01 X42.81870 Y16.17777
G01 X42.84431 Y16.26217
G01 X42.88588 Y16.33997
G01 X42.94184 Y16.40815
G01 X43.01004 Y16.46413
G01 X43.04908 Y16.48498
G04 P0 ( dwell for no time -- G64 should not smooth over this point )
G00 Z5.00000 ( retract )

G00 X32.51504 Y23.23912 ( rapid move to begin. )
G01 F200.00000
( Mill infeed pass 1/1 )
G01 Z-0.15000
G04 P0 ( dwell for no time -- G64 should not smooth over this point )
G01 F200.00000
G01 X32.51504 Y23.23912
G01 X32.49414 Y23.20000
G01 X32.43818 Y23.13181
G01 X32.37001 Y23.07585
G01 X32.29221 Y23.03427
G01 X32.20780 Y23.00867
G01 X32.12002 Y23.00003
G01 X32.01999 Y23.00003
G01 X31.97846 Y23.03968
G01 X32.01999 Y23.00003
G01 X32.01999 Y16.54790
G01 X32.00859 Y16.54317
G01 X32.01999 Y16.54790
G01 X32.61796 Y15.94993
G01 X32.61324 Y15.93853
G01 X32.61796 Y15.94993
G01 X35.85544 Y15.94993
G01 X35.87952 Y15.91871
G01 X35.85544 Y15.94993
G01 X35.85798 Y15.97401
G01 X35.87754 Y16.06601
G01 X35.91056 Y16.15968
G01 X35.98374 Y16.28640
G01 X36.08166 Y16.39517
G01 X36.20002 Y16.48117
G01 X36.33370 Y16.54068
G01 X36.43032 Y16.56375
G01 X36.50032 Y16.57297
G01 X36.55077 Y16.57495
G01 X37.37688 Y16.57358
G01 X37.46969 Y16.56375
G01 X37.56631 Y16.54068
G01 X37.69999 Y16.48117
G01 X37.78178 Y16.42481
G01 X37.85168 Y16.36187
G01 X37.91630 Y16.28640
G01 X37.96806 Y16.20164
G01 X38.00634 Y16.11572
G01 X38.03469 Y16.02052
G01 X38.04998 Y15.87500
G01 X38.04998 Y14.62499
G01 X38.03469 Y14.47945
G01 X37.98945 Y14.34028
G01 X37.94195 Y14.25306
G01 X37.88666 Y14.17696
G01 X37.81838 Y14.10482
G01 X37.73949 Y14.04445
G01 X37.65803 Y13.99743
G01 X37.56631 Y13.95928
G01 X37.46969 Y13.93622
G01 X37.37688 Y13.92639
G01 X36.55077 Y13.92502
G01 X36.50032 Y13.92702
G01 X36.43032 Y13.93622
G01 X36.33370 Y13.95928
G01 X36.24201 Y13.99743
G01 X36.16052 Y14.04445
G01 X36.08166 Y14.10482
G01 X35.98374 Y14.21356
G01 X35.91056 Y14.34028
G01 X35.87754 Y14.43396
G01 X35.86535 Y14.47945
G01 X35.85544 Y14.55001
G01 X35.88140 Y14.58262
G01 X35.85544 Y14.55001
G01 X34.01788 Y14.55001
G01 X33.79436 Y14.64259
G01 X34.01788 Y14.55001
G01 X35.11796 Y13.44991
G01 X35.11323 Y13.43850
G01 X35.11796 Y13.44991
G01 X42.81004 Y13.44991
G01 X42.84972 Y13.40838
G01 X42.81004 Y13.44991
G01 X42.81004 Y13.54999
G01 X42.81870 Y13.63777
G01 X42.84431 Y13.72217
G01 X42.88588 Y13.79997
G01 X42.94184 Y13.86815
G01 X43.01004 Y13.92413
G01 X43.04903 Y13.94496
G01 X45.07100 Y13.94496
G01 X45.10999 Y13.92413
G01 X45.17818 Y13.86815
G01 X45.23414 Y13.79997
G01 X45.27572 Y13.72217
G01 X45.30132 Y13.63777
G01 X45.30998 Y13.54999
G01 X45.30998 Y11.94999
G01 X45.30132 Y11.86221
G01 X45.27572 Y11.77780
G01 X45.23414 Y11.70000
G01 X45.17818 Y11.63183
G01 X45.10999 Y11.57585
G01 X45.07097 Y11.55494
G01 X43.04916 Y11.55494
G01 X43.01004 Y11.57585
G01 X42.94184 Y11.63183
G01 X42.88588 Y11.70000
G01 X42.84431 Y11.77780
G01 X42.81870 Y11.86221
G01 X42.81004 Y11.94999
G01 X42.81004 Y12.04999
G01 X42.84969 Y12.09152
G01 X42.81004 Y12.04999
G01 X34.82801 Y12.04999
G01 X34.75362 Y12.05446
G01 X34.68387 Y12.06551
G01 X34.64572 Y12.07465
G01 X34.54234 Y12.11148
G01 X34.44597 Y12.16403
G01 X34.38885 Y12.20554
G01 X34.33307 Y12.25499
G01 X30.82508 Y15.76301
G01 X30.76434 Y15.83362
G01 X30.71535 Y15.90698
G01 X30.69223 Y15.95018
G01 X30.65848 Y16.03169
G01 X30.64425 Y16.07858
G01 X30.62703 Y16.16509
G01 X30.62007 Y16.25798
G01 X30.62007 Y23.00003
G01 X30.66160 Y23.03968
G01 X30.62007 Y23.00003
G01 X30.52002 Y23.00003
G01 X30.43224 Y23.00867
G01 X30.34781 Y23.03427
G01 X30.27004 Y23.07585
G01 X30.20184 Y23.13181
G01 X30.14588 Y23.20000
G01 X30.12503 Y23.23902
G01 X30.12503 Y25.26096
G01 X30.14588 Y25.29997
G01 X30.20184 Y25.36815
G01 X30.27004 Y25.42410
G01 X30.34781 Y25.46568
G01 X30.43224 Y25.49131
G01 X30.52002 Y25.49995
G01 X32.12002 Y25.49995
G01 X32.20780 Y25.49131
G01 X32.29221 Y25.46568
G01 X32.37001 Y25.42410
G01 X32.43818 Y25.36815
G01 X32.49414 Y25.29997
G01 X32.51504 Y25.26091
G01 X32.51504 Y23.00181
G01 X32.45332 Y22.95116
G01 X32.34961 Y22.89571
G01 X32.23706 Y22.86157
G01 X32.16998 Y22.85497
G01 X32.13719 Y22.88116
G01 X32.16998 Y22.85497
G01 X32.16998 Y16.61003
G01 X32.15855 Y16.60530
G01 X32.16998 Y16.61003
G01 X32.68009 Y16.09992
G01 X32.67536 Y16.08849
G01 X32.68009 Y16.09992
G01 X35.73157 Y16.09992
G01 X35.74765 Y16.07538
G01 X35.73157 Y16.09992
G01 X35.77355 Y16.22069
G01 X35.82819 Y16.32191
G01 X35.86240 Y16.37457
G01 X35.90193 Y16.42336
G01 X35.98130 Y16.50662
G01 X36.07239 Y16.57685
G01 X36.12504 Y16.61107
G01 X36.18100 Y16.63957
G01 X36.28737 Y16.68333
G01 X36.39916 Y16.71046
G01 X36.51861 Y16.72410
G01 X37.37713 Y16.72356
G01 X37.43934 Y16.72021
G01 X37.55201 Y16.69959
G01 X37.61267 Y16.68333
G01 X37.67129 Y16.66083
G01 X37.77497 Y16.61107
G01 X37.86994 Y16.54614
G01 X37.91874 Y16.50662
G01 X37.96314 Y16.46222
G01 X38.03763 Y16.37457
G01 X38.09796 Y16.27665
G01 X38.12648 Y16.22069
G01 X38.14899 Y16.16207
G01 X38.18137 Y16.05171
G01 X38.19120 Y15.98968
G01 X38.19994 Y15.87500
G01 X38.19994 Y14.62499
G01 X38.19666 Y14.56228
G01 X38.18137 Y14.44828
G01 X38.14899 Y14.33792
G01 X38.12648 Y14.27930
G01 X38.07182 Y14.17808
G01 X38.03763 Y14.12540
G01 X37.99811 Y14.07660
G01 X37.91874 Y13.99337
G01 X37.82765 Y13.92311
G01 X37.77497 Y13.88892
G01 X37.67129 Y13.83914
G01 X37.61267 Y13.81663
G01 X37.55201 Y13.80040
G01 X37.43934 Y13.77975
G01 X37.37713 Y13.77643
G01 X36.55100 Y13.77505
G01 X36.49248 Y13.77724
G01 X36.39916 Y13.78953
G01 X36.28737 Y13.81663
G01 X36.18100 Y13.86040
G01 X36.12504 Y13.88892
G01 X36.07239 Y13.92311
G01 X35.98130 Y13.99337
G01 X35.93688 Y14.03777
G01 X35.86240 Y14.12540
G01 X35.80205 Y14.22334
G01 X35.77355 Y14.27930
G01 X35.73490 Y14.38763
G01 X35.73157 Y14.40002
G01 X35.74765 Y14.42456
G01 X35.73157 Y14.40002
G01 X34.37996 Y14.40002
G01 X34.15644 Y14.49261
G01 X34.37996 Y14.40002
G01 X35.18008 Y13.59990
G01 X35.17536 Y13.58847
G01 X35.18008 Y13.59990
G01 X42.66498 Y13.59990
G01 X42.69117 Y13.56711
G01 X42.66498 Y13.59990
G01 X42.67161 Y13.66703
G01 X42.70575 Y13.77958
G01 X42.76117 Y13.88328
G01 X42.81179 Y13.94496
G01 X45.07097 Y13.94496
G01 X45.07097 Y14.09494
G01 X45.07097 Y13.94496
G01 X45.30823 Y13.94498
G01 X45.35885 Y13.88328
G01 X45.41430 Y13.77958
G01 X45.44841 Y13.66703
G01 X45.45997 Y13.54999
G01 X45.45997 Y11.94999
G01 X45.44841 Y11.83295
G01 X45.41430 Y11.72040
G01 X45.35885 Y11.61669
G01 X45.30818 Y11.55497
G01 X45.07097 Y11.55494
G01 X45.07097 Y11.40498
G01 X45.07097 Y11.55494
G01 X42.81184 Y11.55494
G01 X42.76117 Y11.61669
G01 X42.70575 Y11.72040
G01 X42.67161 Y11.83295
G01 X42.66501 Y11.90000
G01 X42.69117 Y11.93279
G01 X42.66501 Y11.90000
G01 X34.82801 Y11.90000
G01 X34.74186 Y11.90493
G01 X34.64887 Y11.91966
G01 X34.52118 Y11.95791
G01 X34.39045 Y12.02215
G01 X34.27239 Y12.12405
G01 X30.72922 Y15.66583
G01 X30.65464 Y15.74582
G01 X30.58306 Y15.83626
G01 X30.55995 Y15.87950
G01 X30.51497 Y15.98816
G01 X30.50072 Y16.03505
G01 X30.47778 Y16.15039
G01 X30.47009 Y16.25798
G01 X30.47009 Y22.85497
G01 X30.50288 Y22.88113
G01 X30.47009 Y22.85497
G01 X30.40298 Y22.86157
G01 X30.29043 Y22.89571
G01 X30.18670 Y22.95116
G01 X30.12503 Y23.00176
G01 X30.12503 Y25.49817
G01 X30.18670 Y25.54882
G01 X30.29043 Y25.60427
G01 X30.40298 Y25.63838
G01 X30.52002 Y25.64994
G01 X32.12002 Y25.64994
G01 X32.23706 Y25.63838
G01 X32.34961 Y25.60427
G01 X32.45332 Y25.54882
G01 X32.51504 Y25.49817
G01 X32.51504 Y25.26091
G01 X32.66503 Y25.26088
G01 X32.66503 Y25.49817
G01 X32.72670 Y25.54882
G01 X32.83043 Y25.60427
G01 X32.94298 Y25.63838
G01 X33.06002 Y25.64994
G01 X34.66002 Y25.64994
G01 X34.77706 Y25.63838
G01 X34.88961 Y25.60427
G01 X34.99332 Y25.54882
G01 X35.05504 Y25.49817
G01 X35.05504 Y23.00181
G01 X34.99332 Y22.95116
G01 X34.88961 Y22.89571
G01 X34.77706 Y22.86157
G01 X34.66002 Y22.85004
G01 X33.06002 Y22.85004
G01 X32.94298 Y22.86157
G01 X32.83043 Y22.89571
G01 X32.72670 Y22.95116
G01 X32.66503 Y23.00178
G01 X32.66503 Y25.26093
G01 X32.68588 Y25.29997
G01 X32.74184 Y25.36815
G01 X32.81004 Y25.42410
G01 X32.88781 Y25.46568
G01 X32.97224 Y25.49131
G01 X33.06002 Y25.49995
G01 X34.66002 Y25.49995
G01 X34.74780 Y25.49131
G01 X34.83221 Y25.46568
G01 X34.91001 Y25.42410
G01 X34.97818 Y25.36815
G01 X35.03414 Y25.29997
G01 X35.05504 Y25.26086
G01 X35.20503 Y25.26086
G01 X35.20503 Y25.49817
G01 X35.26670 Y25.54882
G01 X35.37043 Y25.60427
G01 X35.48298 Y25.63838
G01 X35.60002 Y25.64994
G01 X37.20002 Y25.64994
G01 X37.31706 Y25.63838
G01 X37.42961 Y25.60427
G01 X37.53332 Y25.54882
G01 X37.59504 Y25.49817
G01 X37.59504 Y23.00181
G01 X37.53332 Y22.95116
G01 X37.42961 Y22.89571
G01 X37.31706 Y22.86157
G01 X37.20002 Y22.85004
G01 X35.60002 Y22.85004
G01 X35.48298 Y22.86157
G01 X35.37043 Y22.89571
G01 X35.26670 Y22.95116
G01 X35.20503 Y23.00178
G01 X35.20503 Y25.26093
G01 X35.22588 Y25.29997
G01 X35.28184 Y25.36815
G01 X35.35004 Y25.42410
G01 X35.42781 Y25.46568
G01 X35.51224 Y25.49131
G01 X35.60002 Y25.49995
G01 X37.20002 Y25.49995
G01 X37.28780 Y25.49131
G01 X37.37221 Y25.46568
G01 X37.45001 Y25.42410
G01 X37.51818 Y25.36815
G01 X37.57414 Y25.29997
G01 X37.59504 Y25.26086
G01 X37.74503 Y25.26086
G01 X37.74503 Y25.49817
G01 X37.80670 Y25.54882
G01 X37.91043 Y25.60427
G01 X38.02298 Y25.63838
G01 X38.14002 Y25.64994
G01 X39.74002 Y25.64994
G01 X39.85706 Y25.63838
G01 X39.96961 Y25.60427
G01 X40.07332 Y25.54882
G01 X40.13504 Y25.49817
G01 X40.13504 Y23.00181
G01 X40.07332 Y22.95116
G01 X39.96961 Y22.89571
G01 X39.85706 Y22.86157
G01 X39.74002 Y22.85004
G01 X38.14002 Y22.85004
G01 X38.02298 Y22.86157
G01 X37.91043 Y22.89571
G01 X37.80670 Y22.95116
G01 X37.74503 Y23.00178
G01 X37.74503 Y25.26093
G01 X37.76588 Y25.29997
G01 X37.82184 Y25.36815
G01 X37.89004 Y25.42410
G01 X37.96781 Y25.46568
G01 X38.05224 Y25.49131
G01 X38.14002 Y25.49995
G01 X39.74002 Y25.49995
G01 X39.82780 Y25.49131
G01 X39.91221 Y25.46568
G01 X39.99001 Y25.42410
G01 X40.05818 Y25.36815
G01 X40.11414 Y25.29997
G01 X40.13504 Y25.26086
G01 X40.28503 Y25.26086
G01 X40.28503 Y25.49817
G01 X40.34670 Y25.54882
G01 X40.45043 Y25.60427
G01 X40.56298 Y25.63838
G01 X40.68002 Y25.64994
G01 X42.28002 Y25.64994
G01 X42.39706 Y25.63838
G01 X42.50961 Y25.60427
G01 X42.61332 Y25.54882
G01 X42.67504 Y25.49817
G01 X42.67504 Y23.00181
G01 X42.61332 Y22.95116
G01 X42.50961 Y22.89571
G01 X42.39706 Y22.86157
G01 X42.28002 Y22.85004
G01 X40.68002 Y22.85004
G01 X40.56298 Y22.86157
G01 X40.45043 Y22.89571
G01 X40.34670 Y22.95116
G01 X40.28503 Y23.00178
G01 X40.28503 Y25.26093
G01 X40.30588 Y25.29997
G01 X40.36184 Y25.36815
G01 X40.43004 Y25.42410
G01 X40.50781 Y25.46568
G01 X40.59224 Y25.49131
G01 X40.68002 Y25.49995
G01 X42.28002 Y25.49995
G01 X42.36780 Y25.49131
G01 X42.45221 Y25.46568
G01 X42.53001 Y25.42410
G01 X42.59818 Y25.36815
G01 X42.65414 Y25.29997
G01 X42.67504 Y25.26086
G01 X42.82503 Y25.26086
G01 X42.82503 Y25.49817
G01 X42.88670 Y25.54882
G01 X42.99043 Y25.60427
G01 X43.10298 Y25.63838
G01 X43.22002 Y25.64994
G01 X44.82002 Y25.64994
G01 X44.93706 Y25.63838
G01 X45.04961 Y25.60427
G01 X45.15332 Y25.54882
G01 X45.21504 Y25.49817
G01 X45.21504 Y23.00181
G01 X45.15332 Y22.95116
G01 X45.04961 Y22.89571
G01 X44.93706 Y22.86157
G01 X44.82002 Y22.85004
G01 X43.22002 Y22.85004
G01 X43.10298 Y22.86157
G01 X42.99043 Y22.89571
G01 X42.88670 Y22.95116
G01 X42.82503 Y23.00178
G01 X42.82503 Y25.26093
G01 X42.84588 Y25.29997
G01 X42.90184 Y25.36815
G01 X42.97004 Y25.42410
G01 X43.04781 Y25.46568
G01 X43.13224 Y25.49131
G01 X43.22002 Y25.49995
G01 X44.82002 Y25.49995
G01 X44.90780 Y25.49131
G01 X44.99221 Y25.46568
G01 X45.07001 Y25.42410
G01 X45.13818 Y25.36815
G01 X45.19414 Y25.29997
G01 X45.21504 Y25.26086
G01 X45.36503 Y25.26086
G01 X45.36503 Y25.49817
G01 X45.42672 Y25.54882
G01 X45.53043 Y25.60427
G01 X45.64298 Y25.63838
G01 X45.76005 Y25.64994
G01 X47.36002 Y25.64994
G01 X47.47706 Y25.63838
G01 X47.58961 Y25.60427
G01 X47.69332 Y25.54882
G01 X47.75504 Y25.49817
G01 X47.75504 Y23.00181
G01 X47.69332 Y22.95116
G01 X47.58961 Y22.89571
G01 X47.47706 Y22.86157
G01 X47.36002 Y22.85004
G01 X45.76005 Y22.85004
G01 X45.64298 Y22.86157
G01 X45.53043 Y22.89571
G01 X45.42672 Y22.95116
G01 X45.36503 Y23.00178
G01 X45.36503 Y25.26093
G01 X45.38588 Y25.29997
G01 X45.44184 Y25.36815
G01 X45.51004 Y25.42410
G01 X45.58784 Y25.46568
G01 X45.67224 Y25.49131
G01 X45.76005 Y25.49995
G01 X47.36002 Y25.49995
G01 X47.44780 Y25.49131
G01 X47.53221 Y25.46568
G01 X47.61001 Y25.42410
G01 X47.67818 Y25.36815
G01 X47.73414 Y25.29997
G01 X47.75504 Y25.26086
G01 X47.90503 Y25.26086
G01 X47.90503 Y25.49817
G01 X47.96670 Y25.54882
G01 X48.07043 Y25.60427
G01 X48.18298 Y25.63838
G01 X48.30002 Y25.64994
G01 X49.90002 Y25.64994
G01 X50.01706 Y25.63838
G01 X50.12961 Y25.60427
G01 X50.23332 Y25.54882
G01 X50.29504 Y25.49817
G01 X50.29504 Y23.00181
G01 X50.23332 Y22.95116
G01 X50.12961 Y22.89571
G01 X50.01706 Y22.86157
G01 X49.90002 Y22.85004
G01 X48.30002 Y22.85004
G01 X48.18298 Y22.86157
G01 X48.07043 Y22.89571
G01 X47.96670 Y22.95116
G01 X47.90503 Y23.00178
G01 X47.90503 Y25.26093
G01 X47.92588 Y25.29997
G01 X47.98184 Y25.36815
G01 X48.05004 Y25.42410
G01 X48.12781 Y25.46568
G01 X48.21224 Y25.49131
G01 X48.30002 Y25.49995
G01 X49.90002 Y25.49995
G01 X49.98780 Y25.49131
G01 X50.07221 Y25.46568
G01 X50.15001 Y25.42410
G01 X50.21818 Y25.36815
G01 X50.27414 Y25.29997
G01 X50.29504 Y25.26086
G01 X50.44503 Y25.26086
G01 X50.44503 Y25.49817
G01 X50.50670 Y25.54882
G01 X50.61043 Y25.60427
G01 X50.72298 Y25.63838
G01 X50.84002 Y25.64994
G01 X52.44002 Y25.64994
G01 X52.55706 Y25.63838
G01 X52.66961 Y25.60427
G01 X52.77332 Y25.54882
G01 X52.83504 Y25.49817
G01 X52.83504 Y23.00181
G01 X52.77332 Y22.95116
G01 X52.66961 Y22.89571
G01 X52.55706 Y22.86157
G01 X52.44002 Y22.85004
G01 X50.84002 Y22.85004
G01 X50.72298 Y22.86157
G01 X50.61043 Y22.89571
G01 X50.50670 Y22.95116
G01 X50.44503 Y23.00178
G01 X50.44503 Y25.26093
G01 X50.46588 Y25.29997
G01 X50.52184 Y25.36815
G01 X50.59004 Y25.42410
G01 X50.66781 Y25.46568
G01 X50.75224 Y25.49131
G01 X50.84002 Y25.49995
G01 X52.44002 Y25.49995
G01 X52.52780 Y25.49131
G01 X52.61221 Y25.46568
G01 X52.69001 Y25.42410
G01 X52.75818 Y25.36815
G01 X52.81414 Y25.29997
G01 X52.83504 Y25.26086
G01 X52.98503 Y25.26086
G01 X52.98503 Y25.49817
G01 X53.04670 Y25.54882
G01 X53.15043 Y25.60427
G01 X53.26298 Y25.63838
G01 X53.38002 Y25.64994
G01 X54.98002 Y25.64994
G01 X55.09706 Y25.63838
G01 X55.20961 Y25.60427
G01 X55.31332 Y25.54882
G01 X55.37504 Y25.49817
G01 X55.37504 Y23.00181
G01 X55.31332 Y22.95116
G01 X55.20961 Y22.89571
G01 X55.09706 Y22.86157
G01 X54.98002 Y22.85004
G01 X53.38002 Y22.85004
G01 X53.26298 Y22.86157
G01 X53.15043 Y22.89571
G01 X53.04670 Y22.95116
G01 X52.98503 Y23.00178
G01 X52.98503 Y25.26093
G01 X53.00588 Y25.29997
G01 X53.06184 Y25.36815
G01 X53.13004 Y25.42410
G01 X53.20781 Y25.46568
G01 X53.29224 Y25.49131
G01 X53.38002 Y25.49995
G01 X54.98002 Y25.49995
G01 X55.06780 Y25.49131
G01 X55.15221 Y25.46568
G01 X55.23001 Y25.42410
G01 X55.29818 Y25.36815
G01 X55.35414 Y25.29997
G01 X55.37504 Y25.26086
G01 X55.52503 Y25.26086
G01 X55.54588 Y25.29997
G01 X55.60184 Y25.36815
G01 X55.67004 Y25.42410
G01 X55.74781 Y25.46568
G01 X55.83224 Y25.49131
G01 X55.92002 Y25.49995
G01 X57.52002 Y25.49995
G01 X57.60780 Y25.49131
G01 X57.69221 Y25.46568
G01 X57.77001 Y25.42410
G01 X57.83818 Y25.36815
G01 X57.89414 Y25.29997
G01 X57.91504 Y25.26086
G01 X57.73318 Y25.26086
G01 X57.76945 Y25.21664
G01 X57.79716 Y25.16480
G01 X57.81423 Y25.10851
G01 X57.81999 Y25.04999
G01 X57.81999 Y23.44999
G01 X57.81423 Y23.39147
G01 X57.79716 Y23.33518
G01 X57.76945 Y23.28332
G01 X57.73213 Y23.23788
G01 X57.68667 Y23.20056
G01 X57.63480 Y23.17285
G01 X57.57854 Y23.15578
G01 X57.52002 Y23.15002
G01 X55.92002 Y23.15002
G01 X55.86150 Y23.15578
G01 X55.80521 Y23.17285
G01 X55.75335 Y23.20056
G01 X55.70791 Y23.23788
G01 X55.67059 Y23.28332
G01 X55.64286 Y23.33518
G01 X55.62579 Y23.39147
G01 X55.62002 Y23.44999
G01 X55.62002 Y25.04999
G01 X55.62579 Y25.10851
G01 X55.64286 Y25.16480
G01 X55.67059 Y25.21664
G01 X55.70791 Y25.26210
G01 X55.75335 Y25.29942
G01 X55.80521 Y25.32713
G01 X55.86150 Y25.34420
G01 X55.92002 Y25.34996
G01 X57.52002 Y25.34996
G01 X57.57854 Y25.34420
G01 X57.63480 Y25.32713
G01 X57.68667 Y25.29942
G01 X57.73213 Y25.26210
G01 X57.76945 Y25.21664
G01 X57.79716 Y25.16480
G01 X57.81423 Y25.10851
G01 X57.81999 Y25.04999
G01 X57.81999 Y23.44999
G01 X57.67001 Y23.44999
G01 X57.66714 Y23.42073
G01 X57.65860 Y23.39259
G01 X57.64473 Y23.36665
G01 X57.62609 Y23.34392
G01 X57.60336 Y23.32528
G01 X57.57742 Y23.31141
G01 X57.54928 Y23.30287
G01 X57.52002 Y23.29998
G01 X55.92002 Y23.29998
G01 X55.89076 Y23.30287
G01 X55.86262 Y23.31141
G01 X55.83668 Y23.32528
G01 X55.81395 Y23.34392
G01 X55.79528 Y23.36665
G01 X55.78144 Y23.39259
G01 X55.77291 Y23.42073
G01 X55.77001 Y23.44999
G01 X55.77001 Y25.04999
G01 X55.77291 Y25.07925
G01 X55.78144 Y25.10739
G01 X55.79528 Y25.13333
G01 X55.81395 Y25.15606
G01 X55.83668 Y25.17470
G01 X55.86262 Y25.18857
G01 X55.89076 Y25.19710
G01 X55.92002 Y25.19997
G01 X57.52002 Y25.19997
G01 X57.54928 Y25.19710
G01 X57.57742 Y25.18857
G01 X57.60336 Y25.17470
G01 X57.62609 Y25.15606
G01 X57.64473 Y25.13333
G01 X57.65860 Y25.10739
G01 X57.66714 Y25.07925
G01 X57.67001 Y25.04999
G01 X57.67001 Y23.44999
G01 X57.81999 Y23.44999
G01 X57.91504 Y23.23912
G01 X57.91504 Y23.00181
G01 X57.85332 Y22.95116
G01 X57.74961 Y22.89571
G01 X57.63706 Y22.86157
G01 X57.52002 Y22.85004
G01 X55.92002 Y22.85004
G01 X55.80298 Y22.86157
G01 X55.69043 Y22.89571
G01 X55.58670 Y22.95116
G01 X55.52503 Y23.00178
G01 X55.52503 Y25.49817
G01 X55.58670 Y25.54882
G01 X55.69043 Y25.60427
G01 X55.80298 Y25.63838
G01 X55.92002 Y25.64994
G01 X57.52002 Y25.64994
G01 X57.63706 Y25.63838
G01 X57.74961 Y25.60427
G01 X57.85332 Y25.54882
G01 X57.91504 Y25.49817
G01 X57.91504 Y23.23912
G01 X57.89414 Y23.20000
G01 X57.83818 Y23.13181
G01 X57.77001 Y23.07585
G01 X57.69221 Y23.03427
G01 X57.60780 Y23.00867
G01 X57.52002 Y23.00003
G01 X55.92002 Y23.00003
G01 X55.83224 Y23.00867
G01 X55.74781 Y23.03427
G01 X55.67004 Y23.07585
G01 X55.60184 Y23.13181
G01 X55.54588 Y23.20000
G01 X55.52503 Y23.23904
G04 P0 ( dwell for no time -- G64 should not smooth over this point )
G00 Z5.00000 ( retract )

G00 X58.06503 Y23.23904 ( rapid move to begin. )
G01 F200.00000
( Mill infeed pass 1/1 )
G01 Z-0.15000
G04 P0 ( dwell for no time -- G64 should not smooth over this point )
G01 F200.00000
G01 X58.06503 Y23.23904
G01 X58.08588 Y23.20000
G01 X58.14184 Y23.13181
G01 X58.21004 Y23.07585
G01 X58.28781 Y23.03427
G01 X58.37224 Y23.00867
G01 X58.46002 Y23.00003
G01 X58.56010 Y23.00003
G01 X58.60163 Y23.03968
G01 X58.56010 Y23.00003
G01 X58.56010 Y18.91891
G01 X58.57153 Y18.91419
G01 X58.56010 Y18.91891
G01 X58.17110 Y18.52993
G01 X58.17582 Y18.51853
G01 X58.17110 Y18.52993
G01 X45.30998 Y18.52993
G01 X45.27031 Y18.48841
G01 X45.30998 Y18.52993
G01 X45.30998 Y18.62999
G01 X45.30132 Y18.71777
G01 X45.27572 Y18.80217
G01 X45.23414 Y18.87997
G01 X45.17818 Y18.94815
G01 X45.10999 Y19.00413
G01 X45.03221 Y19.04571
G01 X44.94781 Y19.07131
G01 X44.86002 Y19.07995
G01 X43.26000 Y19.07995
G01 X43.17222 Y19.07131
G01 X43.08781 Y19.04571
G01 X43.01004 Y19.00413
G01 X42.94184 Y18.94815
G01 X42.88588 Y18.87997
G01 X42.84431 Y18.80217
G01 X42.81870 Y18.71777
G01 X42.81004 Y18.62999
G01 X42.81004 Y17.02999
G01 X42.81870 Y16.94221
G01 X42.84431 Y16.85780
G01 X42.88588 Y16.78000
G01 X42.94184 Y16.71183
G01 X43.01004 Y16.65585
G01 X43.04913 Y16.63497
G01 X45.30821 Y16.63497
G01 X45.35885 Y16.69669
G01 X45.41430 Y16.80040
G01 X45.44841 Y16.91295
G01 X45.45504 Y16.98003
G01 X45.42886 Y17.01282
G01 X45.45504 Y16.98003
G01 X58.46101 Y16.98003
G01 X58.56861 Y16.98772
G01 X58.68395 Y17.01066
G01 X58.73084 Y17.02488
G01 X58.83950 Y17.06989
G01 X58.88273 Y17.09301
G01 X58.98052 Y17.15834
G01 X59.06200 Y17.22897
G01 X59.89301 Y18.06257
G01 X59.97384 Y18.16857
G01 X60.03708 Y18.28589
G01 X60.05209 Y18.32214
G01 X60.09035 Y18.44982
G01 X60.10508 Y18.54281
G01 X60.11001 Y18.62899
G01 X60.11001 Y22.85497
G01 X60.07721 Y22.88116
G01 X60.11001 Y22.85497
G01 X60.17706 Y22.86157
G01 X60.28961 Y22.89571
G01 X60.39332 Y22.95116
G01 X60.48422 Y23.02576
G01 X60.53002 Y23.08154
G01 X60.53002 Y23.13884
G01 X60.53002 Y23.08154
G01 X60.57579 Y23.02576
G01 X60.66670 Y22.95116
G01 X60.77043 Y22.89571
G01 X60.88298 Y22.86157
G01 X61.00002 Y22.85004
G01 X62.60002 Y22.85004
G01 X62.71706 Y22.86157
G01 X62.82961 Y22.89571
G01 X62.93332 Y22.95116
G01 X63.02422 Y23.02576
G01 X63.09885 Y23.11667
G01 X63.15430 Y23.22040
G01 X63.18844 Y23.33295
G01 X63.19994 Y23.44999
G01 X62.89999 Y23.44999
G01 X62.89999 Y25.04999
G01 X62.89423 Y25.10851
G01 X62.87716 Y25.16480
G01 X62.84945 Y25.21664
G01 X62.81213 Y25.26210
G01 X62.76667 Y25.29942
G01 X62.71480 Y25.32713
G01 X62.65854 Y25.34420
G01 X62.60002 Y25.34996
G01 X61.00002 Y25.34996
G01 X60.94150 Y25.34420
G01 X60.88521 Y25.32713
G01 X60.83335 Y25.29942
G01 X60.78791 Y25.26210
G01 X60.75059 Y25.21664
G01 X60.72286 Y25.16480
G01 X60.70579 Y25.10851
G01 X60.70002 Y25.04999
G01 X60.70002 Y24.79995
G01 X60.74396 Y24.75603
G01 X60.70002 Y24.79995
G01 X60.35999 Y24.79995
G01 X60.31608 Y24.75603
G01 X60.35999 Y24.79995
G01 X60.35999 Y25.04999
G01 X60.35423 Y25.10851
G01 X60.33716 Y25.16480
G01 X60.30945 Y25.21664
G01 X60.27213 Y25.26210
G01 X60.22667 Y25.29942
G01 X60.17480 Y25.32713
G01 X60.11854 Y25.34420
G01 X60.06002 Y25.34996
G01 X58.46002 Y25.34996
G01 X58.40150 Y25.34420
G01 X58.34521 Y25.32713
G01 X58.29335 Y25.29942
G01 X58.24791 Y25.26210
G01 X58.21059 Y25.21664
G01 X58.18286 Y25.16480
G01 X58.16579 Y25.10851
G01 X58.16002 Y25.04999
G01 X58.16002 Y23.44999
G01 X58.16579 Y23.39147
G01 X58.18286 Y23.33518
G01 X58.21059 Y23.28332
G01 X58.24791 Y23.23788
G01 X58.29335 Y23.20056
G01 X58.34521 Y23.17285
G01 X58.40150 Y23.15578
G01 X58.46002 Y23.15002
G01 X58.71008 Y23.15002
G01 X58.75403 Y23.19393
G01 X58.71008 Y23.15002
G01 X58.71008 Y18.85681
G01 X58.72149 Y18.85206
G01 X58.71008 Y18.85681
G01 X58.23323 Y18.37995
G01 X58.23795 Y18.36854
G01 X58.23323 Y18.37995
G01 X45.16000 Y18.37995
G01 X45.11606 Y18.33603
G01 X45.16000 Y18.37995
G01 X45.16000 Y18.62999
G01 X45.15423 Y18.68851
G01 X45.13716 Y18.74479
G01 X45.10943 Y18.79663
G01 X45.07214 Y18.84210
G01 X45.02667 Y18.87941
G01 X44.97481 Y18.90713
G01 X44.91855 Y18.92419
G01 X44.86002 Y18.92996
G01 X43.26000 Y18.92996
G01 X43.20148 Y18.92419
G01 X43.14522 Y18.90713
G01 X43.09335 Y18.87941
G01 X43.04789 Y18.84210
G01 X43.01060 Y18.79663
G01 X42.98286 Y18.74479
G01 X42.96579 Y18.68851
G01 X42.96003 Y18.62999
G01 X42.96003 Y17.02999
G01 X42.96579 Y16.97147
G01 X42.98286 Y16.91518
G01 X43.01060 Y16.86334
G01 X43.04789 Y16.81787
G01 X43.09335 Y16.78056
G01 X43.14522 Y16.75285
G01 X43.20148 Y16.73578
G01 X43.26000 Y16.73001
G01 X44.86002 Y16.73001
G01 X44.91855 Y16.73578
G01 X44.97481 Y16.75285
G01 X45.02667 Y16.78056
G01 X45.07214 Y16.81787
G01 X45.10943 Y16.86334
G01 X45.13716 Y16.91518
G01 X45.15423 Y16.97147
G01 X45.16000 Y17.02999
G01 X45.16000 Y17.28000
G01 X45.11783 Y17.32293
G01 X45.16000 Y17.28000
G01 X58.46101 Y17.28000
G01 X58.53919 Y17.28625
G01 X58.59688 Y17.29770
G01 X58.64377 Y17.31193
G01 X58.69812 Y17.33443
G01 X58.74133 Y17.35755
G01 X58.79022 Y17.39021
G01 X58.84994 Y17.44106
G01 X59.64895 Y18.24007
G01 X59.69042 Y18.28721
G01 X59.73858 Y18.35874
G01 X59.77495 Y18.43692
G01 X59.79868 Y18.51985
G01 X59.81003 Y18.62899
G01 X59.81003 Y23.15002
G01 X59.76711 Y23.19216
G01 X59.81003 Y23.15002
G01 X60.06002 Y23.15002
G01 X60.11854 Y23.15578
G01 X60.17480 Y23.17285
G01 X60.22667 Y23.20056
G01 X60.27213 Y23.23788
G01 X60.30945 Y23.28332
G01 X60.33716 Y23.33518
G01 X60.35423 Y23.39147
G01 X60.35999 Y23.44999
G01 X60.35999 Y23.70000
G01 X60.31785 Y23.74293
G01 X60.35999 Y23.70000
G01 X60.70002 Y23.70000
G01 X60.74396 Y23.74392
G01 X60.70002 Y23.70000
G01 X60.70002 Y23.44999
G01 X60.70579 Y23.39147
G01 X60.72286 Y23.33518
G01 X60.75059 Y23.28332
G01 X60.78791 Y23.23788
G01 X60.83335 Y23.20056
G01 X60.88521 Y23.17285
G01 X60.94150 Y23.15578
G01 X61.00002 Y23.15002
G01 X62.60002 Y23.15002
G01 X62.65854 Y23.15578
G01 X62.71480 Y23.17285
G01 X62.76667 Y23.20056
G01 X62.81213 Y23.23788
G01 X62.84945 Y23.28332
G01 X62.87716 Y23.33518
G01 X62.89423 Y23.39147
G01 X62.89999 Y23.44999
G01 X62.75001 Y23.44999
G01 X62.74714 Y23.42073
G01 X62.73860 Y23.39259
G01 X62.72473 Y23.36665
G01 X62.70609 Y23.34392
G01 X62.68336 Y23.32528
G01 X62.65742 Y23.31141
G01 X62.62928 Y23.30287
G01 X62.60002 Y23.29998
G01 X61.00002 Y23.29998
G01 X60.97076 Y23.30287
G01 X60.94262 Y23.31141
G01 X60.91668 Y23.32528
G01 X60.89395 Y23.34392
G01 X60.87528 Y23.36665
G01 X60.86144 Y23.39259
G01 X60.85291 Y23.42073
G01 X60.85001 Y23.44999
G01 X60.85001 Y23.84996
G01 X60.21001 Y23.84996
G01 X60.21001 Y23.44999
G01 X60.20714 Y23.42073
G01 X60.19860 Y23.39259
G01 X60.18473 Y23.36665
G01 X60.16609 Y23.34392
G01 X60.14336 Y23.32528
G01 X60.11742 Y23.31141
G01 X60.08928 Y23.30287
G01 X60.06002 Y23.29998
G01 X59.66007 Y23.29998
G01 X59.66007 Y18.62899
G01 X59.65283 Y18.55485
G01 X59.63640 Y18.49432
G01 X59.61069 Y18.43710
G01 X59.57638 Y18.38462
G01 X59.54290 Y18.34614
G01 X58.74387 Y17.54713
G01 X58.67061 Y17.48981
G01 X58.62741 Y17.46672
G01 X58.55334 Y17.44124
G01 X58.46101 Y17.42996
G01 X45.01001 Y17.42996
G01 X45.01001 Y17.02999
G01 X45.00714 Y17.00073
G01 X44.99861 Y16.97258
G01 X44.98474 Y16.94665
G01 X44.96607 Y16.92392
G01 X44.94334 Y16.90527
G01 X44.91743 Y16.89141
G01 X44.88928 Y16.88287
G01 X44.86002 Y16.87998
G01 X43.26000 Y16.87998
G01 X43.23074 Y16.88287
G01 X43.20260 Y16.89141
G01 X43.17669 Y16.90527
G01 X43.15396 Y16.92392
G01 X43.13529 Y16.94665
G01 X43.12142 Y16.97258
G01 X43.11288 Y17.00073
G01 X43.11001 Y17.02999
G01 X43.11001 Y18.62999
G01 X43.11288 Y18.65925
G01 X43.12142 Y18.68739
G01 X43.13529 Y18.71332
G01 X43.15396 Y18.73606
G01 X43.17669 Y18.75470
G01 X43.20260 Y18.76857
G01 X43.23074 Y18.77710
G01 X43.26000 Y18.78000
G01 X44.86002 Y18.78000
G01 X44.88928 Y18.77710
G01 X44.91743 Y18.76857
G01 X44.94334 Y18.75470
G01 X44.96607 Y18.73606
G01 X44.98474 Y18.71332
G01 X44.99861 Y18.68739
G01 X45.00714 Y18.65925
G01 X45.01001 Y18.62999
G01 X45.01001 Y18.22999
G01 X58.29535 Y18.22999
G01 X58.86005 Y18.79468
G01 X58.86005 Y23.29998
G01 X58.46002 Y23.29998
G01 X58.43076 Y23.30287
G01 X58.40262 Y23.31141
G01 X58.37668 Y23.32528
G01 X58.35395 Y23.34392
G01 X58.33528 Y23.36665
G01 X58.32144 Y23.39259
G01 X58.31291 Y23.42073
G01 X58.31001 Y23.44999
G01 X58.31001 Y25.04999
G01 X58.31291 Y25.07925
G01 X58.32144 Y25.10739
G01 X58.33528 Y25.13333
G01 X58.35395 Y25.15606
G01 X58.37668 Y25.17470
G01 X58.40262 Y25.18857
G01 X58.43076 Y25.19710
G01 X58.46002 Y25.19997
G01 X60.06002 Y25.19997
G01 X60.08928 Y25.19710
G01 X60.11742 Y25.18857
G01 X60.14336 Y25.17470
G01 X60.16609 Y25.15606
G01 X60.18473 Y25.13333
G01 X60.19860 Y25.10739
G01 X60.20714 Y25.07925
G01 X60.21001 Y25.04999
G01 X60.21001 Y24.64999
G01 X60.85001 Y24.64999
G01 X60.85001 Y25.04999
G01 X60.85291 Y25.07925
G01 X60.86144 Y25.10739
G01 X60.87528 Y25.13333
G01 X60.89395 Y25.15606
G01 X60.91668 Y25.17470
G01 X60.94262 Y25.18857
G01 X60.97076 Y25.19710
G01 X61.00002 Y25.19997
G01 X62.60002 Y25.19997
G01 X62.62928 Y25.19710
G01 X62.65742 Y25.18857
G01 X62.68336 Y25.17470
G01 X62.70609 Y25.15606
G01 X62.72473 Y25.13333
G01 X62.73860 Y25.10739
G01 X62.74714 Y25.07925
G01 X62.75001 Y25.04999
G01 X62.75001 Y23.44999
G01 X63.19994 Y23.44999
G01 X63.19994 Y25.04999
G01 X63.18844 Y25.16703
G01 X63.15430 Y25.27958
G01 X63.09885 Y25.38329
G01 X63.02422 Y25.47422
G01 X62.93332 Y25.54882
G01 X62.82961 Y25.60427
G01 X62.71706 Y25.63838
G01 X62.60002 Y25.64994
G01 X61.00002 Y25.64994
G01 X60.88298 Y25.63838
G01 X60.77043 Y25.60427
G01 X60.66670 Y25.54882
G01 X60.57579 Y25.47422
G01 X60.53002 Y25.41844
G01 X60.53002 Y25.36114
G01 X60.53002 Y25.41844
G01 X60.48422 Y25.47422
G01 X60.39332 Y25.54882
G01 X60.28961 Y25.60427
G01 X60.17706 Y25.63838
G01 X60.06002 Y25.64994
G01 X58.46002 Y25.64994
G01 X58.34298 Y25.63838
G01 X58.23043 Y25.60427
G01 X58.12670 Y25.54882
G01 X58.06503 Y25.49817
G01 X58.06503 Y23.00178
G01 X58.12670 Y22.95116
G01 X58.23043 Y22.89571
G01 X58.34298 Y22.86157
G01 X58.41011 Y22.85497
G01 X58.44290 Y22.88113
G01 X58.41011 Y22.85497
G01 X58.41011 Y18.98104
G01 X58.42154 Y18.97631
G01 X58.41011 Y18.98104
G01 X58.10897 Y18.67992
G01 X58.11369 Y18.66849
G01 X58.10897 Y18.67992
G01 X45.45504 Y18.67992
G01 X45.42886 Y18.64713
G01 X45.45504 Y18.67992
G01 X45.44841 Y18.74703
G01 X45.41430 Y18.85958
G01 X45.35885 Y18.96328
G01 X45.28423 Y19.05422
G01 X45.19332 Y19.12882
G01 X45.08959 Y19.18426
G01 X44.97707 Y19.21840
G01 X44.86002 Y19.22993
G01 X43.26000 Y19.22993
G01 X43.14296 Y19.21840
G01 X43.03044 Y19.18426
G01 X42.92670 Y19.12882
G01 X42.83580 Y19.05422
G01 X42.76117 Y18.96328
G01 X42.70575 Y18.85958
G01 X42.67161 Y18.74703
G01 X42.66008 Y18.62999
G01 X42.66008 Y17.02999
G01 X42.67161 Y16.91295
G01 X42.70575 Y16.80040
G01 X42.76117 Y16.69669
G01 X42.81182 Y16.63497
G01 X45.07089 Y16.63497
G01 X45.10999 Y16.65585
G01 X45.17818 Y16.71183
G01 X45.23414 Y16.78000
G01 X45.27572 Y16.85780
G01 X45.30132 Y16.94221
G01 X45.30998 Y17.02999
G01 X45.30998 Y17.13001
G01 X45.27034 Y17.17154
G01 X45.30998 Y17.13001
G01 X58.46101 Y17.13001
G01 X58.55390 Y17.13697
G01 X58.64041 Y17.15419
G01 X58.68730 Y17.16842
G01 X58.76884 Y17.20218
G01 X58.81202 Y17.22526
G01 X58.88537 Y17.27429
G01 X58.95596 Y17.33502
G01 X59.77897 Y18.15998
G01 X59.80447 Y18.18980
G01 X59.86647 Y18.28038
G01 X59.91354 Y18.37954
G01 X59.94450 Y18.48482
G01 X59.95555 Y18.55457
G01 X59.96002 Y18.62899
G01 X59.96002 Y23.00003
G01 X59.91849 Y23.03968
G01 X59.96002 Y23.00003
G01 X60.06002 Y23.00003
G01 X60.14780 Y23.00867
G01 X60.23221 Y23.03427
G01 X60.31001 Y23.07585
G01 X60.37818 Y23.13181
G01 X60.43414 Y23.20000
G01 X60.47572 Y23.27780
G01 X60.50132 Y23.36221
G01 X60.50998 Y23.44999
G01 X60.50998 Y23.55002
G01 X60.55006 Y23.55002
G01 X60.50998 Y23.55002
G01 X60.47033 Y23.59155
G01 X60.50998 Y23.55002
G01 X60.55006 Y23.55002
G01 X60.58971 Y23.59155
G01 X60.55006 Y23.55002
G01 X60.55006 Y23.44999
G01 X60.55870 Y23.36221
G01 X60.58430 Y23.27780
G01 X60.62588 Y23.20000
G01 X60.68184 Y23.13181
G01 X60.75004 Y23.07585
G01 X60.82781 Y23.03427
G01 X60.91224 Y23.00867
G01 X61.00002 Y23.00003
G01 X62.60002 Y23.00003
G01 X62.68780 Y23.00867
G01 X62.77221 Y23.03427
G01 X62.85001 Y23.07585
G01 X62.91818 Y23.13181
G01 X62.97414 Y23.20000
G01 X63.01572 Y23.27780
G01 X63.04132 Y23.36221
G01 X63.04998 Y23.44999
G01 X63.04998 Y25.04999
G01 X63.04132 Y25.13777
G01 X63.01572 Y25.22217
G01 X62.97414 Y25.29997
G01 X62.91818 Y25.36815
G01 X62.85001 Y25.42410
G01 X62.77221 Y25.46568
G01 X62.68780 Y25.49131
G01 X62.60002 Y25.49995
G01 X61.00002 Y25.49995
G01 X60.91224 Y25.49131
G01 X60.82781 Y25.46568
G01 X60.75004 Y25.42410
G01 X60.68184 Y25.36815
G01 X60.62588 Y25.29997
G01 X60.58430 Y25.22217
G01 X60.55870 Y25.13777
G01 X60.55006 Y25.04999
G01 X60.55006 Y24.94994
G01 X60.50998 Y24.94994
G01 X60.55006 Y24.94994
G01 X60.58971 Y24.90841
G01 X60.55006 Y24.94994
G01 X60.50998 Y24.94994
G01 X60.47033 Y24.90841
G01 X60.50998 Y24.94994
G01 X60.50998 Y25.04999
G01 X60.50132 Y25.13777
G01 X60.47572 Y25.22217
G01 X60.43414 Y25.29997
G01 X60.37818 Y25.36815
G01 X60.31001 Y25.42410
G01 X60.23221 Y25.46568
G01 X60.14780 Y25.49131
G01 X60.06002 Y25.49995
G01 X58.46002 Y25.49995
G01 X58.37224 Y25.49131
G01 X58.28781 Y25.46568
G01 X58.21004 Y25.42410
G01 X58.14184 Y25.36815
G01 X58.08588 Y25.29997
G01 X58.06503 Y25.26093
G01 X55.19318 Y25.26086
G01 X55.22945 Y25.21664
G01 X55.25716 Y25.16480
G01 X55.27423 Y25.10851
G01 X55.27999 Y25.04999
G01 X55.27999 Y23.44999
G01 X55.37504 Y23.23912
G01 X55.35414 Y23.20000
G01 X55.29818 Y23.13181
G01 X55.23001 Y23.07585
G01 X55.15221 Y23.03427
G01 X55.06780 Y23.00867
G01 X54.98002 Y23.00003
G01 X53.38002 Y23.00003
G01 X53.29224 Y23.00867
G01 X53.20781 Y23.03427
G01 X53.13004 Y23.07585
G01 X53.06184 Y23.13181
G01 X53.00588 Y23.20000
G01 X52.98503 Y23.23904
G01 X53.00588 Y23.20000
G01 X53.06184 Y23.13181
G01 X53.13004 Y23.07585
G01 X53.20781 Y23.03427
G01 X53.29224 Y23.00867
G01 X53.38002 Y23.00003
G01 X54.98002 Y23.00003
G01 X55.06780 Y23.00867
G01 X55.15221 Y23.03427
G01 X55.23001 Y23.07585
G01 X55.29818 Y23.13181
G01 X55.35414 Y23.20000
G01 X55.37504 Y23.23912
G01 X55.27999 Y23.44999
G01 X55.13001 Y23.44999
G01 X55.12714 Y23.42073
G01 X55.11860 Y23.39259
G01 X55.10473 Y23.36665
G01 X55.08609 Y23.34392
G01 X55.06336 Y23.32528
G01 X55.03742 Y23.31141
G01 X55.00928 Y23.30287
G01 X54.98002 Y23.29998
G01 X53.38002 Y23.29998
G01 X53.35076 Y23.30287
G01 X53.32262 Y23.31141
G01 X53.29668 Y23.32528
G01 X53.27395 Y23.34392
G01 X53.25528 Y23.36665
G01 X53.24144 Y23.39259
G01 X53.23291 Y23.42073
G01 X53.23001 Y23.44999
G01 X53.23001 Y25.04999
G01 X53.23291 Y25.07925
G01 X53.24144 Y25.10739
G01 X53.25528 Y25.13333
G01 X53.27395 Y25.15606
G01 X53.29668 Y25.17470
G01 X53.32262 Y25.18857
G01 X53.35076 Y25.19710
G01 X53.38002 Y25.19997
G01 X54.98002 Y25.19997
G01 X55.00928 Y25.19710
G01 X55.03742 Y25.18857
G01 X55.06336 Y25.17470
G01 X55.08609 Y25.15606
G01 X55.10473 Y25.13333
G01 X55.11860 Y25.10739
G01 X55.12714 Y25.07925
G01 X55.13001 Y25.04999
G01 X55.13001 Y23.44999
G01 X55.27999 Y23.44999
G01 X55.27423 Y23.39147
G01 X55.25716 Y23.33518
G01 X55.22945 Y23.28332
G01 X55.19213 Y23.23788
G01 X55.14667 Y23.20056
G01 X55.09480 Y23.17285
G01 X55.03854 Y23.15578
G01 X54.98002 Y23.15002
G01 X53.38002 Y23.15002
G01 X53.32150 Y23.15578
G01 X53.26521 Y23.17285
G01 X53.21335 Y23.20056
G01 X53.16791 Y23.23788
G01 X53.13059 Y23.28332
G01 X53.10286 Y23.33518
G01 X53.08579 Y23.39147
G01 X53.08002 Y23.44999
G01 X53.08002 Y25.04999
G01 X53.08579 Y25.10851
G01 X53.10286 Y25.16480
G01 X53.13059 Y25.21664
G01 X53.16791 Y25.26210
G01 X53.21335 Y25.29942
G01 X53.26521 Y25.32713
G01 X53.32150 Y25.34420
G01 X53.38002 Y25.34996
G01 X54.98002 Y25.34996
G01 X55.03854 Y25.34420
G01 X55.09480 Y25.32713
G01 X55.14667 Y25.29942
G01 X55.19318 Y25.26086
G01 X52.65318 Y25.26086
G01 X52.68945 Y25.21664
G01 X52.71716 Y25.16480
G01 X52.73423 Y25.10851
G01 X52.73999 Y25.04999
G01 X52.73999 Y23.44999
G01 X52.83504 Y23.23912
G01 X52.81414 Y23.20000
G01 X52.75818 Y23.13181
G01 X52.69001 Y23.07585
G01 X52.61221 Y23.03427
G01 X52.52780 Y23.00867
G01 X52.44002 Y23.00003
G01 X50.84002 Y23.00003
G01 X50.75224 Y23.00867
G01 X50.66781 Y23.03427
G01 X50.59004 Y23.07585
G01 X50.52184 Y23.13181
G01 X50.46588 Y23.20000
G01 X50.44503 Y23.23904
G01 X50.46588 Y23.20000
G01 X50.52184 Y23.13181
G01 X50.59004 Y23.07585
G01 X50.66781 Y23.03427
G01 X50.75224 Y23.00867
G01 X50.84002 Y23.00003
G01 X52.44002 Y23.00003
G01 X52.52780 Y23.00867
G01 X52.61221 Y23.03427
G01 X52.69001 Y23.07585
G01 X52.75818 Y23.13181
G01 X52.81414 Y23.20000
G01 X52.83504 Y23.23912
G01 X52.73999 Y23.44999
G01 X52.59001 Y23.44999
G01 X52.58714 Y23.42073
G01 X52.57860 Y23.39259
G01 X52.56473 Y23.36665
G01 X52.54609 Y23.34392
G01 X52.52336 Y23.32528
G01 X52.49742 Y23.31141
G01 X52.46928 Y23.30287
G01 X52.44002 Y23.29998
G01 X50.84002 Y23.29998
G01 X50.81076 Y23.30287
G01 X50.78262 Y23.31141
G01 X50.75668 Y23.32528
G01 X50.73395 Y23.34392
G01 X50.71528 Y23.36665
G01 X50.70144 Y23.39259
G01 X50.69291 Y23.42073
G01 X50.69001 Y23.44999
G01 X50.69001 Y25.04999
G01 X50.69291 Y25.07925
G01 X50.70144 Y25.10739
G01 X50.71528 Y25.13333
G01 X50.73395 Y25.15606
G01 X50.75668 Y25.17470
G01 X50.78262 Y25.18857
G01 X50.81076 Y25.19710
G01 X50.84002 Y25.19997
G01 X52.44002 Y25.19997
G01 X52.46928 Y25.19710
G01 X52.49742 Y25.18857
G01 X52.52336 Y25.17470
G01 X52.54609 Y25.15606
G01 X52.56473 Y25.13333
G01 X52.57860 Y25.10739
G01 X52.58714 Y25.07925
G01 X52.59001 Y25.04999
G01 X52.59001 Y23.44999
G01 X52.73999 Y23.44999
G01 X52.73423 Y23.39147
G01 X52.71716 Y23.33518
G01 X52.68945 Y23.28332
G01 X52.65213 Y23.23788
G01 X52.60667 Y23.20056
G01 X52.55480 Y23.17285
G01 X52.49854 Y23.15578
G01 X52.44002 Y23.15002
G01 X50.84002 Y23.15002
G01 X50.78150 Y23.15578
G01 X50.72521 Y23.17285
G01 X50.67335 Y23.20056
G01 X50.62791 Y23.23788
G01 X50.59059 Y23.28332
G01 X50.56286 Y23.33518
G01 X50.54579 Y23.39147
G01 X50.54002 Y23.44999
G01 X50.54002 Y25.04999
G01 X50.54579 Y25.10851
G01 X50.56286 Y25.16480
G01 X50.59059 Y25.21664
G01 X50.62791 Y25.26210
G01 X50.67335 Y25.29942
G01 X50.72521 Y25.32713
G01 X50.78150 Y25.34420
G01 X50.84002 Y25.34996
G01 X52.44002 Y25.34996
G01 X52.49854 Y25.34420
G01 X52.55480 Y25.32713
G01 X52.60667 Y25.29942
G01 X52.65318 Y25.26086
G01 X50.11318 Y25.26086
G01 X50.14945 Y25.21664
G01 X50.17716 Y25.16480
G01 X50.19423 Y25.10851
G01 X50.19999 Y25.04999
G01 X50.19999 Y23.44999
G01 X50.29504 Y23.23912
G01 X50.27414 Y23.20000
G01 X50.21818 Y23.13181
G01 X50.15001 Y23.07585
G01 X50.07221 Y23.03427
G01 X49.98780 Y23.00867
G01 X49.90002 Y23.00003
G01 X48.30002 Y23.00003
G01 X48.21224 Y23.00867
G01 X48.12781 Y23.03427
G01 X48.05004 Y23.07585
G01 X47.98184 Y23.13181
G01 X47.92588 Y23.20000
G01 X47.90503 Y23.23904
G01 X47.92588 Y23.20000
G01 X47.98184 Y23.13181
G01 X48.05004 Y23.07585
G01 X48.12781 Y23.03427
G01 X48.21224 Y23.00867
G01 X48.30002 Y23.00003
G01 X49.90002 Y23.00003
G01 X49.98780 Y23.00867
G01 X50.07221 Y23.03427
G01 X50.15001 Y23.07585
G01 X50.21818 Y23.13181
G01 X50.27414 Y23.20000
G01 X50.29504 Y23.23912
G01 X50.19999 Y23.44999
G01 X50.05001 Y23.44999
G01 X50.04714 Y23.42073
G01 X50.03860 Y23.39259
G01 X50.02473 Y23.36665
G01 X50.00609 Y23.34392
G01 X49.98336 Y23.32528
G01 X49.95742 Y23.31141
G01 X49.92928 Y23.30287
G01 X49.90002 Y23.29998
G01 X48.30002 Y23.29998
G01 X48.27076 Y23.30287
G01 X48.24262 Y23.31141
G01 X48.21668 Y23.32528
G01 X48.19395 Y23.34392
G01 X48.17528 Y23.36665
G01 X48.16144 Y23.39259
G01 X48.15291 Y23.42073
G01 X48.15001 Y23.44999
G01 X48.15001 Y25.04999
G01 X48.15291 Y25.07925
G01 X48.16144 Y25.10739
G01 X48.17528 Y25.13333
G01 X48.19395 Y25.15606
G01 X48.21668 Y25.17470
G01 X48.24262 Y25.18857
G01 X48.27076 Y25.19710
G01 X48.30002 Y25.19997
G01 X49.90002 Y25.19997
G01 X49.92928 Y25.19710
G01 X49.95742 Y25.18857
G01 X49.98336 Y25.17470
G01 X50.00609 Y25.15606
G01 X50.02473 Y25.13333
G01 X50.03860 Y25.10739
G01 X50.04714 Y25.07925
G01 X50.05001 Y25.04999
G01 X50.05001 Y23.44999
G01 X50.19999 Y23.44999
G01 X50.19423 Y23.39147
G01 X50.17716 Y23.33518
G01 X50.14945 Y23.28332
G01 X50.11213 Y23.23788
G01 X50.06667 Y23.20056
G01 X50.01480 Y23.17285
G01 X49.95854 Y23.15578
G01 X49.90002 Y23.15002
G01 X48.30002 Y23.15002
G01 X48.24150 Y23.15578
G01 X48.18521 Y23.17285
G01 X48.13335 Y23.20056
G01 X48.08791 Y23.23788
G01 X48.05059 Y23.28332
G01 X48.02286 Y23.33518
G01 X48.00579 Y23.39147
G01 X48.00002 Y23.44999
G01 X48.00002 Y25.04999
G01 X48.00579 Y25.10851
G01 X48.02286 Y25.16480
G01 X48.05059 Y25.21664
G01 X48.08791 Y25.26210
G01 X48.13335 Y25.29942
G01 X48.18521 Y25.32713
G01 X48.24150 Y25.34420
G01 X48.30002 Y25.34996
G01 X49.90002 Y25.34996
G01 X49.95854 Y25.34420
G01 X50.01480 Y25.32713
G01 X50.06667 Y25.29942
G01 X50.11318 Y25.26086
G01 X47.57318 Y25.26086
G01 X47.60945 Y25.21664
G01 X47.63716 Y25.16480
G01 X47.65423 Y25.10851
G01 X47.65999 Y25.04999
G01 X47.65999 Y23.44999
G01 X47.75504 Y23.23912
G01 X47.73414 Y23.20000
G01 X47.67818 Y23.13181
G01 X47.61001 Y23.07585
G01 X47.53221 Y23.03427
G01 X47.44780 Y23.00867
G01 X47.36002 Y23.00003
G01 X45.76005 Y23.00003
G01 X45.67224 Y23.00867
G01 X45.58784 Y23.03427
G01 X45.51004 Y23.07585
G01 X45.44184 Y23.13181
G01 X45.38588 Y23.20000
G01 X45.36503 Y23.23904
G01 X45.38588 Y23.20000
G01 X45.44184 Y23.13181
G01 X45.51004 Y23.07585
G01 X45.58784 Y23.03427
G01 X45.67224 Y23.00867
G01 X45.76005 Y23.00003
G01 X47.36002 Y23.00003
G01 X47.44780 Y23.00867
G01 X47.53221 Y23.03427
G01 X47.61001 Y23.07585
G01 X47.67818 Y23.13181
G01 X47.73414 Y23.20000
G01 X47.75504 Y23.23912
G01 X47.65999 Y23.44999
G01 X47.51001 Y23.44999
G01 X47.50714 Y23.42073
G01 X47.49860 Y23.39259
G01 X47.48473 Y23.36665
G01 X47.46609 Y23.34392
G01 X47.44336 Y23.32528
G01 X47.41742 Y23.31141
G01 X47.38928 Y23.30287
G01 X47.36002 Y23.29998
G01 X45.76005 Y23.29998
G01 X45.73076 Y23.30287
G01 X45.70262 Y23.31141
G01 X45.67668 Y23.32528
G01 X45.65398 Y23.34392
G01 X45.63528 Y23.36665
G01 X45.62144 Y23.39259
G01 X45.61291 Y23.42073
G01 X45.61003 Y23.44999
G01 X45.61003 Y25.04999
G01 X45.61291 Y25.07925
G01 X45.62144 Y25.10739
G01 X45.63528 Y25.13333
G01 X45.65398 Y25.15606
G01 X45.67668 Y25.17470
G01 X45.70262 Y25.18857
G01 X45.73076 Y25.19710
G01 X45.76005 Y25.19997
G01 X47.36002 Y25.19997
G01 X47.38928 Y25.19710
G01 X47.41742 Y25.18857
G01 X47.44336 Y25.17470
G01 X47.46609 Y25.15606
G01 X47.48473 Y25.13333
G01 X47.49860 Y25.10739
G01 X47.50714 Y25.07925
G01 X47.51001 Y25.04999
G01 X47.51001 Y23.44999
G01 X47.65999 Y23.44999
G01 X47.65423 Y23.39147
G01 X47.63716 Y23.33518
G01 X47.60945 Y23.28332
G01 X47.57213 Y23.23788
G01 X47.52667 Y23.20056
G01 X47.47480 Y23.17285
G01 X47.41854 Y23.15578
G01 X47.36002 Y23.15002
G01 X45.76005 Y23.15002
G01 X45.70150 Y23.15578
G01 X45.64521 Y23.17285
G01 X45.59337 Y23.20056
G01 X45.54793 Y23.23788
G01 X45.51059 Y23.28332
G01 X45.48286 Y23.33518
G01 X45.46579 Y23.39147
G01 X45.46002 Y23.44999
G01 X45.46002 Y25.04999
G01 X45.46579 Y25.10851
G01 X45.48286 Y25.16480
G01 X45.51059 Y25.21664
G01 X45.54793 Y25.26210
G01 X45.59337 Y25.29942
G01 X45.64521 Y25.32713
G01 X45.70150 Y25.34420
G01 X45.76005 Y25.34996
G01 X47.36002 Y25.34996
G01 X47.41854 Y25.34420
G01 X47.47480 Y25.32713
G01 X47.52667 Y25.29942
G01 X47.57318 Y25.26086
G01 X45.03318 Y25.26086
G01 X45.06945 Y25.21664
G01 X45.09716 Y25.16480
G01 X45.11423 Y25.10851
G01 X45.11999 Y25.04999
G01 X45.11999 Y23.44999
G01 X45.21504 Y23.23912
G01 X45.19414 Y23.20000
G01 X45.13818 Y23.13181
G01 X45.07001 Y23.07585
G01 X44.99221 Y23.03427
G01 X44.90780 Y23.00867
G01 X44.82002 Y23.00003
G01 X43.22002 Y23.00003
G01 X43.13224 Y23.00867
G01 X43.04781 Y23.03427
G01 X42.97004 Y23.07585
G01 X42.90184 Y23.13181
G01 X42.84588 Y23.20000
G01 X42.82503 Y23.23904
G01 X42.84588 Y23.20000
G01 X42.90184 Y23.13181
G01 X42.97004 Y23.07585
G01 X43.04781 Y23.03427
G01 X43.13224 Y23.00867
G01 X43.22002 Y23.00003
G01 X44.82002 Y23.00003
G01 X44.90780 Y23.00867
G01 X44.99221 Y23.03427
G01 X45.07001 Y23.07585
G01 X45.13818 Y23.13181
G01 X45.19414 Y23.20000
G01 X45.21504 Y23.23912
G01 X45.11999 Y23.44999
G01 X44.97001 Y23.44999
G01 X44.96714 Y23.42073
G01 X44.95860 Y23.39259
G01 X44.94473 Y23.36665
G01 X44.92609 Y23.34392
G01 X44.90336 Y23.32528
G01 X44.87742 Y23.31141
G01 X44.84928 Y23.30287
G01 X44.82002 Y23.29998
G01 X43.22002 Y23.29998
G01 X43.19076 Y23.30287
G01 X43.16262 Y23.31141
G01 X43.13668 Y23.32528
G01 X43.11395 Y23.34392
G01 X43.09528 Y23.36665
G01 X43.08144 Y23.39259
G01 X43.07291 Y23.42073
G01 X43.07001 Y23.44999
G01 X43.07001 Y25.04999
G01 X43.07291 Y25.07925
G01 X43.08144 Y25.10739
G01 X43.09528 Y25.13333
G01 X43.11395 Y25.15606
G01 X43.13668 Y25.17470
G01 X43.16262 Y25.18857
G01 X43.19076 Y25.19710
G01 X43.22002 Y25.19997
G01 X44.82002 Y25.19997
G01 X44.84928 Y25.19710
G01 X44.87742 Y25.18857
G01 X44.90336 Y25.17470
G01 X44.92609 Y25.15606
G01 X44.94473 Y25.13333
G01 X44.95860 Y25.10739
G01 X44.96714 Y25.07925
G01 X44.97001 Y25.04999
G01 X44.97001 Y23.44999
G01 X45.11999 Y23.44999
G01 X45.11423 Y23.39147
G01 X45.09716 Y23.33518
G01 X45.06945 Y23.28332
G01 X45.03213 Y23.23788
G01 X44.98667 Y23.20056
G01 X44.93480 Y23.17285
G01 X44.87854 Y23.15578
G01 X44.82002 Y23.15002
G01 X43.22002 Y23.15002
G01 X43.16150 Y23.15578
G01 X43.10521 Y23.17285
G01 X43.05335 Y23.20056
G01 X43.00791 Y23.23788
G01 X42.97059 Y23.28332
G01 X42.94286 Y23.33518
G01 X42.92579 Y23.39147
G01 X42.92002 Y23.44999
G01 X42.92002 Y25.04999
G01 X42.92579 Y25.10851
G01 X42.94286 Y25.16480
G01 X42.97059 Y25.21664
G01 X43.00791 Y25.26210
G01 X43.05335 Y25.29942
G01 X43.10521 Y25.32713
G01 X43.16150 Y25.34420
G01 X43.22002 Y25.34996
G01 X44.82002 Y25.34996
G01 X44.87854 Y25.34420
G01 X44.93480 Y25.32713
G01 X44.98667 Y25.29942
G01 X45.03318 Y25.26086
G01 X42.49318 Y25.26086
G01 X42.52945 Y25.21664
G01 X42.55716 Y25.16480
G01 X42.57423 Y25.10851
G01 X42.57999 Y25.04999
G01 X42.57999 Y23.44999
G01 X42.67504 Y23.23912
G01 X42.65414 Y23.20000
G01 X42.59818 Y23.13181
G01 X42.53001 Y23.07585
G01 X42.45221 Y23.03427
G01 X42.36780 Y23.00867
G01 X42.28002 Y23.00003
G01 X40.68002 Y23.00003
G01 X40.59224 Y23.00867
G01 X40.50781 Y23.03427
G01 X40.43004 Y23.07585
G01 X40.36184 Y23.13181
G01 X40.30588 Y23.20000
G01 X40.28503 Y23.23904
G01 X40.30588 Y23.20000
G01 X40.36184 Y23.13181
G01 X40.43004 Y23.07585
G01 X40.50781 Y23.03427
G01 X40.59224 Y23.00867
G01 X40.68002 Y23.00003
G01 X42.28002 Y23.00003
G01 X42.36780 Y23.00867
G01 X42.45221 Y23.03427
G01 X42.53001 Y23.07585
G01 X42.59818 Y23.13181
G01 X42.65414 Y23.20000
G01 X42.67504 Y23.23912
G01 X42.57999 Y23.44999
G01 X42.43001 Y23.44999
G01 X42.42714 Y23.42073
G01 X42.41860 Y23.39259
G01 X42.40473 Y23.36665
G01 X42.38609 Y23.34392
G01 X42.36336 Y23.32528
G01 X42.33742 Y23.31141
G01 X42.30928 Y23.30287
G01 X42.28002 Y23.29998
G01 X40.68002 Y23.29998
G01 X40.65076 Y23.30287
G01 X40.62262 Y23.31141
G01 X40.59668 Y23.32528
G01 X40.57395 Y23.34392
G01 X40.55528 Y23.36665
G01 X40.54144 Y23.39259
G01 X40.53291 Y23.42073
G01 X40.53001 Y23.44999
G01 X40.53001 Y25.04999
G01 X40.53291 Y25.07925
G01 X40.54144 Y25.10739
G01 X40.55528 Y25.13333
G01 X40.57395 Y25.15606
G01 X40.59668 Y25.17470
G01 X40.62262 Y25.18857
G01 X40.65076 Y25.19710
G01 X40.68002 Y25.19997
G01 X42.28002 Y25.19997
G01 X42.30928 Y25.19710
G01 X42.33742 Y25.18857
G01 X42.36336 Y25.17470
G01 X42.38609 Y25.15606
G01 X42.40473 Y25.13333
G01 X42.41860 Y25.10739
G01 X42.42714 Y25.07925
G01 X42.43001 Y25.04999
G01 X42.43001 Y23.44999
G01 X42.57999 Y23.44999
G01 X42.57423 Y23.39147
G01 X42.55716 Y23.33518
G01 X42.52945 Y23.28332
G01 X42.49213 Y23.23788
G01 X42.44667 Y23.20056
G01 X42.39480 Y23.17285
G01 X42.33854 Y23.15578
G01 X42.28002 Y23.15002
G01 X40.68002 Y23.15002
G01 X40.62150 Y23.15578
G01 X40.56521 Y23.17285
G01 X40.51335 Y23.20056
G01 X40.46791 Y23.23788
G01 X40.43059 Y23.28332
G01 X40.40286 Y23.33518
G01 X40.38579 Y23.39147
G01 X40.38002 Y23.44999
G01 X40.38002 Y25.04999
G01 X40.38579 Y25.10851
G01 X40.40286 Y25.16480
G01 X40.43059 Y25.21664
G01 X40.46791 Y25.26210
G01 X40.51335 Y25.29942
G01 X40.56521 Y25.32713
G01 X40.62150 Y25.34420
G01 X40.68002 Y25.34996
G01 X42.28002 Y25.34996
G01 X42.33854 Y25.34420
G01 X42.39480 Y25.32713
G01 X42.44667 Y25.29942
G01 X42.49318 Y25.26086
G01 X39.95318 Y25.26086
G01 X39.98945 Y25.21664
G01 X40.01716 Y25.16480
G01 X40.03423 Y25.10851
G01 X40.03999 Y25.04999
G01 X40.03999 Y23.44999
G01 X40.13504 Y23.23912
G01 X40.11414 Y23.20000
G01 X40.05818 Y23.13181
G01 X39.99001 Y23.07585
G01 X39.91221 Y23.03427
G01 X39.82780 Y23.00867
G01 X39.74002 Y23.00003
G01 X38.14002 Y23.00003
G01 X38.05224 Y23.00867
G01 X37.96781 Y23.03427
G01 X37.89004 Y23.07585
G01 X37.82184 Y23.13181
G01 X37.76588 Y23.20000
G01 X37.74503 Y23.23904
G01 X37.76588 Y23.20000
G01 X37.82184 Y23.13181
G01 X37.89004 Y23.07585
G01 X37.96781 Y23.03427
G01 X38.05224 Y23.00867
G01 X38.14002 Y23.00003
G01 X39.74002 Y23.00003
G01 X39.82780 Y23.00867
G01 X39.91221 Y23.03427
G01 X39.99001 Y23.07585
G01 X40.05818 Y23.13181
G01 X40.11414 Y23.20000
G01 X40.13504 Y23.23912
G01 X40.03999 Y23.44999
G01 X39.89001 Y23.44999
G01 X39.88714 Y23.42073
G01 X39.87860 Y23.39259
G01 X39.86473 Y23.36665
G01 X39.84609 Y23.34392
G01 X39.82336 Y23.32528
G01 X39.79742 Y23.31141
G01 X39.76928 Y23.30287
G01 X39.74002 Y23.29998
G01 X38.14002 Y23.29998
G01 X38.11076 Y23.30287
G01 X38.08262 Y23.31141
G01 X38.05668 Y23.32528
G01 X38.03395 Y23.34392
G01 X38.01528 Y23.36665
G01 X38.00144 Y23.39259
G01 X37.99291 Y23.42073
G01 X37.99001 Y23.44999
G01 X37.99001 Y25.04999
G01 X37.99291 Y25.07925
G01 X38.00144 Y25.10739
G01 X38.01528 Y25.13333
G01 X38.03395 Y25.15606
G01 X38.05668 Y25.17470
G01 X38.08262 Y25.18857
G01 X38.11076 Y25.19710
G01 X38.14002 Y25.19997
G01 X39.74002 Y25.19997
G01 X39.76928 Y25.19710
G01 X39.79742 Y25.18857
G01 X39.82336 Y25.17470
G01 X39.84609 Y25.15606
G01 X39.86473 Y25.13333
G01 X39.87860 Y25.10739
G01 X39.88714 Y25.07925
G01 X39.89001 Y25.04999
G01 X39.89001 Y23.44999
G01 X40.03999 Y23.44999
G01 X40.03423 Y23.39147
G01 X40.01716 Y23.33518
G01 X39.98945 Y23.28332
G01 X39.95213 Y23.23788
G01 X39.90667 Y23.20056
G01 X39.85480 Y23.17285
G01 X39.79854 Y23.15578
G01 X39.74002 Y23.15002
G01 X38.14002 Y23.15002
G01 X38.08150 Y23.15578
G01 X38.02521 Y23.17285
G01 X37.97335 Y23.20056
G01 X37.92791 Y23.23788
G01 X37.89059 Y23.28332
G01 X37.86286 Y23.33518
G01 X37.84579 Y23.39147
G01 X37.84002 Y23.44999
G01 X37.84002 Y25.04999
G01 X37.84579 Y25.10851
G01 X37.86286 Y25.16480
G01 X37.89059 Y25.21664
G01 X37.92791 Y25.26210
G01 X37.97335 Y25.29942
G01 X38.02521 Y25.32713
G01 X38.08150 Y25.34420
G01 X38.14002 Y25.34996
G01 X39.74002 Y25.34996
G01 X39.79854 Y25.34420
G01 X39.85480 Y25.32713
G01 X39.90667 Y25.29942
G01 X39.95318 Y25.26086
G01 X37.41318 Y25.26086
G01 X37.44945 Y25.21664
G01 X37.47716 Y25.16480
G01 X37.49423 Y25.10851
G01 X37.49999 Y25.04999
G01 X37.49999 Y23.44999
G01 X37.59504 Y23.23912
G01 X37.57414 Y23.20000
G01 X37.51818 Y23.13181
G01 X37.45001 Y23.07585
G01 X37.37221 Y23.03427
G01 X37.28780 Y23.00867
G01 X37.20002 Y23.00003
G01 X35.60002 Y23.00003
G01 X35.51224 Y23.00867
G01 X35.42781 Y23.03427
G01 X35.35004 Y23.07585
G01 X35.28184 Y23.13181
G01 X35.22588 Y23.20000
G01 X35.20503 Y23.23904
G01 X35.22588 Y23.20000
G01 X35.28184 Y23.13181
G01 X35.35004 Y23.07585
G01 X35.42781 Y23.03427
G01 X35.51224 Y23.00867
G01 X35.60002 Y23.00003
G01 X37.20002 Y23.00003
G01 X37.28780 Y23.00867
G01 X37.37221 Y23.03427
G01 X37.45001 Y23.07585
G01 X37.51818 Y23.13181
G01 X37.57414 Y23.20000
G01 X37.59504 Y23.23912
G01 X37.49999 Y23.44999
G01 X37.35001 Y23.44999
G01 X37.34714 Y23.42073
G01 X37.33860 Y23.39259
G01 X37.32473 Y23.36665
G01 X37.30609 Y23.34392
G01 X37.28336 Y23.32528
G01 X37.25742 Y23.31141
G01 X37.22928 Y23.30287
G01 X37.20002 Y23.29998
G01 X35.60002 Y23.29998
G01 X35.57076 Y23.30287
G01 X35.54262 Y23.31141
G01 X35.51668 Y23.32528
G01 X35.49395 Y23.34392
G01 X35.47528 Y23.36665
G01 X35.46144 Y23.39259
G01 X35.45291 Y23.42073
G01 X35.45001 Y23.44999
G01 X35.45001 Y25.04999
G01 X35.45291 Y25.07925
G01 X35.46144 Y25.10739
G01 X35.47528 Y25.13333
G01 X35.49395 Y25.15606
G01 X35.51668 Y25.17470
G01 X35.54262 Y25.18857
G01 X35.57076 Y25.19710
G01 X35.60002 Y25.19997
G01 X37.20002 Y25.19997
G01 X37.22928 Y25.19710
G01 X37.25742 Y25.18857
G01 X37.28336 Y25.17470
G01 X37.30609 Y25.15606
G01 X37.32473 Y25.13333
G01 X37.33860 Y25.10739
G01 X37.34714 Y25.07925
G01 X37.35001 Y25.04999
G01 X37.35001 Y23.44999
G01 X37.49999 Y23.44999
G01 X37.49423 Y23.39147
G01 X37.47716 Y23.33518
G01 X37.44945 Y23.28332
G01 X37.41213 Y23.23788
G01 X37.36667 Y23.20056
G01 X37.31480 Y23.17285
G01 X37.25854 Y23.15578
G01 X37.20002 Y23.15002
G01 X35.60002 Y23.15002
G01 X35.54150 Y23.15578
G01 X35.48521 Y23.17285
G01 X35.43335 Y23.20056
G01 X35.38791 Y23.23788
G01 X35.35059 Y23.28332
G01 X35.32286 Y23.33518
G01 X35.30579 Y23.39147
G01 X35.30002 Y23.44999
G01 X35.30002 Y25.04999
G01 X35.30579 Y25.10851
G01 X35.32286 Y25.16480
G01 X35.35059 Y25.21664
G01 X35.38791 Y25.26210
G01 X35.43335 Y25.29942
G01 X35.48521 Y25.32713
G01 X35.54150 Y25.34420
G01 X35.60002 Y25.34996
G01 X37.20002 Y25.34996
G01 X37.25854 Y25.34420
G01 X37.31480 Y25.32713
G01 X37.36667 Y25.29942
G01 X37.41318 Y25.26086
G01 X34.87318 Y25.26086
G01 X34.90945 Y25.21664
G01 X34.93716 Y25.16480
G01 X34.95423 Y25.10851
G01 X34.95999 Y25.04999
G01 X34.95999 Y23.44999
G01 X35.05504 Y23.23912
G01 X35.03414 Y23.20000
G01 X34.97818 Y23.13181
G01 X34.91001 Y23.07585
G01 X34.83221 Y23.03427
G01 X34.74780 Y23.00867
G01 X34.66002 Y23.00003
G01 X33.06002 Y23.00003
G01 X32.97224 Y23.00867
G01 X32.88781 Y23.03427
G01 X32.81004 Y23.07585
G01 X32.74184 Y23.13181
G01 X32.68588 Y23.20000
G01 X32.66503 Y23.23904
G01 X32.68588 Y23.20000
G01 X32.74184 Y23.13181
G01 X32.81004 Y23.07585
G01 X32.88781 Y23.03427
G01 X32.97224 Y23.00867
G01 X33.06002 Y23.00003
G01 X34.66002 Y23.00003
G01 X34.74780 Y23.00867
G01 X34.83221 Y23.03427
G01 X34.91001 Y23.07585
G01 X34.97818 Y23.13181
G01 X35.03414 Y23.20000
G01 X35.05504 Y23.23912
G01 X34.95999 Y23.44999
G01 X34.81001 Y23.44999
G01 X34.80714 Y23.42073
G01 X34.79860 Y23.39259
G01 X34.78473 Y23.36665
G01 X34.76609 Y23.34392
G01 X34.74336 Y23.32528
G01 X34.71742 Y23.31141
G01 X34.68928 Y23.30287
G01 X34.66002 Y23.29998
G01 X33.06002 Y23.29998
G01 X33.03076 Y23.30287
G01 X33.00262 Y23.31141
G01 X32.97668 Y23.32528
G01 X32.95395 Y23.34392
G01 X32.93528 Y23.36665
G01 X32.92144 Y23.39259
G01 X32.91291 Y23.42073
G01 X32.91001 Y23.44999
G01 X32.91001 Y25.04999
G01 X32.91291 Y25.07925
G01 X32.92144 Y25.10739
G01 X32.93528 Y25.13333
G01 X32.95395 Y25.15606
G01 X32.97668 Y25.17470
G01 X33.00262 Y25.18857
G01 X33.03076 Y25.19710
G01 X33.06002 Y25.19997
G01 X34.66002 Y25.19997
G01 X34.68928 Y25.19710
G01 X34.71742 Y25.18857
G01 X34.74336 Y25.17470
G01 X34.76609 Y25.15606
G01 X34.78473 Y25.13333
G01 X34.79860 Y25.10739
G01 X34.80714 Y25.07925
G01 X34.81001 Y25.04999
G01 X34.81001 Y23.44999
G01 X34.95999 Y23.44999
G01 X34.95423 Y23.39147
G01 X34.93716 Y23.33518
G01 X34.90945 Y23.28332
G01 X34.87213 Y23.23788
G01 X34.82667 Y23.20056
G01 X34.77480 Y23.17285
G01 X34.71854 Y23.15578
G01 X34.66002 Y23.15002
G01 X33.06002 Y23.15002
G01 X33.00150 Y23.15578
G01 X32.94521 Y23.17285
G01 X32.89335 Y23.20056
G01 X32.84791 Y23.23788
G01 X32.81059 Y23.28332
G01 X32.78286 Y23.33518
G01 X32.76579 Y23.39147
G01 X32.76002 Y23.44999
G01 X32.76002 Y25.04999
G01 X32.76579 Y25.10851
G01 X32.78286 Y25.16480
G01 X32.81059 Y25.21664
G01 X32.84791 Y25.26210
G01 X32.89335 Y25.29942
G01 X32.94521 Y25.32713
G01 X33.00150 Y25.34420
G01 X33.06002 Y25.34996
G01 X34.66002 Y25.34996
G01 X34.71854 Y25.34420
G01 X34.77480 Y25.32713
G01 X34.82667 Y25.29942
G01 X34.87318 Y25.26086
G01 X32.33312 Y25.26091
G01 X32.36945 Y25.21664
G01 X32.39716 Y25.16480
G01 X32.41423 Y25.10851
G01 X32.41999 Y25.04999
G01 X32.41999 Y23.44999
G01 X32.41423 Y23.39147
G01 X32.39716 Y23.33518
G01 X32.36945 Y23.28332
G01 X32.33213 Y23.23788
G01 X32.28667 Y23.20056
G01 X32.23480 Y23.17285
G01 X32.17854 Y23.15578
G01 X32.12002 Y23.15002
G01 X31.87001 Y23.15002
G01 X31.82609 Y23.19393
G01 X31.87001 Y23.15002
G01 X31.87001 Y16.48577
G01 X31.85860 Y16.48104
G01 X31.87001 Y16.48577
G01 X32.55583 Y15.79994
G01 X32.55111 Y15.78854
G01 X32.55583 Y15.79994
G01 X36.00002 Y15.79994
G01 X36.03578 Y15.76075
G01 X36.00002 Y15.79994
G01 X36.00002 Y15.87500
G01 X36.00713 Y15.95831
G01 X36.02019 Y16.01965
G01 X36.04757 Y16.09867
G01 X36.10508 Y16.19827
G01 X36.18201 Y16.28371
G01 X36.24869 Y16.33418
G01 X36.30299 Y16.36555
G01 X36.38006 Y16.39804
G01 X36.41038 Y16.40616
G01 X36.46151 Y16.41704
G01 X36.55052 Y16.42496
G01 X37.37665 Y16.42359
G01 X37.40774 Y16.42194
G01 X37.48963 Y16.40616
G01 X37.54927 Y16.38678
G01 X37.62501 Y16.35128
G01 X37.69362 Y16.30347
G01 X37.74023 Y16.26151
G01 X37.79496 Y16.19827
G01 X37.83819 Y16.12666
G01 X37.86370 Y16.06936
G01 X37.88798 Y15.98933
G01 X37.89834 Y15.90634
G01 X37.89999 Y14.62499
G01 X37.88798 Y14.51064
G01 X37.86370 Y14.43060
G01 X37.83819 Y14.37330
G01 X37.79496 Y14.30172
G01 X37.74023 Y14.23848
G01 X37.69362 Y14.19652
G01 X37.62501 Y14.14869
G01 X37.54927 Y14.11318
G01 X37.48963 Y14.09380
G01 X37.40774 Y14.07805
G01 X37.37665 Y14.07638
G01 X36.53431 Y14.07541
G01 X36.46151 Y14.08293
G01 X36.41038 Y14.09380
G01 X36.38006 Y14.10193
G01 X36.30299 Y14.13444
G01 X36.24869 Y14.16578
G01 X36.18201 Y14.21628
G01 X36.15981 Y14.23848
G01 X36.10508 Y14.30172
G01 X36.04757 Y14.40129
G01 X36.01206 Y14.51064
G01 X36.00002 Y14.62499
G01 X36.00002 Y14.70000
G01 X36.03815 Y14.74061
G01 X36.00002 Y14.70000
G01 X33.65578 Y14.70000
G01 X33.43226 Y14.79258
G01 X33.65578 Y14.70000
G01 X35.05583 Y13.29990
G01 X35.05110 Y13.28852
G01 X35.05583 Y13.29990
G01 X42.96003 Y13.29990
G01 X43.00397 Y13.25598
G01 X42.96003 Y13.29990
G01 X42.96003 Y13.54999
G01 X42.96579 Y13.60851
G01 X42.98286 Y13.66479
G01 X43.01060 Y13.71663
G01 X43.04789 Y13.76210
G01 X43.09335 Y13.79941
G01 X43.14522 Y13.82713
G01 X43.20148 Y13.84419
G01 X43.26000 Y13.84996
G01 X44.86002 Y13.84996
G01 X44.91855 Y13.84419
G01 X44.97481 Y13.82713
G01 X45.02667 Y13.79941
G01 X45.07214 Y13.76210
G01 X45.10943 Y13.71663
G01 X45.13716 Y13.66479
G01 X45.15423 Y13.60851
G01 X45.16000 Y13.54999
G01 X45.16000 Y11.94999
G01 X45.45997 Y11.94999
G01 X45.01001 Y11.94999
G01 X45.00714 Y11.92073
G01 X44.99861 Y11.89258
G01 X44.98474 Y11.86665
G01 X44.96607 Y11.84392
G01 X44.94334 Y11.82527
G01 X44.91743 Y11.81141
G01 X44.88928 Y11.80287
G01 X44.86002 Y11.79998
G01 X43.26000 Y11.79998
G01 X43.23074 Y11.80287
G01 X43.20260 Y11.81141
G01 X43.17669 Y11.82527
G01 X43.15396 Y11.84392
G01 X43.13529 Y11.86665
G01 X43.12142 Y11.89258
G01 X43.11288 Y11.92073
G01 X43.11001 Y11.94999
G01 X43.11001 Y12.34994
G01 X34.81625 Y12.35042
G01 X34.77714 Y12.35349
G01 X34.71575 Y12.36632
G01 X34.65712 Y12.38862
G01 X34.60272 Y12.41979
G01 X34.54519 Y12.46711
G01 X31.03719 Y15.97513
G01 X30.97989 Y16.04835
G01 X30.94552 Y16.11876
G01 X30.92556 Y16.19448
G01 X30.92002 Y16.25798
G01 X30.92002 Y23.29998
G01 X30.52002 Y23.29998
G01 X30.49076 Y23.30287
G01 X30.46262 Y23.31141
G01 X30.43668 Y23.32528
G01 X30.41395 Y23.34392
G01 X30.39528 Y23.36665
G01 X30.38144 Y23.39259
G01 X30.37291 Y23.42073
G01 X30.37001 Y23.44999
G01 X30.37001 Y25.04999
G01 X30.37291 Y25.07925
G01 X30.38144 Y25.10739
G01 X30.39528 Y25.13333
G01 X30.41395 Y25.15606
G01 X30.43668 Y25.17470
G01 X30.46262 Y25.18857
G01 X30.49076 Y25.19710
G01 X30.52002 Y25.19997
G01 X32.12002 Y25.19997
G01 X32.14928 Y25.19710
G01 X32.17742 Y25.18857
G01 X32.20336 Y25.17470
G01 X32.22609 Y25.15606
G01 X32.24473 Y25.13333
G01 X32.25860 Y25.10739
G01 X32.26714 Y25.07925
G01 X32.27001 Y25.04999
G01 X32.27001 Y23.44999
G01 X32.26714 Y23.42073
G01 X32.25860 Y23.39259
G01 X32.24473 Y23.36665
G01 X32.22609 Y23.34392
G01 X32.20336 Y23.32528
G01 X32.17742 Y23.31141
G01 X32.14928 Y23.30287
G01 X32.12002 Y23.29998
G01 X31.72004 Y23.29998
G01 X31.72004 Y16.42367
G01 X32.49370 Y15.64998
G01 X36.15001 Y15.64998
G01 X36.15001 Y15.87500
G01 X36.15631 Y15.94264
G01 X36.18460 Y16.03769
G01 X36.21785 Y16.09695
G01 X36.28237 Y16.17226
G01 X36.35001 Y16.22141
G01 X36.42641 Y16.25542
G01 X36.51602 Y16.27342
G01 X37.37640 Y16.27363
G01 X37.40733 Y16.27035
G01 X37.47363 Y16.25542
G01 X37.53604 Y16.22852
G01 X37.60545 Y16.18214
G01 X37.67363 Y16.11010
G01 X37.72105 Y16.02303
G01 X37.74127 Y15.95816
G01 X37.75000 Y15.87500
G01 X37.75000 Y14.62499
G01 X37.74373 Y14.55732
G01 X37.71544 Y14.46230
G01 X37.66375 Y14.37767
G01 X37.61767 Y14.32773
G01 X37.56319 Y14.28712
G01 X37.48828 Y14.25019
G01 X37.45846 Y14.24051
G01 X37.37640 Y14.22636
G01 X36.54216 Y14.22519
G01 X36.49270 Y14.22964
G01 X36.44157 Y14.24051
G01 X36.36400 Y14.27145
G01 X36.28237 Y14.32773
G01 X36.23629 Y14.37767
G01 X36.19171 Y14.44831
G01 X36.17896 Y14.47696
G01 X36.15875 Y14.54183
G01 X36.15085 Y14.60932
G01 X36.15001 Y14.84996
G01 X33.29370 Y14.84996
G01 X34.99372 Y13.14996
G01 X43.11001 Y13.14996
G01 X43.11001 Y13.54999
G01 X43.11288 Y13.57925
G01 X43.12142 Y13.60739
G01 X43.13529 Y13.63332
G01 X43.15396 Y13.65606
G01 X43.17669 Y13.67470
G01 X43.20260 Y13.68857
G01 X43.23074 Y13.69710
G01 X43.26000 Y13.70000
G01 X44.86002 Y13.70000
G01 X44.88928 Y13.69710
G01 X44.91743 Y13.68857
G01 X44.94334 Y13.67470
G01 X44.96607 Y13.65606
G01 X44.98474 Y13.63332
G01 X44.99861 Y13.60739
G01 X45.00714 Y13.57925
G01 X45.01001 Y13.54999
G01 X45.01001 Y11.94999
G01 X45.16000 Y11.94999
G01 X45.15423 Y11.89147
G01 X45.13716 Y11.83518
G01 X45.10943 Y11.78334
G01 X45.07214 Y11.73787
G01 X45.02667 Y11.70056
G01 X44.97481 Y11.67285
G01 X44.91855 Y11.65578
G01 X44.86002 Y11.65001
G01 X43.26000 Y11.65001
G01 X43.20148 Y11.65578
G01 X43.14522 Y11.67285
G01 X43.09335 Y11.70056
G01 X43.04789 Y11.73787
G01 X43.01060 Y11.78334
G01 X42.98286 Y11.83518
G01 X42.96579 Y11.89147
G01 X42.96003 Y11.94999
G01 X42.96003 Y12.19998
G01 X43.00397 Y12.24389
G01 X42.96003 Y12.19998
G01 X34.80449 Y12.20089
G01 X34.71890 Y12.21133
G01 X34.63596 Y12.23503
G01 X34.59972 Y12.25006
G01 X34.52433 Y12.29192
G01 X34.43914 Y12.36106
G01 X30.93115 Y15.86908
G01 X30.88027 Y15.92877
G01 X30.84761 Y15.97767
G01 X30.82449 Y16.02090
G01 X30.80199 Y16.07523
G01 X30.78776 Y16.12212
G01 X30.77631 Y16.17980
G01 X30.77006 Y16.25798
G01 X30.77006 Y23.15002
G01 X30.81398 Y23.19393
G01 X30.77006 Y23.15002
G01 X30.52002 Y23.15002
G01 X30.46150 Y23.15578
G01 X30.40521 Y23.17285
G01 X30.35335 Y23.20056
G01 X30.30791 Y23.23788
G01 X30.27059 Y23.28332
G01 X30.24286 Y23.33518
G01 X30.22579 Y23.39147
G01 X30.22002 Y23.44999
G01 X30.22002 Y25.04999
G01 X30.22579 Y25.10851
G01 X30.24286 Y25.16480
G01 X30.27059 Y25.21664
G01 X30.30791 Y25.26210
G01 X30.35335 Y25.29942
G01 X30.40521 Y25.32713
G01 X30.46150 Y25.34420
G01 X30.52002 Y25.34996
G01 X32.12002 Y25.34996
G01 X32.17854 Y25.34420
G01 X32.23480 Y25.32713
G01 X32.28667 Y25.29942
G01 X32.33312 Y25.26091
G01 X29.79310 Y25.26093
G01 X29.82945 Y25.21664
G01 X29.85716 Y25.16480
G01 X29.87423 Y25.10851
G01 X29.87999 Y25.04999
G01 X29.87999 Y23.44999
G01 X29.87423 Y23.39147
G01 X29.85716 Y23.33518
G01 X29.82945 Y23.28332
G01 X29.79213 Y23.23788
G01 X29.74667 Y23.20056
G01 X29.69480 Y23.17285
G01 X29.63854 Y23.15578
G01 X29.58002 Y23.15002
G01 X29.33001 Y23.15002
G01 X29.28609 Y23.19393
G01 X29.33001 Y23.15002
G01 X29.33001 Y16.44777
G01 X29.31860 Y16.44305
G01 X29.33001 Y16.44777
G01 X35.01783 Y10.75995
G01 X35.01310 Y10.74854
G01 X35.01783 Y10.75995
G01 X42.96003 Y10.75995
G01 X43.00397 Y10.71603
G01 X42.96003 Y10.75995
G01 X42.96003 Y11.00999
G01 X42.96579 Y11.06851
G01 X42.98286 Y11.12479
G01 X43.01060 Y11.17663
G01 X43.04789 Y11.22210
G01 X43.09335 Y11.25941
G01 X43.14522 Y11.28712
G01 X43.20148 Y11.30419
G01 X43.26000 Y11.30996
G01 X44.86002 Y11.30996
G01 X44.91855 Y11.30419
G01 X44.97481 Y11.28712
G01 X45.02667 Y11.25941
G01 X45.07214 Y11.22210
G01 X45.10943 Y11.17663
G01 X45.13716 Y11.12479
G01 X45.15423 Y11.06851
G01 X45.16000 Y11.00999
G01 X45.16000 Y9.40999
G01 X45.45997 Y9.40999
G01 X45.01001 Y9.40999
G01 X45.00714 Y9.38073
G01 X44.99861 Y9.35258
G01 X44.98474 Y9.32665
G01 X44.96607 Y9.30392
G01 X44.94334 Y9.28527
G01 X44.91743 Y9.27141
G01 X44.88928 Y9.26287
G01 X44.86002 Y9.25998
G01 X43.26000 Y9.25998
G01 X43.23074 Y9.26287
G01 X43.20260 Y9.27141
G01 X43.17669 Y9.28527
G01 X43.15396 Y9.30392
G01 X43.13529 Y9.32665
G01 X43.12142 Y9.35258
G01 X43.11288 Y9.38073
G01 X43.11001 Y9.40999
G01 X43.11001 Y9.80996
G01 X34.79002 Y9.80996
G01 X34.72654 Y9.81550
G01 X34.63696 Y9.84042
G01 X34.58042 Y9.86983
G01 X34.50719 Y9.92713
G01 X28.78005 Y15.65427
G01 X25.59288 Y12.46711
G01 X25.55440 Y12.43363
G01 X25.50192 Y12.39929
G01 X25.42232 Y12.36632
G01 X25.36093 Y12.35349
G01 X25.31002 Y12.34994
G01 X23.10002 Y12.34994
G01 X23.09918 Y12.10930
G01 X23.09128 Y12.04184
G01 X23.06543 Y11.96228
G01 X23.02362 Y11.88987
G01 X22.96766 Y11.82774
G01 X22.90002 Y11.77859
G01 X22.82362 Y11.74455
G01 X22.75732 Y11.72964
G01 X22.70002 Y11.72500
G01 X21.86604 Y11.72657
G01 X21.77640 Y11.74455
G01 X21.71399 Y11.77145
G01 X21.68684 Y11.78712
G01 X21.62126 Y11.83884
G01 X21.57640 Y11.88987
G01 X21.53459 Y11.96228
G01 X21.50876 Y12.04184
G01 X21.50084 Y12.10930
G01 X21.50002 Y13.37498
G01 X21.50876 Y13.45816
G01 X21.54173 Y13.55166
G01 X21.58628 Y13.62230
G01 X21.63236 Y13.67224
G01 X21.68684 Y13.71285
G01 X21.77640 Y13.75542
G01 X21.87389 Y13.77361
G01 X22.72613 Y13.77361
G01 X22.80845 Y13.75948
G01 X22.83827 Y13.74978
G01 X22.90002 Y13.72138
G01 X22.96766 Y13.67224
G01 X23.02362 Y13.61011
G01 X23.06543 Y13.53769
G01 X23.09128 Y13.45816
G01 X23.09918 Y13.39068
G01 X23.10002 Y13.14996
G01 X25.14434 Y13.14996
G01 X28.38002 Y16.38567
G01 X28.38002 Y23.29998
G01 X27.98002 Y23.29998
G01 X27.95076 Y23.30287
G01 X27.92262 Y23.31141
G01 X27.89668 Y23.32528
G01 X27.87395 Y23.34392
G01 X27.85528 Y23.36665
G01 X27.84144 Y23.39259
G01 X27.83291 Y23.42073
G01 X27.83001 Y23.44999
G01 X27.83001 Y25.04999
G01 X27.83291 Y25.07925
G01 X27.84144 Y25.10739
G01 X27.85528 Y25.13333
G01 X27.87395 Y25.15606
G01 X27.89668 Y25.17470
G01 X27.92262 Y25.18857
G01 X27.95076 Y25.19710
G01 X27.98002 Y25.19997
G01 X29.58002 Y25.19997
G01 X29.60928 Y25.19710
G01 X29.63742 Y25.18857
G01 X29.66336 Y25.17470
G01 X29.68609 Y25.15606
G01 X29.70473 Y25.13333
G01 X29.71860 Y25.10739
G01 X29.72714 Y25.07925
G01 X29.73001 Y25.04999
G01 X29.73001 Y23.44999
G01 X29.72714 Y23.42073
G01 X29.71860 Y23.39259
G01 X29.70473 Y23.36665
G01 X29.68609 Y23.34392
G01 X29.66336 Y23.32528
G01 X29.63742 Y23.31141
G01 X29.60928 Y23.30287
G01 X29.58002 Y23.29998
G01 X29.18004 Y23.29998
G01 X29.18004 Y16.38567
G01 X34.95573 Y10.60999
G01 X43.11001 Y10.60999
G01 X43.11001 Y11.00999
G01 X43.11288 Y11.03925
G01 X43.12142 Y11.06739
G01 X43.13529 Y11.09332
G01 X43.15396 Y11.11606
G01 X43.17669 Y11.13470
G01 X43.20260 Y11.14857
G01 X43.23074 Y11.15710
G01 X43.26000 Y11.16000
G01 X44.86002 Y11.16000
G01 X44.88928 Y11.15710
G01 X44.91743 Y11.14857
G01 X44.94334 Y11.13470
G01 X44.96607 Y11.11606
G01 X44.98474 Y11.09332
G01 X44.99861 Y11.06739
G01 X45.00714 Y11.03925
G01 X45.01001 Y11.00999
G01 X45.01001 Y9.40999
G01 X45.16000 Y9.40999
G01 X45.15423 Y9.35147
G01 X45.13716 Y9.29518
G01 X45.10943 Y9.24334
G01 X45.07214 Y9.19787
G01 X45.02667 Y9.16056
G01 X44.97481 Y9.13285
G01 X44.91855 Y9.11578
G01 X44.86002 Y9.11001
G01 X43.26000 Y9.11001
G01 X43.20148 Y9.11578
G01 X43.14522 Y9.13285
G01 X43.09335 Y9.16056
G01 X43.04789 Y9.19787
G01 X43.01060 Y9.24334
G01 X42.98286 Y9.29518
G01 X42.96579 Y9.35147
G01 X42.96003 Y9.40999
G01 X42.96003 Y9.66000
G01 X43.00219 Y9.70293
G01 X42.96003 Y9.66000
G01 X34.79002 Y9.66000
G01 X34.71186 Y9.66625
G01 X34.65418 Y9.67770
G01 X34.57955 Y9.70186
G01 X34.50973 Y9.73755
G01 X34.46083 Y9.77021
G01 X34.40114 Y9.82109
G01 X28.78005 Y15.44218
G01 X28.78005 Y15.50431
G01 X28.78005 Y15.44218
G01 X25.69892 Y12.36106
G01 X25.65181 Y12.31958
G01 X25.58028 Y12.27143
G01 X25.50210 Y12.23503
G01 X25.45732 Y12.22050
G01 X25.37269 Y12.20396
G01 X25.31002 Y12.19998
G01 X23.24998 Y12.19998
G01 X23.21422 Y12.23917
G01 X23.24998 Y12.19998
G01 X23.24836 Y12.09363
G01 X23.23797 Y12.01064
G01 X23.22984 Y11.98032
G01 X23.20243 Y11.90130
G01 X23.18818 Y11.87331
G01 X23.14495 Y11.80173
G01 X23.06802 Y11.71628
G01 X22.97500 Y11.64869
G01 X22.86997 Y11.60193
G01 X22.78852 Y11.58293
G01 X22.71572 Y11.57541
G01 X21.88430 Y11.57541
G01 X21.81150 Y11.58293
G01 X21.73005 Y11.60193
G01 X21.62502 Y11.64869
G01 X21.55641 Y11.69652
G01 X21.50980 Y11.73848
G01 X21.45507 Y11.80173
G01 X21.41184 Y11.87331
G01 X21.38633 Y11.93061
G01 X21.36205 Y12.01064
G01 X21.35004 Y12.12499
G01 X21.35004 Y13.37498
G01 X21.35715 Y13.45832
G01 X21.36205 Y13.48933
G01 X21.38633 Y13.56937
G01 X21.39759 Y13.59868
G01 X21.43797 Y13.67193
G01 X21.45507 Y13.69825
G01 X21.50980 Y13.76149
G01 X21.53200 Y13.78369
G01 X21.59868 Y13.83419
G01 X21.65301 Y13.86553
G01 X21.73005 Y13.89804
G01 X21.81150 Y13.91704
G01 X21.87389 Y13.92359
G01 X22.72613 Y13.92359
G01 X22.78852 Y13.91704
G01 X22.86997 Y13.89804
G01 X22.97500 Y13.85128
G01 X23.06802 Y13.78369
G01 X23.14495 Y13.69825
G01 X23.18818 Y13.62667
G01 X23.20243 Y13.59868
G01 X23.22984 Y13.51966
G01 X23.23797 Y13.48933
G01 X23.24836 Y13.40635
G01 X23.24998 Y13.29990
G01 X23.21186 Y13.25931
G01 X23.24998 Y13.29990
G01 X25.08224 Y13.29990
G01 X25.08696 Y13.28852
G01 X25.08224 Y13.29990
G01 X28.23006 Y16.44777
G01 X28.24146 Y16.44305
G01 X28.23006 Y16.44777
G01 X28.23006 Y23.15002
G01 X28.27398 Y23.19393
G01 X28.23006 Y23.15002
G01 X27.98002 Y23.15002
G01 X27.92150 Y23.15578
G01 X27.86521 Y23.17285
G01 X27.81335 Y23.20056
G01 X27.76791 Y23.23788
G01 X27.73059 Y23.28332
G01 X27.70286 Y23.33518
G01 X27.68579 Y23.39147
G01 X27.68002 Y23.44999
G01 X27.68002 Y25.04999
G01 X27.68579 Y25.10851
G01 X27.70286 Y25.16480
G01 X27.73059 Y25.21664
G01 X27.76791 Y25.26210
G01 X27.81335 Y25.29942
G01 X27.86521 Y25.32713
G01 X27.92150 Y25.34420
G01 X27.98002 Y25.34996
G01 X29.58002 Y25.34996
G01 X29.63854 Y25.34420
G01 X29.69480 Y25.32713
G01 X29.74667 Y25.29942
G01 X29.79310 Y25.26093
G01 X27.25318 Y25.26086
G01 X27.28945 Y25.21664
G01 X27.31716 Y25.16480
G01 X27.33423 Y25.10851
G01 X27.33999 Y25.04999
G01 X27.33999 Y23.44999
G01 X27.43504 Y23.23912
G01 X27.41414 Y23.20000
G01 X27.35818 Y23.13181
G01 X27.29001 Y23.07585
G01 X27.21221 Y23.03427
G01 X27.12780 Y23.00867
G01 X27.04002 Y23.00003
G01 X25.44002 Y23.00003
G01 X25.35224 Y23.00867
G01 X25.26781 Y23.03427
G01 X25.19004 Y23.07585
G01 X25.12184 Y23.13181
G01 X25.06588 Y23.20000
G01 X25.04503 Y23.23904
G01 X25.06588 Y23.20000
G01 X25.12184 Y23.13181
G01 X25.19004 Y23.07585
G01 X25.26781 Y23.03427
G01 X25.35224 Y23.00867
G01 X25.44002 Y23.00003
G01 X27.04002 Y23.00003
G01 X27.12780 Y23.00867
G01 X27.21221 Y23.03427
G01 X27.29001 Y23.07585
G01 X27.35818 Y23.13181
G01 X27.41414 Y23.20000
G01 X27.43504 Y23.23912
G01 X27.33999 Y23.44999
G01 X27.19001 Y23.44999
G01 X27.18714 Y23.42073
G01 X27.17860 Y23.39259
G01 X27.16473 Y23.36665
G01 X27.14609 Y23.34392
G01 X27.12336 Y23.32528
G01 X27.09742 Y23.31141
G01 X27.06928 Y23.30287
G01 X27.04002 Y23.29998
G01 X25.44002 Y23.29998
G01 X25.41076 Y23.30287
G01 X25.38262 Y23.31141
G01 X25.35668 Y23.32528
G01 X25.33395 Y23.34392
G01 X25.31528 Y23.36665
G01 X25.30144 Y23.39259
G01 X25.29291 Y23.42073
G01 X25.29001 Y23.44999
G01 X25.29001 Y25.04999
G01 X25.29291 Y25.07925
G01 X25.30144 Y25.10739
G01 X25.31528 Y25.13333
G01 X25.33395 Y25.15606
G01 X25.35668 Y25.17470
G01 X25.38262 Y25.18857
G01 X25.41076 Y25.19710
G01 X25.44002 Y25.19997
G01 X27.04002 Y25.19997
G01 X27.06928 Y25.19710
G01 X27.09742 Y25.18857
G01 X27.12336 Y25.17470
G01 X27.14609 Y25.15606
G01 X27.16473 Y25.13333
G01 X27.17860 Y25.10739
G01 X27.18714 Y25.07925
G01 X27.19001 Y25.04999
G01 X27.19001 Y23.44999
G01 X27.33999 Y23.44999
G01 X27.33423 Y23.39147
G01 X27.31716 Y23.33518
G01 X27.28945 Y23.28332
G01 X27.25213 Y23.23788
G01 X27.20667 Y23.20056
G01 X27.15480 Y23.17285
G01 X27.09854 Y23.15578
G01 X27.04002 Y23.15002
G01 X25.44002 Y23.15002
G01 X25.38150 Y23.15578
G01 X25.32521 Y23.17285
G01 X25.27335 Y23.20056
G01 X25.22791 Y23.23788
G01 X25.19059 Y23.28332
G01 X25.16286 Y23.33518
G01 X25.14579 Y23.39147
G01 X25.14002 Y23.44999
G01 X25.14002 Y25.04999
G01 X25.14579 Y25.10851
G01 X25.16286 Y25.16480
G01 X25.19059 Y25.21664
G01 X25.22791 Y25.26210
G01 X25.27335 Y25.29942
G01 X25.32521 Y25.32713
G01 X25.38150 Y25.34420
G01 X25.44002 Y25.34996
G01 X27.04002 Y25.34996
G01 X27.09854 Y25.34420
G01 X27.15480 Y25.32713
G01 X27.20667 Y25.29942
G01 X27.25213 Y25.26210
G01 X24.71318 Y25.26086
G01 X24.74945 Y25.21664
G01 X24.77716 Y25.16480
G01 X24.79423 Y25.10851
G01 X24.79999 Y25.04999
G01 X24.79999 Y23.44999
G01 X24.89504 Y23.23912
G01 X24.87414 Y23.20000
G01 X24.81818 Y23.13181
G01 X24.75001 Y23.07585
G01 X24.67221 Y23.03427
G01 X24.58780 Y23.00867
G01 X24.50002 Y23.00003
G01 X22.90002 Y23.00003
G01 X22.81224 Y23.00867
G01 X22.72781 Y23.03427
G01 X22.65004 Y23.07585
G01 X22.58184 Y23.13181
G01 X22.52588 Y23.20000
G01 X22.50503 Y23.23904
G01 X22.52588 Y23.20000
G01 X22.58184 Y23.13181
G01 X22.65004 Y23.07585
G01 X22.72781 Y23.03427
G01 X22.81224 Y23.00867
G01 X22.90002 Y23.00003
G01 X24.50002 Y23.00003
G01 X24.58780 Y23.00867
G01 X24.67221 Y23.03427
G01 X24.75001 Y23.07585
G01 X24.81818 Y23.13181
G01 X24.87414 Y23.20000
G01 X24.89504 Y23.23912
G01 X24.79999 Y23.44999
G01 X24.65001 Y23.44999
G01 X24.64714 Y23.42073
G01 X24.63860 Y23.39259
G01 X24.62473 Y23.36665
G01 X24.60609 Y23.34392
G01 X24.58336 Y23.32528
G01 X24.55742 Y23.31141
G01 X24.52928 Y23.30287
G01 X24.50002 Y23.29998
G01 X22.90002 Y23.29998
G01 X22.87076 Y23.30287
G01 X22.84262 Y23.31141
G01 X22.81668 Y23.32528
G01 X22.79395 Y23.34392
G01 X22.77528 Y23.36665
G01 X22.76144 Y23.39259
G01 X22.75291 Y23.42073
G01 X22.75001 Y23.44999
G01 X22.75001 Y25.04999
G01 X22.75291 Y25.07925
G01 X22.76144 Y25.10739
G01 X22.77528 Y25.13333
G01 X22.79395 Y25.15606
G01 X22.81668 Y25.17470
G01 X22.84262 Y25.18857
G01 X22.87076 Y25.19710
G01 X22.90002 Y25.19997
G01 X24.50002 Y25.19997
G01 X24.52928 Y25.19710
G01 X24.55742 Y25.18857
G01 X24.58336 Y25.17470
G01 X24.60609 Y25.15606
G01 X24.62473 Y25.13333
G01 X24.63860 Y25.10739
G01 X24.64714 Y25.07925
G01 X24.65001 Y25.04999
G01 X24.65001 Y23.44999
G01 X24.79999 Y23.44999
G01 X24.79423 Y23.39147
G01 X24.77716 Y23.33518
G01 X24.74945 Y23.28332
G01 X24.71213 Y23.23788
G01 X24.66667 Y23.20056
G01 X24.61480 Y23.17285
G01 X24.55854 Y23.15578
G01 X24.50002 Y23.15002
G01 X22.90002 Y23.15002
G01 X22.84150 Y23.15578
G01 X22.78521 Y23.17285
G01 X22.73335 Y23.20056
G01 X22.68791 Y23.23788
G01 X22.65059 Y23.28332
G01 X22.62286 Y23.33518
G01 X22.60579 Y23.39147
G01 X22.60002 Y23.44999
G01 X22.60002 Y25.04999
G01 X22.60579 Y25.10851
G01 X22.62286 Y25.16480
G01 X22.65059 Y25.21664
G01 X22.68791 Y25.26210
G01 X22.73335 Y25.29942
G01 X22.78521 Y25.32713
G01 X22.84150 Y25.34420
G01 X22.90002 Y25.34996
G01 X24.50002 Y25.34996
G01 X24.55854 Y25.34420
G01 X24.61480 Y25.32713
G01 X24.66667 Y25.29942
G01 X24.71318 Y25.26086
G01 X19.81504 Y25.26086
G01 X19.79414 Y25.29997
G01 X19.73820 Y25.36815
G01 X19.67001 Y25.42410
G01 X19.59221 Y25.46568
G01 X19.50780 Y25.49131
G01 X19.42002 Y25.49995
G01 X17.82002 Y25.49995
G01 X17.73224 Y25.49131
G01 X17.64781 Y25.46568
G01 X17.57004 Y25.42410
G01 X17.50184 Y25.36815
G01 X17.44588 Y25.29997
G01 X17.42503 Y25.26093
G01 X17.42503 Y23.00178
G01 X17.48670 Y22.95116
G01 X17.59043 Y22.89571
G01 X17.70298 Y22.86157
G01 X17.82002 Y22.85004
G01 X19.42002 Y22.85004
G01 X19.53706 Y22.86157
G01 X19.64961 Y22.89571
G01 X19.75332 Y22.95116
G01 X19.81504 Y23.00181
G01 X19.81504 Y25.49817
G01 X19.75332 Y25.54882
G01 X19.64961 Y25.60427
G01 X19.53706 Y25.63838
G01 X19.42002 Y25.64994
G01 X17.82002 Y25.64994
G01 X17.70298 Y25.63838
G01 X17.59043 Y25.60427
G01 X17.48670 Y25.54882
G01 X17.42503 Y25.49817
G01 X17.42503 Y23.23904
G01 X17.44588 Y23.20000
G01 X17.50184 Y23.13181
G01 X17.57004 Y23.07585
G01 X17.64781 Y23.03427
G01 X17.73224 Y23.00867
G01 X17.82002 Y23.00003
G01 X19.42002 Y23.00003
G01 X19.50780 Y23.00867
G01 X19.59221 Y23.03427
G01 X19.67001 Y23.07585
G01 X19.73820 Y23.13181
G01 X19.79414 Y23.20000
G01 X19.81504 Y23.23912
G01 X19.71999 Y23.44999
G01 X19.71999 Y25.04999
G01 X19.71423 Y25.10851
G01 X19.69716 Y25.16480
G01 X19.66945 Y25.21664
G01 X19.63216 Y25.26210
G01 X19.58667 Y25.29942
G01 X19.53480 Y25.32713
G01 X19.47854 Y25.34420
G01 X19.42002 Y25.34996
G01 X17.82002 Y25.34996
G01 X17.76150 Y25.34420
G01 X17.70521 Y25.32713
G01 X17.65335 Y25.29942
G01 X17.60791 Y25.26210
G01 X17.57059 Y25.21664
G01 X17.54286 Y25.16480
G01 X17.52579 Y25.10851
G01 X17.52002 Y25.04999
G01 X17.52002 Y23.44999
G01 X17.52579 Y23.39147
G01 X17.54286 Y23.33518
G01 X17.57059 Y23.28332
G01 X17.60791 Y23.23788
G01 X17.65335 Y23.20056
G01 X17.70521 Y23.17285
G01 X17.76150 Y23.15578
G01 X17.82002 Y23.15002
G01 X19.42002 Y23.15002
G01 X19.47854 Y23.15578
G01 X19.53480 Y23.17285
G01 X19.58667 Y23.20056
G01 X19.63216 Y23.23788
G01 X19.66945 Y23.28332
G01 X19.69716 Y23.33518
G01 X19.71423 Y23.39147
G01 X19.71999 Y23.44999
G01 X19.57003 Y23.44999
G01 X19.56714 Y23.42073
G01 X19.55860 Y23.39259
G01 X19.54473 Y23.36665
G01 X19.52609 Y23.34392
G01 X19.50336 Y23.32528
G01 X19.47742 Y23.31141
G01 X19.44930 Y23.30287
G01 X19.42002 Y23.29998
G01 X17.82002 Y23.29998
G01 X17.79076 Y23.30287
G01 X17.76262 Y23.31141
G01 X17.73668 Y23.32528
G01 X17.71395 Y23.34392
G01 X17.69528 Y23.36665
G01 X17.68144 Y23.39259
G01 X17.67291 Y23.42073
G01 X17.67001 Y23.44999
G01 X17.67001 Y25.04999
G01 X17.67291 Y25.07925
G01 X17.68144 Y25.10739
G01 X17.69528 Y25.13333
G01 X17.71395 Y25.15606
G01 X17.73668 Y25.17470
G01 X17.76262 Y25.18857
G01 X17.79076 Y25.19710
G01 X17.82002 Y25.19997
G01 X19.42002 Y25.19997
G01 X19.44930 Y25.19710
G01 X19.47742 Y25.18857
G01 X19.50336 Y25.17470
G01 X19.52609 Y25.15606
G01 X19.54473 Y25.13333
G01 X19.55860 Y25.10739
G01 X19.56714 Y25.07925
G01 X19.57003 Y25.04999
G01 X19.57003 Y23.44999
G04 P0 ( dwell for no time -- G64 should not smooth over this point )
G00 Z5.00000 ( retract )

G00 X17.27504 Y25.26086 ( rapid move to begin. )
G01 F200.00000
( Mill infeed pass 1/1 )
G01 Z-0.15000
G04 P0 ( dwell for no time -- G64 should not smooth over this point )
G01 F200.00000
G01 X17.27504 Y25.26086
G01 X17.27504 Y25.49817
G01 X17.21332 Y25.54882
G01 X17.10961 Y25.60427
G01 X16.99706 Y25.63838
G01 X16.92355 Y25.64564
G01 X16.90600 Y25.62730
G01 X16.92355 Y25.64564
G01 X16.91032 Y25.72913
G01 X16.87207 Y25.85679
G01 X16.85706 Y25.89306
G01 X16.79381 Y26.01036
G01 X16.73849 Y26.08656
G01 X16.68101 Y26.15098
G01 X15.83100 Y27.00096
G01 X15.74952 Y27.07160
G01 X15.65173 Y27.13693
G01 X15.60849 Y27.16004
G01 X15.49983 Y27.20503
G01 X15.45295 Y27.21927
G01 X15.33760 Y27.24221
G01 X15.23001 Y27.24991
G01 X7.51001 Y27.24991
G01 X7.40244 Y27.24221
G01 X7.32355 Y27.22839
G01 X7.26439 Y27.19418
G01 X7.12378 Y27.09761
G01 X7.03274 Y27.02291
G01 X6.95665 Y26.95202
G01 X4.24398 Y24.23935
G01 X4.17308 Y24.16325
G01 X4.09838 Y24.07221
G01 X4.00181 Y23.93160
G01 X3.96760 Y23.87247
G01 X3.95378 Y23.79355
G01 X3.94608 Y23.68598
G01 X3.94608 Y16.45516
G01 X3.96178 Y16.44736
G01 X3.94608 Y16.45516
G01 X3.81334 Y16.35465
G01 X3.76895 Y16.31025
G01 X3.60354 Y16.12163
G01 X3.47527 Y15.90601
G01 X3.44675 Y15.85006
G01 X3.41812 Y15.77261
G01 X3.39363 Y15.61790
G01 X3.37989 Y15.48762
G01 X3.37022 Y15.30345
G01 X3.37022 Y15.17655
G01 X3.37989 Y14.99232
G01 X3.39363 Y14.86205
G01 X3.41812 Y14.70739
G01 X3.44675 Y14.62992
G01 X3.56933 Y14.41102
G01 X3.60354 Y14.35834
G01 X3.76895 Y14.16972
G01 X3.81334 Y14.12532
G01 X3.92635 Y14.03916
G01 X5.72368 Y14.05077
G01 X5.82068 Y14.12532
G01 X5.86508 Y14.16972
G01 X6.03048 Y14.35834
G01 X6.15875 Y14.57396
G01 X6.18728 Y14.62992
G01 X6.20978 Y14.68854
G01 X6.28418 Y14.92814
G01 X6.31367 Y15.17729
G01 X6.31695 Y15.24000
G01 X6.31367 Y15.30269
G01 X6.29401 Y15.48981
G01 X6.28418 Y15.55184
G01 X6.26792 Y15.61249
G01 X6.18728 Y15.85006
G01 X6.06470 Y16.06895
G01 X6.03048 Y16.12163
G01 X5.86508 Y16.31025
G01 X5.82068 Y16.35465
G01 X5.64598 Y16.48564
G01 X5.63013 Y16.47772
G01 X5.64598 Y16.48564
G01 X5.64598 Y23.33391
G01 X5.63455 Y23.33864
G01 X5.64598 Y23.33391
G01 X6.92154 Y24.60948
G01 X7.11880 Y25.08489
G01 X7.20442 Y25.24686
G01 X7.32040 Y25.38961
G01 X7.46952 Y25.50935
G01 X7.63135 Y25.59413
G01 X7.81270 Y25.66924
G01 X7.84092 Y25.67744
G01 X9.26004 Y25.67516
G01 X9.51069 Y25.64897
G01 X9.73002 Y25.57831
G01 X9.94937 Y25.64897
G01 X10.20002 Y25.67496
G01 X11.80004 Y25.67516
G01 X12.05069 Y25.64897
G01 X12.27002 Y25.57831
G01 X12.48937 Y25.64897
G01 X12.74005 Y25.67496
G01 X14.34004 Y25.67516
G01 X14.59077 Y25.64925
G01 X14.83291 Y25.57097
G01 X14.86534 Y25.55001
G01 X14.87797 Y25.55001
G01 X14.90961 Y25.51839
G01 X15.00616 Y25.52162
G01 X14.90961 Y25.51839
G01 X14.88503 Y25.49817
G01 X14.88503 Y23.00178
G01 X14.94670 Y22.95116
G01 X15.05043 Y22.89571
G01 X15.16298 Y22.86157
G01 X15.20009 Y22.85792
G01 X15.23176 Y22.88258
G01 X15.20009 Y22.85792
G01 X15.20009 Y16.66761
G01 X15.21632 Y16.65938
G01 X15.20009 Y16.66761
G01 X15.11510 Y16.60914
G01 X15.06628 Y16.56961
G01 X14.98691 Y16.48638
G01 X14.94741 Y16.43756
G01 X14.88706 Y16.33964
G01 X14.85856 Y16.28369
G01 X14.81990 Y16.17535
G01 X14.80364 Y16.11470
G01 X14.78835 Y16.00070
G01 X14.78508 Y15.93799
G01 X14.78508 Y14.68798
G01 X14.78835 Y14.62527
G01 X14.80364 Y14.51127
G01 X14.83606 Y14.40091
G01 X14.85856 Y14.34229
G01 X14.88706 Y14.28633
G01 X14.94741 Y14.18841
G01 X14.98691 Y14.13960
G01 X15.06628 Y14.05636
G01 X15.15737 Y13.98613
G01 X15.21004 Y13.95192
G01 X15.31375 Y13.90216
G01 X15.37238 Y13.87965
G01 X15.48414 Y13.85252
G01 X15.54616 Y13.84270
G01 X15.60888 Y13.83942
G01 X16.46115 Y13.83942
G01 X16.52386 Y13.84270
G01 X16.58589 Y13.85252
G01 X16.69765 Y13.87965
G01 X16.75630 Y13.90216
G01 X16.85998 Y13.95192
G01 X16.95492 Y14.01684
G01 X17.00374 Y14.05636
G01 X17.04814 Y14.10076
G01 X17.12264 Y14.18841
G01 X17.18296 Y14.28633
G01 X17.21146 Y14.34229
G01 X17.25012 Y14.45062
G01 X17.26638 Y14.51127
G01 X17.27621 Y14.57330
G01 X17.28495 Y14.68798
G01 X17.28495 Y15.93799
G01 X17.28167 Y16.00070
G01 X17.26638 Y16.11470
G01 X17.25012 Y16.17535
G01 X17.21146 Y16.28369
G01 X17.18296 Y16.33964
G01 X17.12264 Y16.43756
G01 X17.08312 Y16.48638
G01 X17.00374 Y16.56961
G01 X16.89998 Y16.64807
G01 X16.88573 Y16.64139
G01 X16.89998 Y16.64807
G01 X16.89998 Y22.85202
G01 X16.86112 Y22.88723
G01 X16.89998 Y22.85202
G01 X16.99706 Y22.86157
G01 X17.10961 Y22.89571
G01 X17.21332 Y22.95116
G01 X17.27504 Y23.00181
G01 X17.27504 Y23.23912
G01 X17.25414 Y23.20000
G01 X17.19818 Y23.13181
G01 X17.13001 Y23.07585
G01 X17.05221 Y23.03427
G01 X16.96780 Y23.00867
G01 X16.88002 Y23.00003
G01 X16.75000 Y23.00003
G01 X16.70816 Y23.04024
G01 X16.75000 Y23.00003
G01 X16.75000 Y16.56199
G01 X16.73250 Y16.55272
G01 X16.75000 Y16.56199
G01 X16.82449 Y16.51851
G01 X16.90339 Y16.45816
G01 X16.97166 Y16.38602
G01 X17.02693 Y16.30992
G01 X17.07446 Y16.22268
G01 X17.11967 Y16.08351
G01 X17.13498 Y15.93799
G01 X17.13498 Y14.68798
G01 X17.11967 Y14.54247
G01 X17.07446 Y14.40330
G01 X17.02693 Y14.31605
G01 X16.97166 Y14.23995
G01 X16.90339 Y14.16782
G01 X16.82449 Y14.10746
G01 X16.74304 Y14.06042
G01 X16.65132 Y14.02227
G01 X16.55470 Y13.99924
G01 X16.46115 Y13.98941
G01 X15.60888 Y13.98941
G01 X15.51533 Y13.99924
G01 X15.41871 Y14.02227
G01 X15.28503 Y14.08181
G01 X15.16664 Y14.16782
G01 X15.09836 Y14.23995
G01 X15.06874 Y14.27655
G01 X15.01695 Y14.36131
G01 X14.97868 Y14.44727
G01 X14.95036 Y14.54247
G01 X14.93506 Y14.68798
G01 X14.93506 Y15.93799
G01 X14.95036 Y16.08351
G01 X14.99557 Y16.22268
G01 X15.04309 Y16.30992
G01 X15.09836 Y16.38602
G01 X15.16664 Y16.45816
G01 X15.24553 Y16.51851
G01 X15.28503 Y16.54416
G01 X15.35008 Y16.57584
G01 X15.36956 Y16.56479
G01 X15.35008 Y16.57584
G01 X15.35008 Y23.00003
G01 X15.39115 Y23.03892
G01 X15.35008 Y23.00003
G01 X15.28002 Y23.00003
G01 X15.19224 Y23.00867
G01 X15.10781 Y23.03427
G01 X15.03004 Y23.07585
G01 X14.96184 Y23.13181
G01 X14.90588 Y23.20000
G01 X14.88503 Y23.23904
G01 X14.88503 Y25.26093
G01 X14.90588 Y25.29997
G01 X14.96184 Y25.36815
G01 X15.03004 Y25.42410
G01 X15.10781 Y25.46568
G01 X15.15891 Y25.48118
G01 X15.27215 Y25.46010
G01 X15.15891 Y25.48118
G01 X14.94009 Y25.70000
G01 X14.94482 Y25.71138
G01 X14.94009 Y25.70000
G01 X7.79995 Y25.70000
G01 X7.79523 Y25.71138
G01 X7.79995 Y25.70000
G01 X7.73846 Y25.63848
G01 X7.62512 Y25.59121
G01 X7.45662 Y25.50206
G01 X7.31984 Y25.39017
G01 X7.20356 Y25.24742
G01 X7.11880 Y25.08489
G01 X7.07153 Y24.97155
G01 X5.49599 Y23.39604
G01 X5.48459 Y23.40077
G01 X5.49599 Y23.39604
G01 X5.49599 Y16.40649
G01 X5.47969 Y16.39819
G01 X5.49599 Y16.40649
G01 X5.72030 Y16.24320
G01 X5.87951 Y16.07007
G01 X5.93480 Y15.99397
G01 X6.02888 Y15.83103
G01 X6.06714 Y15.74510
G01 X6.13747 Y15.52067
G01 X6.16698 Y15.24000
G01 X6.13747 Y14.95930
G01 X6.06714 Y14.73487
G01 X6.02888 Y14.64894
G01 X5.90915 Y14.44650
G01 X5.75363 Y14.27008
G01 X5.68370 Y14.20713
G01 X5.53150 Y14.09654
G01 X5.49201 Y14.07089
G01 X5.44783 Y14.04854
G01 X4.20219 Y14.04140
G01 X4.14202 Y14.07089
G01 X4.10252 Y14.09654
G01 X3.91373 Y14.23678
G01 X3.72488 Y14.44650
G01 X3.58375 Y14.69090
G01 X3.49656 Y14.95930
G01 X3.46704 Y15.24000
G01 X3.49656 Y15.52067
G01 X3.58375 Y15.78907
G01 X3.72488 Y16.03347
G01 X3.91373 Y16.24320
G01 X4.09607 Y16.37873
G01 X4.11205 Y16.37071
G01 X4.09607 Y16.37873
G01 X4.09607 Y23.68598
G01 X4.10303 Y23.77884
G01 X4.12025 Y23.86536
G01 X4.14936 Y23.95383
G01 X4.19135 Y24.03696
G01 X4.24034 Y24.11031
G01 X4.30108 Y24.18093
G01 X7.01507 Y26.89492
G01 X7.12114 Y26.98196
G01 X7.20224 Y27.02776
G01 X7.28375 Y27.06152
G01 X7.33063 Y27.07574
G01 X7.41715 Y27.09296
G01 X7.51001 Y27.09992
G01 X15.23001 Y27.09992
G01 X15.32290 Y27.09296
G01 X15.40941 Y27.07574
G01 X15.45630 Y27.06152
G01 X15.53781 Y27.02776
G01 X15.58101 Y27.00467
G01 X15.65437 Y26.95565
G01 X15.72495 Y26.89492
G01 X16.57496 Y26.04491
G01 X16.62444 Y25.98915
G01 X16.66595 Y25.93200
G01 X16.71850 Y25.83566
G01 X16.75533 Y25.73228
G01 X16.76447 Y25.69411
G01 X16.77552 Y25.62438
G01 X16.77999 Y25.49995
G01 X16.74728 Y25.46520
G01 X16.77999 Y25.49995
G01 X16.88002 Y25.49995
G01 X16.96780 Y25.49131
G01 X17.05221 Y25.46568
G01 X17.13001 Y25.42410
G01 X17.19818 Y25.36815
G01 X17.25414 Y25.29997
G01 X17.27504 Y25.26086
G01 X17.27504 Y23.23912
G01 X17.17999 Y23.44999
G01 X17.17999 Y25.04999
G01 X17.17423 Y25.10851
G01 X17.15716 Y25.16480
G01 X17.12945 Y25.21664
G01 X17.09213 Y25.26210
G01 X17.04667 Y25.29942
G01 X16.99480 Y25.32713
G01 X16.93854 Y25.34420
G01 X16.88002 Y25.34996
G01 X16.63001 Y25.34996
G01 X16.58952 Y25.30798
G01 X16.63001 Y25.34996
G01 X16.63001 Y25.54999
G01 X16.62602 Y25.61260
G01 X16.60948 Y25.69726
G01 X16.57992 Y25.77828
G01 X16.55856 Y25.82019
G01 X16.51040 Y25.89174
G01 X16.46892 Y25.93886
G01 X15.61891 Y26.78887
G01 X15.55922 Y26.83972
G01 X15.51032 Y26.87239
G01 X15.46709 Y26.89550
G01 X15.41276 Y26.91801
G01 X15.36587 Y26.93223
G01 X15.30819 Y26.94368
G01 X15.23001 Y26.94993
G01 X7.51001 Y26.94993
G01 X7.43185 Y26.94368
G01 X7.37417 Y26.93223
G01 X7.32728 Y26.91798
G01 X7.27295 Y26.89550
G01 X7.20447 Y26.85725
G01 X7.12114 Y26.78885
G01 X4.40715 Y24.07486
G01 X4.35627 Y24.01517
G01 X4.32360 Y23.96627
G01 X4.30049 Y23.92304
G01 X4.27801 Y23.86871
G01 X4.25663 Y23.79327
G01 X4.24606 Y23.68598
G01 X4.24606 Y16.29385
G01 X4.26303 Y16.28501
G01 X4.24606 Y16.29385
G01 X4.21804 Y16.27977
G01 X4.01408 Y16.13174
G01 X3.86597 Y15.96972
G01 X3.82912 Y15.91899
G01 X3.72079 Y15.72806
G01 X3.65139 Y15.51981
G01 X3.63834 Y15.45847
G01 X3.61703 Y15.24000
G01 X3.64327 Y14.99050
G01 X3.70953 Y14.78123
G01 X3.73504 Y14.72392
G01 X3.84621 Y14.53467
G01 X3.99186 Y14.37043
G01 X4.03846 Y14.32847
G01 X4.21703 Y14.20078
G01 X4.44621 Y14.09873
G01 X4.69157 Y14.04658
G01 X4.94245 Y14.04658
G01 X5.18781 Y14.09873
G01 X5.38903 Y14.18651
G01 X5.44334 Y14.21788
G01 X5.59556 Y14.32847
G01 X5.64217 Y14.37043
G01 X5.78781 Y14.53467
G01 X5.89899 Y14.72392
G01 X5.92449 Y14.78123
G01 X5.99076 Y14.99050
G01 X6.01535 Y15.20863
G01 X6.01535 Y15.27134
G01 X5.99569 Y15.45847
G01 X5.98263 Y15.51981
G01 X5.91324 Y15.72806
G01 X5.80491 Y15.91899
G01 X5.76805 Y15.96972
G01 X5.64217 Y16.10954
G01 X5.59556 Y16.15150
G01 X5.41700 Y16.27919
G01 X5.34601 Y16.31262
G01 X5.32421 Y16.29936
G01 X5.34601 Y16.31262
G01 X5.34601 Y23.45817
G01 X5.33460 Y23.46289
G01 X5.34601 Y23.45817
G01 X7.73782 Y25.84999
G01 X7.73310 Y25.86139
G01 X7.73782 Y25.84999
G01 X15.00222 Y25.84999
G01 X15.00695 Y25.86139
G01 X15.00222 Y25.84999
G01 X15.50225 Y25.34996
G01 X15.68002 Y25.27846
