( pcb2gcode 2.5.0 )
( Software-independent Gcode )

( This file uses only one drill bit. Forced by 'onedrill' option )

G94       (Millimeters per minute feed rate.)
G21       (Units == Millimeters.)
G91.1     (Incremental arc distance mode.)
G90       (Absolute coordinates.)
G00 S1000     (RPM spindle speed.)

G00 Z40.00000 (Retract)
T1
M5      (Spindle stop.)
G04 P1.00000
(MSG, Change tool bit to drill size 1mm)
M0      (Temporary machine stop.)
M3      (Spindle on clockwise.)
G0 Z5.00000
G04 P1.00000

G1 F200.00000
G0 X8.46000 Y49.15000
G1 Z-1.80000
G1 Z5.00000
G0 X11.00000 Y49.15000
G1 Z-1.80000
G1 Z5.00000
G0 X13.54000 Y49.15000
G1 Z-1.80000
G1 Z5.00000
G0 X16.08000 Y49.15000
G1 Z-1.80000
G1 Z5.00000
G0 X18.62000 Y49.15000
G1 Z-1.80000
G1 Z5.00000
G0 X21.16000 Y49.15000
G1 Z-1.80000
G1 Z5.00000
G0 X23.70000 Y49.15000
G1 Z-1.80000
G1 Z5.00000
G0 X26.24000 Y49.15000
G1 Z-1.80000
G1 Z5.00000
G0 X28.78000 Y49.15000
G1 Z-1.80000
G1 Z5.00000
G0 X31.32000 Y49.15000
G1 Z-1.80000
G1 Z5.00000
G0 X33.86000 Y49.15000
G1 Z-1.80000
G1 Z5.00000
G0 X36.40000 Y49.15000
G1 Z-1.80000
G1 Z5.00000
G0 X38.94000 Y49.15000
G1 Z-1.80000
G1 Z5.00000
G0 X41.48000 Y49.15000
G1 Z-1.80000
G1 Z5.00000
G0 X44.02000 Y49.15000
G1 Z-1.80000
G1 Z5.00000
G0 X46.56000 Y49.15000
G1 Z-1.80000
G1 Z5.00000
G0 X49.10000 Y49.15000
G1 Z-1.80000
G1 Z5.00000
G0 X51.64000 Y49.15000
G1 Z-1.80000
G1 Z5.00000
G0 X54.18000 Y49.15000
G1 Z-1.80000
G1 Z5.00000
G0 X56.72000 Y49.15000
G1 Z-1.80000
G1 Z5.00000
G0 X59.26000 Y49.15000
G1 Z-1.80000
G1 Z5.00000
G0 X61.80000 Y49.15000
G1 Z-1.80000
G1 Z5.00000
G0 X66.25000 Y44.25000
G1 Z-1.80000
G1 Z5.00000
G0 X66.25000 Y38.05000
G1 Z-1.80000
G1 Z5.00000
G0 X66.25000 Y35.51000
G1 Z-1.80000
G1 Z5.00000
G0 X66.25000 Y32.97000
G1 Z-1.80000
G1 Z5.00000
G0 X66.25000 Y23.75000
G1 Z-1.80000
G1 Z5.00000
G0 X61.80000 Y23.75000
G1 Z-1.80000
G1 Z5.00000
G0 X59.26000 Y23.75000
G1 Z-1.80000
G1 Z5.00000
G0 X56.72000 Y23.75000
G1 Z-1.80000
G1 Z5.00000
G0 X54.18000 Y23.75000
G1 Z-1.80000
G1 Z5.00000
G0 X51.64000 Y23.75000
G1 Z-1.80000
G1 Z5.00000
G0 X49.10000 Y23.75000
G1 Z-1.80000
G1 Z5.00000
G0 X46.56000 Y23.75000
G1 Z-1.80000
G1 Z5.00000
G0 X44.02000 Y23.75000
G1 Z-1.80000
G1 Z5.00000
G0 X41.48000 Y23.75000
G1 Z-1.80000
G1 Z5.00000
G0 X38.94000 Y23.75000
G1 Z-1.80000
G1 Z5.00000
G0 X36.40000 Y23.75000
G1 Z-1.80000
G1 Z5.00000
G0 X33.86000 Y23.75000
G1 Z-1.80000
G1 Z5.00000
G0 X31.32000 Y23.75000
G1 Z-1.80000
G1 Z5.00000
G0 X28.78000 Y23.75000
G1 Z-1.80000
G1 Z5.00000
G0 X26.24000 Y23.75000
G1 Z-1.80000
G1 Z5.00000
G0 X23.70000 Y23.75000
G1 Z-1.80000
G1 Z5.00000
G0 X21.16000 Y23.75000
G1 Z-1.80000
G1 Z5.00000
G0 X18.62000 Y23.75000
G1 Z-1.80000
G1 Z5.00000
G0 X16.08000 Y23.75000
G1 Z-1.80000
G1 Z5.00000
G0 X13.54000 Y23.75000
G1 Z-1.80000
G1 Z5.00000
G0 X11.00000 Y23.75000
G1 Z-1.80000
G1 Z5.00000
G0 X8.46000 Y23.75000
G1 Z-1.80000
G1 Z5.00000
G0 X4.79600 Y14.80900
G1 Z-1.80000
G1 Z5.00000
G0 X4.79600 Y12.25000
G1 Z-1.80000
G1 Z5.00000
G0 X8.50000 Y14.79000
G1 Z-1.80000
G1 Z5.00000
G0 X8.50000 Y12.25000
G1 Z-1.80000
G1 Z5.00000
G0 X8.50000 Y9.71000
G1 Z-1.80000
G1 Z5.00000
G0 X8.50000 Y7.17000
G1 Z-1.80000
G1 Z5.00000
G0 X44.06000 Y17.33000
G1 Z-1.80000
G1 Z5.00000
G0 X44.06000 Y14.79000
G1 Z-1.80000
G1 Z5.00000
G0 X44.06000 Y12.25000
G1 Z-1.80000
G1 Z5.00000
G0 X44.06000 Y9.71000
G1 Z-1.80000
G1 Z5.00000
G0 X44.06000 Y7.17000
G1 Z-1.80000
G1 Z5.00000
G0 X44.06000 Y4.63000
G1 Z-1.80000
G1 Z5.00000

G00 Z40.000 ( All done -- retract )

M5      (Spindle off.)
G04 P1.000000
M9      (Coolant off.)
M2      (Program end.)

