( pcb2gcode 2.5.0 )
( Software-independent Gcode )

G94 ( Millimeters per minute feed rate. )
G21 ( Units == Millimeters. )

G90 ( Absolute coordinates. )
G00 S1000 ( RPM spindle speed. )
G01 F50.00000 ( Feedrate. )


G00 Z40.00000 (Retract to tool change height)
T0
M5      (Spindle stop.)
G04 P1.00000 (Wait for spindle to stop)
(MSG, Change tool bit to cutter diameter 1.00000mm)
M0      (Temporary machine stop.)
M3 ( Spindle on clockwise. )
G04 P1.00000 (Wait for spindle to get up to speed)
G04 P0 ( dwell for no time -- G64 should not smooth over this point )
G00 Z5.00000 ( retract )

G00 X71.50000 Y0.50000 ( rapid move to begin. )
G01 Z-0.56667 F50.00000 ( plunge. )
G04 P0 ( dwell for no time -- G64 should not smooth over this point )
G01 F50.00000
G01 X71.50000 Y24.74999
G00 Z5.00000
G01 X71.50000 Y26.24999
G01 Z-0.56667 F50.00000
G01 F50.00000
G01 X71.50000 Y50.49998
G01 X71.49037 Y50.59751
G01 X71.46192 Y50.69131
G01 X71.41572 Y50.77775
G01 X71.35354 Y50.85352
G01 X71.27777 Y50.91570
G01 X71.19134 Y50.96190
G01 X71.09754 Y50.99035
G01 X71.00000 Y50.99998
G01 X36.75001 Y50.99998
G00 Z5.00000
G01 X35.25001 Y50.99998
G01 Z-0.56667 F50.00000
G01 F50.00000
G01 X1.00001 Y50.99998
G01 X0.90248 Y50.99035
G01 X0.80867 Y50.96190
G01 X0.72224 Y50.91570
G01 X0.64647 Y50.85352
G01 X0.58429 Y50.77775
G01 X0.53809 Y50.69131
G01 X0.50964 Y50.59751
G01 X0.50001 Y50.49998
G01 X0.50001 Y26.24999
G00 Z5.00000
G01 X0.50001 Y24.74999
G01 Z-0.56667 F50.00000
G01 F50.00000
G01 X0.50001 Y0.50000
G01 X0.50964 Y0.40246
G01 X0.53809 Y0.30866
G01 X0.58429 Y0.22223
G01 X0.64647 Y0.14646
G01 X0.72224 Y0.08428
G01 X0.80867 Y0.03808
G01 X0.90248 Y0.00963
G01 X1.00001 Y0.00000
G01 X35.25001 Y0.00000
G00 Z5.00000
G01 X36.75001 Y0.00000
G01 Z-0.56667 F50.00000
G01 F50.00000
G01 X71.00000 Y0.00000
G01 X71.09754 Y0.00963
G01 X71.19134 Y0.03808
G01 X71.27777 Y0.08428
G01 X71.35354 Y0.14646
G01 X71.41572 Y0.22223
G01 X71.46192 Y0.30866
G01 X71.49037 Y0.40246
G01 X71.50000 Y0.50000
G01 Z-1.13333 F50.00000 ( plunge. )
G04 P0 ( dwell for no time -- G64 should not smooth over this point )
G01 F50.00000
G01 X71.50000 Y24.74999
G00 Z5.00000
G01 X71.50000 Y26.24999
G01 Z-1.13333 F50.00000
G01 F50.00000
G01 X71.50000 Y50.49998
G01 X71.49037 Y50.59751
G01 X71.46192 Y50.69131
G01 X71.41572 Y50.77775
G01 X71.35354 Y50.85352
G01 X71.27777 Y50.91570
G01 X71.19134 Y50.96190
G01 X71.09754 Y50.99035
G01 X71.00000 Y50.99998
G01 X36.75001 Y50.99998
G00 Z5.00000
G01 X35.25001 Y50.99998
G01 Z-1.13333 F50.00000
G01 F50.00000
G01 X1.00001 Y50.99998
G01 X0.90248 Y50.99035
G01 X0.80867 Y50.96190
G01 X0.72224 Y50.91570
G01 X0.64647 Y50.85352
G01 X0.58429 Y50.77775
G01 X0.53809 Y50.69131
G01 X0.50964 Y50.59751
G01 X0.50001 Y50.49998
G01 X0.50001 Y26.24999
G00 Z5.00000
G01 X0.50001 Y24.74999
G01 Z-1.13333 F50.00000
G01 F50.00000
G01 X0.50001 Y0.50000
G01 X0.50964 Y0.40246
G01 X0.53809 Y0.30866
G01 X0.58429 Y0.22223
G01 X0.64647 Y0.14646
G01 X0.72224 Y0.08428
G01 X0.80867 Y0.03808
G01 X0.90248 Y0.00963
G01 X1.00001 Y0.00000
G01 X35.25001 Y0.00000
G00 Z5.00000
G01 X36.75001 Y0.00000
G01 Z-1.13333 F50.00000
G01 F50.00000
G01 X71.00000 Y0.00000
G01 X71.09754 Y0.00963
G01 X71.19134 Y0.03808
G01 X71.27777 Y0.08428
G01 X71.35354 Y0.14646
G01 X71.41572 Y0.22223
G01 X71.46192 Y0.30866
G01 X71.49037 Y0.40246
G01 X71.50000 Y0.50000
G01 Z-1.70000 F50.00000 ( plunge. )
G04 P0 ( dwell for no time -- G64 should not smooth over this point )
G01 F50.00000
G01 X71.50000 Y24.74999
G00 Z5.00000
G01 X71.50000 Y26.24999
G01 Z-1.70000 F50.00000
G01 F50.00000
G01 X71.50000 Y50.49998
G01 X71.49037 Y50.59751
G01 X71.46192 Y50.69131
G01 X71.41572 Y50.77775
G01 X71.35354 Y50.85352
G01 X71.27777 Y50.91570
G01 X71.19134 Y50.96190
G01 X71.09754 Y50.99035
G01 X71.00000 Y50.99998
G01 X36.75001 Y50.99998
G00 Z5.00000
G01 X35.25001 Y50.99998
G01 Z-1.70000 F50.00000
G01 F50.00000
G01 X1.00001 Y50.99998
G01 X0.90248 Y50.99035
G01 X0.80867 Y50.96190
G01 X0.72224 Y50.91570
G01 X0.64647 Y50.85352
G01 X0.58429 Y50.77775
G01 X0.53809 Y50.69131
G01 X0.50964 Y50.59751
G01 X0.50001 Y50.49998
G01 X0.50001 Y26.24999
G00 Z5.00000
G01 X0.50001 Y24.74999
G01 Z-1.70000 F50.00000
G01 F50.00000
G01 X0.50001 Y0.50000
G01 X0.50964 Y0.40246
G01 X0.53809 Y0.30866
G01 X0.58429 Y0.22223
G01 X0.64647 Y0.14646
G01 X0.72224 Y0.08428
G01 X0.80867 Y0.03808
G01 X0.90248 Y0.00963
G01 X1.00001 Y0.00000
G01 X35.25001 Y0.00000
G00 Z5.00000
G01 X36.75001 Y0.00000
G01 Z-1.70000 F50.00000
G01 F50.00000
G01 X71.00000 Y0.00000
G01 X71.09754 Y0.00963
G01 X71.19134 Y0.03808
G01 X71.27777 Y0.08428
G01 X71.35354 Y0.14646
G01 X71.41572 Y0.22223
G01 X71.46192 Y0.30866
G01 X71.49037 Y0.40246
G01 X71.50000 Y0.50000

G04 P0 ( dwell for no time -- G64 should not smooth over this point )
G00 Z40.000000 ( retract )

M5 ( Spindle off. )
G04 P1.000000
M9 ( Coolant off. )
M2 ( Program end. )

