( pcb2gcode 2.5.0 )
( Software-independent Gcode )

G94 ( Millimeters per minute feed rate. )
G21 ( Units == Millimeters. )

G90 ( Absolute coordinates. )
G00 S1000 ( RPM spindle speed. )
G01 F75.00000 ( Feedrate. )


G00 Z40.00000 (Retract to tool change height)
T0
M5      (Spindle stop.)
G04 P1.00000 (Wait for spindle to stop)
(MSG, Change tool bit to cutter diameter 1.00000mm)
M0      (Temporary machine stop.)
M3 ( Spindle on clockwise. )
G04 P1.00000 (Wait for spindle to get up to speed)
G04 P0 ( dwell for no time -- G64 should not smooth over this point )
G00 Z5.00000 ( retract )

G00 X71.50003 Y1.00000 ( rapid move to begin. )
G01 Z-0.95000 F50.00000 ( plunge. )
G04 P0 ( dwell for no time -- G64 should not smooth over this point )
G01 F75.00000
G01 X71.50003 Y25.25000
G00 Z5.00000
G01 X71.50003 Y26.75000
G01 Z-0.95000 F50.00000
G01 F75.00000
G01 X71.50003 Y51.00000
G01 X71.49040 Y51.09754
G01 X71.46195 Y51.19134
G01 X71.41575 Y51.27777
G01 X71.35357 Y51.35354
G01 X71.27780 Y51.41572
G01 X71.19137 Y51.46192
G01 X71.09756 Y51.49037
G01 X71.00000 Y51.50000
G01 X36.75001 Y51.50000
G00 Z5.00000
G01 X35.25001 Y51.50000
G01 Z-0.95000 F50.00000
G01 F75.00000
G01 X1.00001 Y51.50000
G01 X0.90248 Y51.49037
G01 X0.80868 Y51.46192
G01 X0.72224 Y51.41572
G01 X0.64647 Y51.35354
G01 X0.58429 Y51.27777
G01 X0.53809 Y51.19134
G01 X0.50964 Y51.09754
G01 X0.50002 Y51.00000
G01 X0.50002 Y26.75000
G00 Z5.00000
G01 X0.50002 Y25.25000
G01 Z-0.95000 F50.00000
G01 F75.00000
G01 X0.50002 Y1.00000
G01 X0.50964 Y0.90244
G01 X0.53809 Y0.80863
G01 X0.58429 Y0.72220
G01 X0.64647 Y0.64643
G01 X0.72224 Y0.58425
G01 X0.80868 Y0.53805
G01 X0.90248 Y0.50960
G01 X1.00001 Y0.49997
G01 X35.25001 Y0.49997
G00 Z5.00000
G01 X36.75001 Y0.49997
G01 Z-0.95000 F50.00000
G01 F75.00000
G01 X71.00000 Y0.49997
G01 X71.09756 Y0.50960
G01 X71.19137 Y0.53805
G01 X71.27780 Y0.58425
G01 X71.35357 Y0.64643
G01 X71.41575 Y0.72220
G01 X71.46195 Y0.80863
G01 X71.49040 Y0.90244
G01 X71.50003 Y1.00000
G01 Z-1.90000 F50.00000 ( plunge. )
G04 P0 ( dwell for no time -- G64 should not smooth over this point )
G01 F75.00000
G01 X71.50003 Y25.25000
G00 Z5.00000
G01 X71.50003 Y26.75000
G01 Z-1.90000 F50.00000
G01 F75.00000
G01 X71.50003 Y51.00000
G01 X71.49040 Y51.09754
G01 X71.46195 Y51.19134
G01 X71.41575 Y51.27777
G01 X71.35357 Y51.35354
G01 X71.27780 Y51.41572
G01 X71.19137 Y51.46192
G01 X71.09756 Y51.49037
G01 X71.00000 Y51.50000
G01 X36.75001 Y51.50000
G00 Z5.00000
G01 X35.25001 Y51.50000
G01 Z-1.90000 F50.00000
G01 F75.00000
G01 X1.00001 Y51.50000
G01 X0.90248 Y51.49037
G01 X0.80868 Y51.46192
G01 X0.72224 Y51.41572
G01 X0.64647 Y51.35354
G01 X0.58429 Y51.27777
G01 X0.53809 Y51.19134
G01 X0.50964 Y51.09754
G01 X0.50002 Y51.00000
G01 X0.50002 Y26.75000
G00 Z5.00000
G01 X0.50002 Y25.25000
G01 Z-1.90000 F50.00000
G01 F75.00000
G01 X0.50002 Y1.00000
G01 X0.50964 Y0.90244
G01 X0.53809 Y0.80863
G01 X0.58429 Y0.72220
G01 X0.64647 Y0.64643
G01 X0.72224 Y0.58425
G01 X0.80868 Y0.53805
G01 X0.90248 Y0.50960
G01 X1.00001 Y0.49997
G01 X35.25001 Y0.49997
G00 Z5.00000
G01 X36.75001 Y0.49997
G01 Z-1.90000 F50.00000
G01 F75.00000
G01 X71.00000 Y0.49997
G01 X71.09756 Y0.50960
G01 X71.19137 Y0.53805
G01 X71.27780 Y0.58425
G01 X71.35357 Y0.64643
G01 X71.41575 Y0.72220
G01 X71.46195 Y0.80863
G01 X71.49040 Y0.90244
G01 X71.50003 Y1.00000

G04 P0 ( dwell for no time -- G64 should not smooth over this point )
G00 Z40.000000 ( retract )

M5 ( Spindle off. )
G04 P1.000000
M9 ( Coolant off. )
M2 ( Program end. )

