( pcb2gcode 2.5.0 )
( Software-independent Gcode )

G94 ( Millimeters per minute feed rate. )
G21 ( Units == Millimeters. )

G90 ( Absolute coordinates. )
G00 S1000 ( RPM spindle speed. )
G01 F50.00000 ( Feedrate. )


G00 Z40.00000 (Retract to tool change height)
T0
M5      (Spindle stop.)
G04 P1.00000 (Wait for spindle to stop)
(MSG, Change tool bit to mill diameter 0.50000mm)
M0      (Temporary machine stop.)
M3 ( Spindle on clockwise. )
G04 P1.00000 (Wait for spindle to get up to speed)
G04 P0 ( dwell for no time -- G64 should not smooth over this point )
G00 Z5.00000 ( retract )

G00 X1.84140 Y2.53743 ( rapid move to begin. )
G01 F50.00000
( Mill infeed pass 1/1 )
G01 Z-0.10000
G04 P0 ( dwell for no time -- G64 should not smooth over this point )
G01 F50.00000
G01 X1.84140 Y2.53743
G01 X1.87800 Y2.57404
G01 X6.35996 Y2.57404
G01 X6.37301 Y2.55389
G01 X6.35996 Y2.57404
G01 X6.55599 Y3.02049
G01 X6.79336 Y3.54627
G01 X7.14901 Y4.28396
G01 X7.54210 Y5.02001
G01 X8.06305 Y5.87548
G01 X8.10509 Y5.93862
G01 X8.46841 Y6.44561
G01 X8.97346 Y7.11223
G01 X9.24070 Y7.52244
G01 X9.42845 Y7.92617
G01 X9.54021 Y8.32658
G01 X9.57743 Y8.73074
G01 X9.57740 Y10.32175
G01 X9.56559 Y10.54710
G01 X9.54646 Y10.67003
G01 X9.57649 Y10.70280
G01 X9.54646 Y10.67003
G01 X1.87800 Y10.67003
G01 X1.84140 Y10.70663
G01 X1.87800 Y10.67003
G01 X1.87800 Y2.57404
G04 P0 ( dwell for no time -- G64 should not smooth over this point )
G00 Z5.00000 ( retract )

G00 X1.44562 Y10.82121 ( rapid move to begin. )
G01 F50.00000
( Mill infeed pass 1/1 )
G01 Z-0.10000
G04 P0 ( dwell for no time -- G64 should not smooth over this point )
G01 F50.00000
G01 X1.44562 Y10.82121
G01 X1.90495 Y10.91992
G01 X2.42773 Y11.15057
G01 X2.91798 Y11.37397
G01 X3.63390 Y11.72878
G01 X4.25595 Y12.08133
G01 X4.89354 Y12.50384
G01 X5.23133 Y12.76693
G01 X5.53166 Y13.01590
G01 X5.80461 Y13.21003
G01 X5.80271 Y13.21595
G01 X5.80461 Y13.21003
G01 X9.45182 Y13.21003
G01 X9.45340 Y13.21524
G01 X9.45182 Y13.21003
G01 X9.53839 Y13.15336
G01 X9.54118 Y13.15593
G01 X9.53839 Y13.15336
G01 X9.56173 Y13.11102
G01 X9.56473 Y13.11189
G01 X9.56173 Y13.11102
G01 X9.57735 Y12.86111
G01 X9.57740 Y11.26820
G01 X9.56559 Y11.04285
G01 X9.54646 Y10.91992
G01 X9.57649 Y10.88715
G01 X9.54646 Y10.91992
G01 X1.90495 Y10.91992
G01 X1.87800 Y11.18184
G01 X2.32639 Y11.37902
G01 X2.91356 Y11.64829
G01 X3.51419 Y11.94811
G01 X4.04724 Y12.24750
G01 X4.12506 Y12.29423
G01 X4.75280 Y12.71019
G01 X5.07482 Y12.96177
G01 X5.38348 Y13.21719
G01 X5.69229 Y13.43680
G01 X5.72671 Y13.45400
G01 X5.76471 Y13.45992
G01 X9.48908 Y13.45992
G01 X9.53620 Y13.45072
G01 X9.55754 Y13.43952
G01 X9.70125 Y13.34544
G01 X9.73102 Y13.31813
G01 X9.74220 Y13.30124
G01 X9.79411 Y13.20714
G01 X9.80691 Y13.17280
G01 X9.82718 Y12.86497
G01 X9.82703 Y11.25850
G01 X9.81352 Y11.01075
G01 X9.77847 Y10.79497
G01 X9.81352 Y10.57920
G01 X9.82703 Y10.33145
G01 X9.82718 Y8.72498
G01 X9.78347 Y8.27037
G01 X9.66605 Y7.84934
G01 X9.45472 Y7.39371
G01 X9.17626 Y6.96628
G01 X8.67019 Y6.29813
G01 X8.31177 Y5.79813
G01 X8.27512 Y5.74324
G01 X7.75901 Y4.89593
G01 X7.37083 Y4.16888
G01 X7.01987 Y3.44073
G01 X6.63288 Y2.57404
G01 X6.54507 Y2.51709
G01 X6.63288 Y2.57404
G01 X71.62785 Y2.57404
G01 X71.66445 Y2.53743
G01 X71.62785 Y2.57404
G01 X71.62785 Y18.31896
G01 X71.66445 Y18.35554
G01 X71.62785 Y18.31896
G01 X64.08905 Y18.32044
G01 X64.07041 Y18.32480
G01 X64.03617 Y18.34180
G01 X63.73452 Y18.55445
G01 X63.41651 Y18.84020
G01 X61.82289 Y20.43412
G01 X61.82601 Y20.47316
G01 X61.82289 Y20.43412
G01 X61.35667 Y20.09711
G01 X60.92866 Y19.83428
G01 X60.49937 Y19.61319
G01 X60.27743 Y19.51515
G01 X57.86585 Y18.51632
G01 X57.69496 Y18.45175
G01 X57.46572 Y18.38185
G01 X57.19432 Y18.32460
G01 X56.93024 Y18.29549
G01 X56.77184 Y18.29006
G01 X55.69171 Y18.29003
G01 X55.69085 Y18.29359
G01 X55.69171 Y18.29003
G01 X55.48008 Y18.18038
G01 X55.23903 Y18.09153
G01 X54.99636 Y18.03847
G01 X54.76237 Y18.02133
G01 X53.18755 Y18.02133
G01 X52.91699 Y18.04419
G01 X52.70497 Y18.09526
G01 X52.70497 Y18.09864
G01 X52.70497 Y18.09526
G01 X52.49291 Y18.04419
G01 X52.22237 Y18.02135
G01 X50.64757 Y18.02135
G01 X50.37701 Y18.04419
G01 X50.16497 Y18.09526
G01 X50.16497 Y18.09864
G01 X50.16497 Y18.09526
G01 X49.95296 Y18.04419
G01 X49.68237 Y18.02135
G01 X48.10757 Y18.02135
G01 X47.87362 Y18.03847
G01 X47.63094 Y18.09153
G01 X47.38990 Y18.18038
G01 X47.17826 Y18.29003
G01 X47.17913 Y18.29356
G01 X47.17826 Y18.29003
G01 X41.35516 Y18.29003
G01 X41.31767 Y18.29577
G01 X41.28364 Y18.31251
G01 X40.99085 Y18.51688
G01 X40.67310 Y18.80288
G01 X40.65608 Y18.83067
G01 X40.48054 Y19.19417
G01 X40.25433 Y19.55279
G01 X39.97350 Y19.91352
G01 X39.63614 Y20.27758
G01 X39.51458 Y20.39922
G01 X39.20152 Y20.73095
G01 X38.92151 Y21.06079
G01 X38.92697 Y21.07286
G01 X38.92151 Y21.06079
G01 X38.59573 Y21.06074
G01 X38.28484 Y21.05061
G01 X38.24895 Y21.08594
G01 X38.28484 Y21.05061
G01 X38.28484 Y15.85145
G01 X38.28047 Y15.85026
G01 X38.28484 Y15.85145
G01 X38.30030 Y15.82501
G01 X38.29210 Y15.81229
G01 X38.30030 Y15.82501
G01 X38.42192 Y15.80418
G01 X38.59726 Y15.79418
G01 X39.72215 Y15.79410
G01 X39.92143 Y15.80685
G01 X40.11747 Y15.84482
G01 X40.31470 Y15.90921
G01 X40.51953 Y16.00223
G01 X40.57119 Y16.01340
G01 X41.30281 Y16.01340
G01 X41.32565 Y16.01130
G01 X41.35798 Y15.99903
G01 X45.05439 Y15.99844
G01 X45.07306 Y15.99408
G01 X45.10730 Y15.97706
G01 X45.41131 Y15.76144
G01 X45.70834 Y15.49334
G01 X46.35518 Y14.84648
G01 X46.38225 Y14.80596
G01 X46.39178 Y14.75814
G01 X46.39178 Y13.80498
G01 X46.36613 Y13.33497
G01 X46.39178 Y12.86497
G01 X46.39178 Y11.26498
G01 X46.36613 Y10.79497
G01 X46.39178 Y10.32497
G01 X46.39178 Y8.72498
G01 X46.36940 Y8.28756
G01 X46.35675 Y8.25261
G01 X46.33062 Y8.20433
G01 X46.16734 Y7.73717
G01 X45.50461 Y6.13715
G01 X45.28784 Y5.72132
G01 X45.15703 Y5.53799
G01 X45.01909 Y5.37868
G01 X44.98795 Y5.35275
G01 X44.75919 Y5.26326
G01 X44.54771 Y5.20560
G01 X44.33552 Y5.17124
G01 X44.12999 Y5.16009
G01 X42.22999 Y5.16009
G01 X41.99720 Y5.17439
G01 X41.74274 Y5.22201
G01 X41.51775 Y5.29232
G01 X41.27995 Y5.39554
G01 X41.03426 Y5.53359
G01 X40.80129 Y5.69427
G01 X40.56964 Y5.88289
G01 X40.34175 Y6.09661
G01 X38.74173 Y7.69663
G01 X38.46985 Y7.98076
G01 X38.47376 Y7.99015
G01 X38.46985 Y7.98076
G01 X35.28822 Y7.98457
G01 X34.91641 Y7.99414
G01 X34.11921 Y8.07118
G01 X33.29823 Y8.23285
G01 X32.83862 Y8.35927
G01 X32.38505 Y8.51090
G01 X31.96036 Y8.67486
G01 X26.23091 Y11.04803
G01 X26.23091 Y11.05832
G01 X26.23091 Y11.04803
G01 X24.10188 Y10.16617
G01 X23.52921 Y9.94509
G01 X22.93295 Y9.74649
G01 X22.39134 Y9.59630
G01 X21.82172 Y9.46701
G01 X21.30699 Y9.37753
G01 X20.75891 Y9.30857
G01 X20.20156 Y9.26859
G01 X19.70783 Y9.25652
G01 X16.33088 Y9.25652
G01 X16.29227 Y9.26262
G01 X16.25745 Y9.28037
G01 X16.24254 Y9.29312
G01 X15.43494 Y10.10166
G01 X14.89240 Y10.45367
G01 X14.39916 Y10.80994
G01 X13.94887 Y11.17590
G01 X13.56190 Y11.53533
G01 X12.42939 Y12.66784
G01 X12.16091 Y12.97508
G01 X11.97859 Y13.26114
G01 X11.96122 Y13.30480
G01 X11.95901 Y13.32829
G01 X11.95901 Y15.94429
G01 X11.99063 Y15.97243
G01 X11.95901 Y15.94429
G01 X11.85009 Y15.96674
G01 X11.64587 Y15.98097
G01 X10.52180 Y15.98077
G01 X10.32386 Y15.96786
G01 X10.12934 Y15.92872
G01 X9.93330 Y15.86347
G01 X9.72962 Y15.76852
G01 X9.69521 Y15.75819
G01 X9.67725 Y15.75684
G01 X9.49889 Y15.75623
G01 X9.46150 Y15.75003
G01 X5.86171 Y15.75003
G01 X5.82102 Y15.75684
G01 X5.78475 Y15.77652
G01 X5.75688 Y15.80695
G01 X5.58742 Y16.06809
G01 X5.57047 Y16.10799
G01 X5.56745 Y16.12953
G01 X5.55625 Y16.34495
G01 X5.55625 Y17.94500
G01 X5.58295 Y18.27802
G01 X5.65346 Y18.58289
G01 X5.78274 Y18.91896
G01 X5.93227 Y19.19605
G01 X5.93603 Y19.19511
G01 X5.93227 Y19.19605
G01 X5.93227 Y23.38883
G01 X5.93491 Y23.38939
G01 X5.93227 Y23.38883
G01 X5.82226 Y23.63874
G01 X5.73131 Y23.92556
G01 X5.67411 Y24.22914
G01 X5.65663 Y24.51092
G01 X5.65663 Y26.41095
G01 X5.67578 Y26.70625
G01 X5.73039 Y26.99278
G01 X5.82028 Y27.27790
G01 X5.94497 Y27.56136
G01 X6.10408 Y27.84320
G01 X6.29128 Y28.11549
G01 X6.52432 Y28.40246
G01 X6.78241 Y28.67764
G01 X8.38241 Y30.27764
G01 X8.78141 Y30.65658
G01 X8.81233 Y30.67274
G01 X8.89427 Y30.70187
G01 X9.36295 Y30.91137
G01 X10.96294 Y31.57410
G01 X11.43196 Y31.75607
G01 X11.67643 Y31.86791
G01 X11.67831 Y31.86527
G01 X11.67643 Y31.86791
G01 X11.93780 Y32.14779
G01 X12.28301 Y32.54797
G01 X12.60958 Y32.96663
G01 X14.66987 Y35.79663
G01 X15.28511 Y36.58492
G01 X15.96479 Y37.36807
G01 X16.76349 Y38.20602
G01 X17.86697 Y39.30955
G01 X17.87990 Y39.30500
G01 X17.86697 Y39.30955
G01 X17.80637 Y39.84988
G01 X17.81307 Y39.85313
G01 X17.80637 Y39.84988
G01 X16.94241 Y40.71384
G01 X16.47241 Y41.19662
G01 X16.00363 Y41.65262
G01 X14.40241 Y43.25384
G01 X13.93243 Y43.74192
G01 X13.46241 Y44.19384
G01 X11.86241 Y45.79384
G01 X11.38961 Y46.29790
G01 X11.36457 Y46.33740
G01 X11.35581 Y46.38337
G01 X11.35581 Y52.32405
G01 X11.39228 Y52.36058
G01 X11.35581 Y52.32405
G01 X1.87800 Y52.32405
G01 X1.84140 Y52.36065
G01 X1.87800 Y52.32405
G01 X1.87800 Y11.18184
G01 X1.82088 Y11.09348
G04 P0 ( dwell for no time -- G64 should not smooth over this point )
G00 Z5.00000 ( retract )

G00 X11.53069 Y21.56559 ( rapid move to begin. )
G01 F50.00000
( Mill infeed pass 1/1 )
G01 Z-0.10000
G04 P0 ( dwell for no time -- G64 should not smooth over this point )
G01 F50.00000
G01 X11.53069 Y21.56559
G01 X11.60572 Y21.73775
G01 X11.60572 Y31.56102
G01 X11.58591 Y31.57372
G01 X11.60572 Y31.56102
G01 X11.68580 Y31.59768
G01 X11.70579 Y31.64873
G01 X11.68580 Y31.59768
G01 X11.83556 Y31.24568
G01 X12.24354 Y30.26070
G01 X12.58791 Y29.48092
G01 X12.88425 Y28.88176
G01 X13.18633 Y28.34965
G01 X13.44585 Y27.94841
G01 X13.77345 Y27.47007
G01 X13.89581 Y27.28138
G01 X13.90114 Y27.28298
G01 X13.89581 Y27.28138
G01 X13.89581 Y23.67544
G01 X13.90157 Y23.67364
G01 X13.89581 Y23.67544
G01 X13.71750 Y23.41969
G01 X13.41816 Y23.08888
G01 X13.04646 Y22.90790
G01 X12.65961 Y22.66099
G01 X12.27465 Y22.35942
G01 X11.60572 Y21.73775
G04 P0 ( dwell for no time -- G64 should not smooth over this point )
G00 Z5.00000 ( retract )

G00 X8.81581 Y30.34574 ( rapid move to begin. )
G01 F50.00000
( Mill infeed pass 1/1 )
G01 Z-0.10000
G04 P0 ( dwell for no time -- G64 should not smooth over this point )
G01 F50.00000
G01 X8.81581 Y30.34574
G01 X8.81581 Y23.60709
G01 X8.82165 Y23.56932
G01 X8.83867 Y23.53508
G01 X9.05424 Y23.23097
G01 X9.32241 Y22.93384
G01 X10.92241 Y21.33384
G01 X11.12373 Y21.13971
G01 X11.13328 Y21.14367
G01 X11.12373 Y21.13971
G01 X11.12403 Y20.72137
G01 X11.12581 Y20.70092
G01 X11.13920 Y20.66232
G01 X11.16429 Y20.63008
G01 X11.56612 Y20.25970
G01 X11.60534 Y20.23519
G01 X11.65080 Y20.22663
G01 X19.53687 Y20.22739
G01 X19.61906 Y20.28266
G01 X19.53687 Y20.22739
G01 X19.43671 Y19.96427
G01 X18.96958 Y18.83636
G01 X18.68868 Y18.24507
G01 X18.37085 Y17.72849
G01 X18.37342 Y17.72590
G01 X18.37085 Y17.72849
G01 X18.08660 Y17.55732
G01 X17.77997 Y17.39737
G01 X17.47403 Y17.26232
G01 X17.16877 Y17.15206
G01 X16.86410 Y17.06649
G01 X16.55991 Y17.00545
G01 X16.25610 Y16.96885
G01 X15.83599 Y16.95427
G01 X14.67140 Y16.47256
G01 X14.27356 Y16.45343
G01 X13.91338 Y16.38978
G01 X13.52540 Y16.28732
G01 X13.32522 Y16.24960
G01 X13.17419 Y16.23469
G01 X13.05532 Y16.23057
G01 X12.50917 Y16.23037
G01 X12.27562 Y16.21320
G01 X12.08395 Y16.17119
G01 X11.89228 Y16.21320
G01 X11.65873 Y16.23037
G01 X10.50935 Y16.23040
G01 X10.29914 Y16.21640
G01 X10.07275 Y16.17226
G01 X9.83424 Y16.09301
G01 X9.64954 Y16.00416
G01 X9.47110 Y16.00604
G01 X9.43442 Y15.99992
G01 X5.92955 Y15.99992
G01 X5.92132 Y15.98478
G01 X5.92955 Y15.99992
G01 X5.81523 Y16.17609
G01 X5.81020 Y16.17459
G01 X5.81523 Y16.17609
G01 X5.80614 Y16.34825
G01 X5.80614 Y17.94017
G01 X5.82821 Y18.23093
G01 X5.89465 Y18.51810
G01 X6.00644 Y18.80728
G01 X6.16717 Y19.10517
G01 X6.18048 Y19.14398
G01 X6.18216 Y19.16450
G01 X6.18216 Y23.41512
G01 X6.17156 Y23.46546
G01 X6.05376 Y23.73310
G01 X5.97190 Y23.99345
G01 X5.92303 Y24.25253
G01 X5.90654 Y24.51486
G01 X5.90654 Y26.40703
G01 X5.92282 Y26.66776
G01 X5.97111 Y26.92527
G01 X6.05198 Y27.18402
G01 X6.16585 Y27.44429
G01 X6.31320 Y27.70624
G01 X6.49437 Y27.96979
G01 X6.70966 Y28.23477
G01 X6.96054 Y28.50236
G01 X8.55807 Y30.09989
G01 X8.81581 Y30.34574
G01 X8.89254 Y30.53039
G01 X11.35581 Y31.45848
G01 X11.05728 Y31.34269
G01 X9.46018 Y30.68114
G01 X9.06572 Y30.50479
G01 X9.04560 Y30.51782
G01 X9.06572 Y30.50479
G01 X9.06572 Y23.64671
G01 X9.05988 Y23.64486
G01 X9.06572 Y23.64671
G01 X9.24484 Y23.39276
G01 X9.50140 Y23.10826
G01 X11.09830 Y21.51136
G01 X11.24204 Y21.37278
G01 X11.24407 Y21.31766
G01 X11.24204 Y21.37278
G01 X11.35581 Y21.49998
G01 X11.36404 Y21.49683
G01 X11.35581 Y21.49998
G01 X11.35581 Y31.45848
G01 X11.41115 Y31.54101
G04 P0 ( dwell for no time -- G64 should not smooth over this point )
G00 Z5.00000 ( retract )

G00 X13.97180 Y43.94530 ( rapid move to begin. )
G01 F50.00000
( Mill infeed pass 1/1 )
G01 Z-0.10000
G04 P0 ( dwell for no time -- G64 should not smooth over this point )
G01 F50.00000
G01 X13.97180 Y43.94530
G01 X13.89581 Y44.12379
G01 X13.89581 Y52.32405
G01 X13.93241 Y52.36065
G01 X13.89581 Y52.32405
G01 X11.60572 Y52.32405
G01 X11.56912 Y52.36065
G01 X11.60572 Y52.32405
G01 X11.60572 Y46.43280
G01 X11.59695 Y46.42932
G01 X11.60572 Y46.43280
G01 X12.04054 Y45.96912
G01 X13.63825 Y44.37141
G01 X13.89581 Y44.12379
G01 X16.51216 Y41.40010
G01 X16.43581 Y41.58087
G01 X16.17850 Y41.83116
G01 X14.57996 Y43.42971
G01 X14.14572 Y43.88071
G01 X14.13629 Y43.87682
G01 X14.14572 Y43.88071
G01 X14.14572 Y52.32405
G01 X14.10912 Y52.36065
G01 X14.14572 Y52.32405
G01 X16.43581 Y52.32405
G01 X16.47241 Y52.36065
G01 X16.43581 Y52.32405
G01 X16.43581 Y41.58087
G01 X16.51216 Y41.40010
G01 X17.91851 Y40.09116
G01 X17.11970 Y40.88996
G01 X16.68572 Y41.33576
G01 X16.67632 Y41.33190
G01 X16.68572 Y41.33576
G01 X16.68572 Y52.32405
G01 X16.64912 Y52.36065
G01 X16.68572 Y52.32405
G01 X18.97581 Y52.32405
G01 X19.01241 Y52.36065
G01 X18.97581 Y52.32405
G01 X18.97581 Y41.30919
G01 X18.98371 Y41.30624
G01 X18.97581 Y41.30919
G01 X18.53735 Y40.81435
G01 X17.91851 Y40.09116
G01 X17.92044 Y40.03238
G01 X19.22572 Y41.56667
G01 X19.22572 Y52.32405
G01 X19.18912 Y52.36065
G01 X19.22572 Y52.32405
G01 X21.51581 Y52.32405
G01 X21.55241 Y52.36065
G01 X21.51581 Y52.32405
G01 X21.51581 Y43.87817
G01 X21.52487 Y43.87451
G01 X21.51581 Y43.87817
G01 X21.08157 Y43.42717
G01 X19.60029 Y41.94589
G01 X19.22572 Y41.56667
G01 X19.14850 Y41.37995
G01 X21.76572 Y44.12125
G01 X22.02327 Y44.36887
G01 X23.62101 Y45.96658
G01 X24.05581 Y46.43023
G01 X24.06457 Y46.42675
G01 X24.05581 Y46.43023
G01 X24.05581 Y52.32405
G01 X24.09241 Y52.36065
G01 X24.05581 Y52.32405
G01 X21.76572 Y52.32405
G01 X21.72912 Y52.36065
G01 X21.76572 Y52.32405
G01 X21.76572 Y44.12125
G01 X21.68873 Y43.93611
G01 X24.30572 Y46.66841
G01 X24.30572 Y52.32405
G01 X24.26912 Y52.36065
G01 X24.30572 Y52.32405
G01 X26.59581 Y52.32405
G01 X26.63238 Y52.36065
G01 X26.59581 Y52.32405
G01 X26.59581 Y49.04389
G01 X26.60167 Y49.04204
G01 X26.59581 Y49.04389
G01 X26.41681 Y48.78995
G01 X26.16017 Y48.50569
G01 X24.56393 Y46.90951
G01 X24.30572 Y46.66841
G01 X24.23056 Y46.49541
G04 P0 ( dwell for no time -- G64 should not smooth over this point )
G00 Z5.00000 ( retract )

G00 X31.88909 Y52.36065 ( rapid move to begin. )
G01 F50.00000
( Mill infeed pass 1/1 )
G01 Z-0.10000
G04 P0 ( dwell for no time -- G64 should not smooth over this point )
G01 F50.00000
G01 X31.88909 Y52.36065
G01 X31.92572 Y52.32405
G01 X34.21581 Y52.32405
G01 X34.25241 Y52.36065
G01 X34.21581 Y52.32405
G01 X34.21581 Y49.00712
G01 X34.22165 Y48.96935
G01 X34.22884 Y48.95157
G01 X34.45424 Y48.63099
G01 X34.72241 Y48.33386
G01 X36.32241 Y46.73387
G01 X36.79251 Y46.29493
G01 X37.25962 Y45.79673
G01 X37.52012 Y45.53768
G01 X37.54836 Y45.52137
G01 X38.90294 Y44.96029
G01 X39.37295 Y44.77842
G01 X39.84295 Y44.57093
G01 X41.44294 Y43.90819
G01 X41.91267 Y43.72422
G01 X42.26174 Y43.56971
G01 X42.31173 Y43.55902
G01 X42.43017 Y43.55846
G01 X44.03077 Y43.55846
G01 X44.50075 Y43.56730
G01 X44.97078 Y43.55846
G01 X46.57075 Y43.55846
G01 X47.04077 Y43.56730
G01 X47.51075 Y43.55846
G01 X49.11077 Y43.55846
G01 X49.58075 Y43.56730
G01 X50.05078 Y43.55846
G01 X51.65075 Y43.55846
G01 X52.12077 Y43.56732
G01 X52.59078 Y43.55846
G01 X52.83878 Y43.55846
G01 X52.83972 Y43.56209
G01 X52.83878 Y43.55846
G01 X52.98082 Y43.47820
G01 X53.44998 Y43.22714
G01 X53.91498 Y43.00134
G01 X54.39098 Y42.79212
G01 X57.91131 Y41.33393
G01 X58.35571 Y41.16408
G01 X59.13915 Y40.92852
G01 X59.89145 Y40.78100
G01 X60.56744 Y40.71412
G01 X60.62876 Y40.71109
G01 X61.29698 Y40.71127
G01 X61.60773 Y40.73248
G01 X61.61075 Y40.74178
G01 X61.60773 Y40.73248
G01 X62.06231 Y40.34978
G01 X62.56388 Y39.99327
G01 X63.06713 Y39.70200
G01 X63.58860 Y39.47038
G01 X63.62306 Y39.46553
G01 X71.62785 Y39.46708
G01 X71.66445 Y39.50368
G01 X71.62785 Y39.46708
G01 X71.62785 Y36.05832
G01 X71.66445 Y36.02172
G01 X71.62785 Y36.05832
G01 X39.63058 Y36.05893
G01 X39.48892 Y36.06350
G01 X39.31699 Y36.08045
G01 X39.31554 Y36.07628
G01 X39.31699 Y36.08045
G01 X39.10142 Y36.22576
G01 X38.95722 Y36.34407
G01 X38.85801 Y36.43704
G01 X32.30298 Y42.99207
G01 X32.22813 Y43.07091
G01 X32.13176 Y43.18376
G01 X32.02026 Y43.33499
G01 X31.94769 Y43.44914
G01 X31.94334 Y43.44764
G01 X31.94769 Y43.44914
G01 X31.92991 Y43.65097
G01 X31.92699 Y43.76410
G01 X31.92572 Y52.32405
G04 P0 ( dwell for no time -- G64 should not smooth over this point )
G00 Z5.00000 ( retract )

G00 X36.83097 Y46.49800 ( rapid move to begin. )
G01 F50.00000
( Mill infeed pass 1/1 )
G01 Z-0.10000
G04 P0 ( dwell for no time -- G64 should not smooth over this point )
G01 F50.00000
G01 X36.83097 Y46.49800
G01 X36.75581 Y46.67100
G01 X36.75581 Y52.32405
G01 X36.79241 Y52.36065
G01 X36.75581 Y52.32405
G01 X34.46572 Y52.32405
G01 X34.42912 Y52.36065
G01 X34.46572 Y52.32405
G01 X34.46572 Y49.04674
G01 X34.45988 Y49.04489
G01 X34.46572 Y49.04674
G01 X34.64484 Y48.79279
G01 X34.90140 Y48.50829
G01 X36.49759 Y46.91210
G01 X36.75581 Y46.67100
G01 X39.35011 Y44.99696
G01 X39.29581 Y45.07621
G01 X39.29581 Y52.32405
G01 X39.33241 Y52.36065
G01 X39.29581 Y52.32405
G01 X37.00572 Y52.32405
G01 X36.96912 Y52.36065
G01 X37.00572 Y52.32405
G01 X37.00572 Y46.43283
G01 X36.99670 Y46.42919
G01 X37.00572 Y46.43283
G01 X37.44054 Y45.96915
G01 X37.66696 Y45.74273
G01 X37.66541 Y45.74047
G01 X37.66696 Y45.74273
G01 X38.99720 Y45.19173
G01 X39.29581 Y45.07621
G01 X41.89034 Y43.94279
G01 X41.83581 Y44.02270
G01 X41.53746 Y44.13954
G01 X39.93993 Y44.80123
G01 X39.54572 Y44.97532
G01 X39.52481 Y44.96143
G01 X39.54572 Y44.97532
G01 X39.54572 Y52.32405
G01 X39.50912 Y52.36065
G01 X39.54572 Y52.32405
G01 X41.83581 Y52.32405
G01 X41.87241 Y52.36065
G01 X41.83581 Y52.32405
G01 X41.83581 Y44.02270
G04 P0 ( dwell for no time -- G64 should not smooth over this point )
G00 Z5.00000 ( retract )

G00 X19.05102 Y21.51029 ( rapid move to begin. )
G01 F50.00000
( Mill infeed pass 1/1 )
G01 Z-0.10000
G04 P0 ( dwell for no time -- G64 should not smooth over this point )
G01 F50.00000
G01 X19.05102 Y21.51029
G01 X18.97581 Y21.68357
G01 X18.97581 Y27.39380
G01 X19.00862 Y27.42385
G01 X18.97581 Y27.39380
G01 X18.85295 Y27.41282
G01 X18.62755 Y27.42458
G01 X17.45341 Y27.42687
G01 X17.08262 Y27.27068
G01 X16.84480 Y27.15247
G01 X16.68572 Y27.04038
G01 X16.67162 Y27.04772
G01 X16.68572 Y27.04038
G01 X16.68572 Y23.61540
G01 X16.67977 Y23.61349
G01 X16.68572 Y23.61540
G01 X16.86545 Y23.36312
G01 X17.11124 Y23.08799
G01 X17.48117 Y22.90793
G01 X17.86804 Y22.66102
G01 X18.25302 Y22.35944
G01 X18.97581 Y21.68357
G01 X21.51581 Y21.57509
G01 X21.51581 Y27.39380
G01 X21.54862 Y27.42385
G01 X21.51581 Y27.39380
G01 X21.39295 Y27.41282
G01 X21.16755 Y27.42458
G01 X19.57398 Y27.42446
G01 X19.34858 Y27.41282
G01 X19.22572 Y27.39380
G01 X19.19290 Y27.42385
G01 X19.22572 Y27.39380
G01 X19.22572 Y21.44695
G01 X19.21683 Y21.44339
G01 X19.22572 Y21.44695
G01 X19.66072 Y20.97928
G01 X19.87116 Y20.76656
G01 X19.86559 Y20.74047
G01 X19.87116 Y20.76656
G01 X21.12084 Y21.28416
G01 X21.51581 Y21.46508
G01 X21.53562 Y21.45238
G01 X21.51581 Y21.46508
G01 X21.51581 Y21.57509
G01 X21.76572 Y21.56442
G01 X22.06513 Y21.67534
G01 X22.64697 Y21.91634
G01 X22.96798 Y22.03856
G01 X23.51832 Y22.20305
G01 X24.05581 Y22.32193
G01 X24.08324 Y22.29996
G01 X24.05581 Y22.32193
G01 X24.05581 Y27.39380
G01 X24.08862 Y27.42385
G01 X24.05581 Y27.39380
G01 X23.93295 Y27.41282
G01 X23.70755 Y27.42458
G01 X22.11398 Y27.42446
G01 X21.88858 Y27.41282
G01 X21.76572 Y27.39380
G01 X21.73290 Y27.42385
G01 X21.76572 Y27.39380
G01 X21.76572 Y21.56442
G01 X21.71106 Y21.48413
G01 X24.30572 Y22.34941
G01 X24.30572 Y27.39380
G01 X24.27290 Y27.42385
G01 X24.30572 Y27.39380
G01 X24.42858 Y27.41282
G01 X24.65398 Y27.42446
G01 X26.24755 Y27.42458
G01 X26.47292 Y27.41282
G01 X26.59581 Y27.39380
G01 X26.62862 Y27.42385
G01 X26.59581 Y27.39380
G01 X26.59581 Y23.64392
G01 X26.60167 Y23.64207
G01 X26.59581 Y23.64392
G01 X26.41681 Y23.38997
G01 X26.16017 Y23.10572
G01 X25.41372 Y22.35934
G01 X25.41760 Y22.35007
G01 X25.41372 Y22.35934
G01 X24.78786 Y22.35934
G01 X24.30572 Y22.34941
G01 X24.26871 Y22.31210
G04 P0 ( dwell for no time -- G64 should not smooth over this point )
G00 Z5.00000 ( retract )

G00 X34.29097 Y21.09798 ( rapid move to begin. )
G01 F50.00000
( Mill infeed pass 1/1 )
G01 Z-0.10000
G04 P0 ( dwell for no time -- G64 should not smooth over this point )
G01 F50.00000
G01 X34.29097 Y21.09798
G01 X34.21581 Y21.27098
G01 X34.21581 Y27.39380
G01 X34.24862 Y27.42385
G01 X34.21581 Y27.39380
G01 X34.09295 Y27.41282
G01 X33.86755 Y27.42458
G01 X32.27398 Y27.42446
G01 X32.04858 Y27.41282
G01 X31.92572 Y27.39380
G01 X31.89290 Y27.42385
G01 X31.92572 Y27.39380
G01 X31.92572 Y23.64671
G01 X31.91988 Y23.64486
G01 X31.92572 Y23.64671
G01 X32.10484 Y23.39276
G01 X32.36140 Y23.10826
G01 X33.95759 Y21.51207
G01 X34.21581 Y21.27098
G01 X36.79030 Y21.28840
G01 X36.75581 Y21.32127
G01 X36.75581 Y27.39380
G01 X36.78862 Y27.42385
G01 X36.75581 Y27.39380
G01 X36.63295 Y27.41282
G01 X36.40755 Y27.42458
G01 X34.81398 Y27.42446
G01 X34.58858 Y27.41282
G01 X34.46572 Y27.39380
G01 X34.43290 Y27.42385
G01 X34.46572 Y27.39380
G01 X34.46572 Y21.05729
G01 X34.44636 Y21.04504
G01 X34.46572 Y21.05729
G01 X34.56498 Y21.01019
G01 X34.56422 Y21.00250
G01 X34.56498 Y21.01019
G01 X34.77842 Y21.06742
G01 X35.18184 Y21.16348
G01 X35.59614 Y21.23717
G01 X36.00359 Y21.28490
G01 X36.40732 Y21.30809
G01 X36.75581 Y21.32127
G01 X37.00572 Y21.32292
G01 X36.97011 Y21.28812
G01 X37.00572 Y21.32292
G01 X37.00572 Y27.39380
G01 X36.97290 Y27.42385
G01 X37.00572 Y27.39380
G01 X37.12858 Y27.41282
G01 X37.35398 Y27.42446
G01 X38.94755 Y27.42458
G01 X39.17295 Y27.41282
G01 X39.29581 Y27.39380
G01 X39.32862 Y27.42385
G01 X39.29581 Y27.39380
G01 X39.29581 Y21.60468
G01 X39.30790 Y21.59892
G01 X39.29581 Y21.60468
G01 X38.93490 Y21.31070
G01 X38.93739 Y21.30389
G01 X38.93490 Y21.31070
G01 X38.59367 Y21.31065
G01 X38.15987 Y21.29655
G01 X37.72609 Y21.31065
G01 X37.35296 Y21.31065
G01 X37.00572 Y21.32292
G01 X38.03493 Y21.05061
G01 X37.72403 Y21.06074
G01 X37.34636 Y21.06082
G01 X36.88161 Y21.07725
G01 X36.41606 Y21.05833
G01 X36.02167 Y21.03562
G01 X35.62901 Y20.98942
G01 X35.23620 Y20.91954
G01 X34.84141 Y20.82559
G01 X34.56366 Y20.75312
G01 X34.54166 Y20.75317
G01 X34.49942 Y20.76473
G01 X34.28007 Y20.87001
G01 X33.78241 Y21.33384
G01 X32.17796 Y22.93851
G01 X31.91424 Y23.23097
G01 X31.68884 Y23.55154
G01 X31.68165 Y23.56932
G01 X31.67581 Y23.60709
G01 X31.67581 Y27.39380
G01 X31.70850 Y27.42380
G01 X31.67581 Y27.39380
G01 X31.55295 Y27.41282
G01 X31.32755 Y27.42458
G01 X29.73398 Y27.42446
G01 X29.50858 Y27.41282
G01 X29.38572 Y27.39380
G01 X29.35290 Y27.42387
G01 X29.38572 Y27.39380
G01 X29.38450 Y19.94019
G01 X29.59311 Y19.44304
G01 X29.64546 Y19.32699
G01 X29.71371 Y19.19973
G01 X29.80906 Y19.05236
G01 X29.91376 Y18.92196
G01 X29.98546 Y18.84507
G01 X34.81603 Y14.01658
G01 X34.97958 Y13.88234
G01 X35.12675 Y13.78669
G01 X35.29708 Y13.69840
G01 X35.84595 Y13.46629
G01 X41.34940 Y13.45992
G01 X46.12272 Y13.45992
G01 X46.15513 Y13.42565
G01 X46.12272 Y13.45992
G01 X46.14192 Y13.80841
G01 X46.14187 Y14.70637
G01 X46.15139 Y14.71031
G01 X46.14187 Y14.70637
G01 X45.53392 Y15.31440
G01 X45.24962 Y15.57104
G01 X44.99562 Y15.75003
G01 X44.99747 Y15.75587
G01 X44.99562 Y15.75003
G01 X41.32473 Y15.75003
G01 X41.30190 Y15.75214
G01 X41.26959 Y15.76438
G01 X40.59822 Y15.76349
G01 X40.59763 Y15.76629
G01 X40.59822 Y15.76349
G01 X40.41160 Y15.67876
G01 X40.17256 Y15.60139
G01 X39.94554 Y15.55824
G01 X39.72618 Y15.54427
G01 X38.58656 Y15.54447
G01 X38.38666 Y15.55669
G01 X38.20076 Y15.58851
G01 X38.17971 Y15.59405
G01 X38.14204 Y15.61551
G01 X38.11400 Y15.64858
G01 X38.05204 Y15.75448
G01 X38.04262 Y15.77439
G01 X38.03493 Y15.81757
G01 X38.03493 Y21.05061
G01 X38.07051 Y21.08538
G01 X39.10378 Y21.17428
G01 X39.15710 Y21.16938
G01 X39.38554 Y20.90006
G01 X39.69507 Y20.57207
G01 X39.81788 Y20.44913
G01 X40.16037 Y20.07931
G01 X40.45519 Y19.70136
G01 X40.69552 Y19.32145
G01 X40.86982 Y18.95709
G01 X41.14015 Y18.71741
G01 X41.39446 Y18.53992
G01 X41.39265 Y18.53418
G01 X41.39446 Y18.53992
G01 X47.20900 Y18.53994
G01 X47.24847 Y18.53354
G01 X47.26691 Y18.52569
G01 X47.48466 Y18.41175
G01 X47.69383 Y18.33301
G01 X47.90133 Y18.28668
G01 X48.11225 Y18.27124
G01 X49.67737 Y18.27113
G01 X49.90399 Y18.28914
G01 X50.13571 Y18.34528
G01 X50.17483 Y18.34835
G01 X50.42598 Y18.28909
G01 X50.65260 Y18.27124
G01 X52.21737 Y18.27113
G01 X52.44394 Y18.28914
G01 X52.67571 Y18.34525
G01 X52.71480 Y18.34835
G01 X52.96596 Y18.28907
G01 X53.19258 Y18.27124
G01 X54.75773 Y18.27116
G01 X54.96865 Y18.28668
G01 X55.17606 Y18.33321
G01 X55.38536 Y18.41160
G01 X55.60306 Y18.52569
G01 X55.64099 Y18.53832
G01 X56.76725 Y18.53992
G01 X56.90875 Y18.54449
G01 X57.14850 Y18.57012
G01 X57.39602 Y18.62163
G01 X57.61358 Y18.68805
G01 X57.77446 Y18.74883
G01 X60.18065 Y19.74555
G01 X60.35665 Y19.82257
G01 X60.80440 Y20.05099
G01 X61.21987 Y20.30616
G01 X61.71791 Y20.66681
G01 X61.72698 Y20.66130
G01 X61.71791 Y20.66681
G01 X61.77806 Y21.11626
G01 X61.80661 Y21.32096
G01 X61.82167 Y21.36531
G01 X61.85200 Y21.40102
G01 X62.82982 Y22.18573
G01 X62.99505 Y22.46569
G01 X63.14783 Y22.75954
G01 X63.27666 Y23.05281
G01 X63.38189 Y23.34537
G01 X63.46358 Y23.63737
G01 X63.52182 Y23.92886
G01 X63.55672 Y24.21999
G01 X63.56838 Y24.51344
G01 X63.57074 Y25.16817
G01 X63.07473 Y26.35954
G01 X62.92426 Y26.66751
G01 X62.74382 Y26.93827
G01 X62.53175 Y27.17617
G01 X62.30610 Y27.36588
G01 X62.30795 Y27.36982
G01 X62.30610 Y27.36588
G01 X62.07102 Y27.40873
G01 X61.80699 Y27.42451
G01 X60.21398 Y27.42446
G01 X59.98858 Y27.41282
G01 X59.74075 Y27.37594
G01 X59.49297 Y27.41298
G01 X59.26755 Y27.42451
G01 X57.67398 Y27.42446
G01 X57.44858 Y27.41282
G01 X57.32572 Y27.39380
G01 X57.29303 Y27.42380
G01 X57.32572 Y27.39380
G01 X57.32572 Y23.60425
G01 X57.31985 Y23.56645
G01 X57.30283 Y23.53219
G01 X57.09648 Y23.23991
G01 X56.81911 Y22.93132
G01 X56.17548 Y22.28769
G01 X56.13494 Y22.26061
G01 X55.99471 Y22.20252
G01 X55.95653 Y22.19338
G01 X55.91741 Y22.19653
G01 X55.51528 Y22.29432
G01 X55.11632 Y22.35076
G01 X54.65793 Y22.39404
G01 X54.19077 Y22.36671
G01 X53.19128 Y22.36671
G01 X52.71242 Y22.33811
G01 X52.11790 Y22.39404
G01 X51.65075 Y22.36671
G01 X50.65131 Y22.36671
G01 X50.17244 Y22.33811
G01 X49.57793 Y22.39404
G01 X49.11077 Y22.36671
G01 X48.10989 Y22.36671
G01 X47.81837 Y22.35594
G01 X47.52678 Y22.32363
G01 X47.07230 Y22.25726
G01 X46.65723 Y22.10059
G01 X45.61804 Y22.09800
G01 X45.57893 Y22.10427
G01 X45.25973 Y22.20953
G01 X44.94289 Y22.28835
G01 X44.48947 Y22.38385
G01 X44.03077 Y22.37301
G01 X42.43075 Y22.37301
G01 X42.22374 Y22.37816
G01 X41.96898 Y22.39162
G01 X41.51625 Y22.30773
G01 X41.12473 Y22.21641
G01 X40.73535 Y22.08687
G01 X40.34495 Y21.91822
G01 X39.95148 Y21.70915
G01 X39.49177 Y21.44260
G01 X39.15710 Y21.16938
G01 X39.48427 Y21.65833
G01 X39.54572 Y21.76242
G01 X39.54572 Y27.39380
G01 X39.51290 Y27.42385
G01 X39.54572 Y27.39380
G01 X39.66858 Y27.41282
G01 X39.89398 Y27.42446
G01 X41.48755 Y27.42458
G01 X41.71295 Y27.41282
G01 X41.83581 Y27.39380
G01 X41.86862 Y27.42385
G01 X41.83581 Y27.39380
G01 X41.83581 Y22.62050
G01 X41.86377 Y22.59777
G01 X41.83581 Y22.62050
G01 X41.46238 Y22.55177
G01 X41.05133 Y22.45535
G01 X40.64122 Y22.31842
G01 X40.23213 Y22.14126
G01 X39.82799 Y21.92642
G01 X39.54572 Y21.76242
G01 X39.48427 Y21.65833
G01 X42.08572 Y22.63526
G01 X42.43233 Y22.62292
G01 X44.02999 Y22.62289
G01 X44.37581 Y22.63023
G01 X44.41147 Y22.59531
G01 X44.37581 Y22.63023
G01 X44.37581 Y27.39380
G01 X44.40862 Y27.42385
G01 X44.37581 Y27.39380
G01 X44.25295 Y27.41282
G01 X44.02755 Y27.42458
G01 X42.43398 Y27.42446
G01 X42.20858 Y27.41282
G01 X42.08572 Y27.39380
G01 X42.05290 Y27.42385
G01 X42.08572 Y27.39380
G01 X42.08572 Y22.63526
G01 X42.04940 Y22.59919
G01 X47.16572 Y22.52287
G01 X47.16572 Y27.39380
G01 X47.13290 Y27.42385
G01 X47.16572 Y27.39380
G01 X47.28858 Y27.41282
G01 X47.51398 Y27.42446
G01 X49.10755 Y27.42458
G01 X49.33295 Y27.41282
G01 X49.45581 Y27.39380
G01 X49.48862 Y27.42385
G01 X49.45581 Y27.39380
G01 X49.45581 Y22.63691
G01 X49.48987 Y22.60476
G01 X49.45581 Y22.63691
G01 X49.10714 Y22.61657
G01 X48.10298 Y22.61652
G01 X47.79541 Y22.60483
G01 X47.49249 Y22.57118
G01 X47.16572 Y22.52287
G01 X46.91581 Y27.39380
G01 X46.79295 Y27.41282
G01 X46.56755 Y27.42458
G01 X44.97398 Y27.42446
G01 X44.74858 Y27.41282
G01 X44.62572 Y27.39380
G01 X44.59290 Y27.42385
G01 X44.62572 Y27.39380
G01 X44.62572 Y22.60986
G01 X44.59844 Y22.58809
G01 X44.62572 Y22.60986
G01 X45.00095 Y22.53140
G01 X45.33349 Y22.44824
G01 X45.63783 Y22.34634
G01 X46.61118 Y22.34621
G01 X46.91581 Y22.46424
G01 X46.93788 Y22.44903
G01 X46.91581 Y22.46424
G01 X46.91581 Y27.39380
G01 X46.94862 Y27.42385
G01 X46.91581 Y27.39380
G01 X47.16572 Y22.52287
G01 X47.12325 Y22.47458
G01 X52.02987 Y22.60476
G01 X51.99581 Y22.63691
G01 X51.99581 Y27.39380
G01 X52.02862 Y27.42385
G01 X51.99581 Y27.39380
G01 X51.87295 Y27.41282
G01 X51.64752 Y27.42458
G01 X50.05398 Y27.42446
G01 X49.82858 Y27.41282
G01 X49.70572 Y27.39380
G01 X49.67290 Y27.42385
G01 X49.70572 Y27.39380
G01 X49.70572 Y22.63181
G01 X49.67318 Y22.60219
G01 X49.70572 Y22.63181
G01 X50.16782 Y22.58781
G01 X50.64760 Y22.61662
G01 X51.64712 Y22.61657
G01 X51.99581 Y22.63691
G01 X54.56987 Y22.60476
G01 X54.53581 Y22.63691
G01 X54.18714 Y22.61657
G01 X53.18755 Y22.61662
G01 X52.70782 Y22.58781
G01 X52.24572 Y22.63181
G01 X52.21318 Y22.60219
G01 X52.24572 Y22.63181
G01 X52.24572 Y27.39380
G01 X52.21290 Y27.42385
G01 X52.24572 Y27.39380
G01 X52.36855 Y27.41282
G01 X52.59395 Y27.42446
G01 X54.18755 Y27.42458
G01 X54.41295 Y27.41282
G01 X54.53581 Y27.39380
G01 X54.56862 Y27.42385
G01 X54.53581 Y27.39380
G01 X54.53581 Y22.63691
G04 P0 ( dwell for no time -- G64 should not smooth over this point )
G00 Z5.00000 ( retract )

G00 X46.15505 Y13.24417 ( rapid move to begin. )
G01 F50.00000
( Mill infeed pass 1/1 )
G01 Z-0.10000
G04 P0 ( dwell for no time -- G64 should not smooth over this point )
G01 F50.00000
G01 X46.15505 Y13.24417
G01 X46.12272 Y13.21003
G01 X46.11881 Y10.91992
G01 X41.31965 Y10.91992
G01 X41.28188 Y10.91408
G01 X41.24764 Y10.89708
G01 X40.95493 Y10.69071
G01 X40.64584 Y10.41344
G01 X39.04198 Y8.81342
G01 X38.60282 Y8.34441
G01 X38.47562 Y8.23064
G01 X38.47960 Y8.22101
G01 X38.47562 Y8.23064
G01 X35.29005 Y8.23445
G01 X34.88317 Y8.24603
G01 X34.11024 Y8.32518
G01 X33.31169 Y8.48711
G01 X32.91429 Y8.59747
G01 X32.51675 Y8.72917
G01 X32.05180 Y8.90742
G01 X26.27874 Y11.29871
G01 X26.24071 Y11.30785
G01 X26.22111 Y11.30785
G01 X26.18306 Y11.29871
G01 X24.00765 Y10.39762
G01 X23.39741 Y10.16330
G01 X22.86320 Y9.98644
G01 X22.32909 Y9.83828
G01 X21.77588 Y9.71263
G01 X21.26879 Y9.62447
G01 X20.73130 Y9.55693
G01 X20.19389 Y9.51835
G01 X19.70631 Y9.50641
G01 X16.38264 Y9.50641
G01 X16.37871 Y9.49691
G01 X16.38264 Y9.50641
G01 X15.59225 Y10.29584
G01 X15.03624 Y10.65807
G01 X14.54836 Y11.01044
G01 X14.11590 Y11.36183
G01 X13.73698 Y11.71367
G01 X12.60894 Y12.84171
G01 X12.36617 Y13.11730
G01 X12.20889 Y13.36474
G01 X12.20391 Y13.36327
G01 X12.20889 Y13.36474
G01 X12.20889 Y15.94429
G01 X12.17727 Y15.97243
G01 X12.20889 Y15.94429
G01 X12.31781 Y15.96674
G01 X12.52202 Y15.98077
G01 X13.13746 Y15.98272
G01 X13.35281 Y16.00119
G01 X13.58318 Y16.04416
G01 X13.96134 Y16.14447
G01 X14.30934 Y16.20599
G01 X14.72629 Y16.22872
G01 X15.88480 Y16.70876
G01 X15.95747 Y16.70688
G01 X16.28099 Y16.72026
G01 X16.59461 Y16.75801
G01 X16.91787 Y16.82247
G01 X17.24934 Y16.91556
G01 X17.57098 Y17.03202
G01 X17.88460 Y17.17045
G01 X18.21218 Y17.34129
G01 X18.54195 Y17.54165
G01 X18.56781 Y17.57167
G01 X18.90492 Y18.12000
G01 X19.19920 Y18.73781
G01 X19.66829 Y19.87032
G01 X19.83336 Y20.30395
G01 X19.93392 Y20.52206
G01 X19.92658 Y20.52937
G01 X19.93392 Y20.52206
G01 X21.21858 Y21.05419
G01 X21.68855 Y21.26935
G01 X22.15858 Y21.44354
G01 X22.74118 Y21.68487
G01 X23.04362 Y21.80036
G01 X23.53099 Y21.94862
G01 X24.19579 Y22.09803
G01 X24.78880 Y22.10943
G01 X25.46546 Y22.10943
G01 X25.48981 Y22.11184
G01 X25.53490 Y22.13049
G01 X26.34353 Y22.93600
G01 X26.61648 Y23.23991
G01 X26.82283 Y23.53219
G01 X26.83985 Y23.56645
G01 X26.84572 Y23.60425
G01 X26.84572 Y27.39380
G01 X26.81303 Y27.42380
G01 X26.84572 Y27.39380
G01 X26.96858 Y27.41282
G01 X27.19398 Y27.42446
G01 X28.78755 Y27.42458
G01 X29.01295 Y27.41282
G01 X29.13581 Y27.39380
G01 X29.16852 Y27.42380
G01 X29.13581 Y27.39380
G01 X29.13708 Y19.91584
G01 X29.14658 Y19.86803
G01 X29.36400 Y19.34322
G01 X29.42112 Y19.21756
G01 X29.49468 Y19.07936
G01 X29.60680 Y18.90619
G01 X29.64007 Y18.86156
G01 X29.75950 Y18.72005
G01 X34.59648 Y13.88064
G01 X34.68809 Y13.79550
G01 X34.83320 Y13.67978
G01 X34.95251 Y13.59995
G01 X35.13917 Y13.49682
G01 X35.27303 Y13.43579
G01 X35.77372 Y13.22840
G01 X35.82139 Y13.21887
G01 X41.32976 Y13.21003
G01 X46.12272 Y13.21003
G01 X46.14192 Y12.86154
G01 X46.14192 Y11.26841
G01 X46.12272 Y10.91992
G01 X46.15505 Y10.88580
G01 X46.12272 Y10.91992
G01 X46.11881 Y10.91992
G01 X46.11444 Y8.37992
G01 X46.12505 Y8.37992
G01 X46.15792 Y8.34542
G01 X46.12505 Y8.37992
G01 X46.14192 Y8.72797
G01 X46.14192 Y10.32154
G01 X46.12272 Y10.67003
G01 X46.15508 Y10.70422
G01 X46.12272 Y10.67003
G01 X41.35928 Y10.67003
G01 X41.35742 Y10.67587
G01 X41.35928 Y10.67003
G01 X41.10502 Y10.49076
G01 X40.82006 Y10.23427
G01 X39.21999 Y8.63801
G01 X38.97838 Y8.37992
G01 X38.80488 Y8.30468
G01 X38.97838 Y8.37992
G01 X46.11444 Y8.37992
G01 X46.11408 Y8.18264
G01 X46.03999 Y8.13003
G01 X45.93516 Y7.82950
G01 X45.27588 Y6.23771
G01 X45.07949 Y5.85861
G01 X44.96415 Y5.69702
G01 X44.85053 Y5.56577
G01 X44.85381 Y5.56113
G01 X44.85053 Y5.56577
G01 X44.68673 Y5.50250
G01 X44.50050 Y5.45074
G01 X44.31497 Y5.42018
G01 X44.12653 Y5.40992
G01 X42.23388 Y5.40997
G01 X42.02046 Y5.42331
G01 X41.81025 Y5.46273
G01 X41.59882 Y5.52879
G01 X41.38585 Y5.62199
G01 X41.17122 Y5.74271
G01 X40.95499 Y5.89138
G01 X40.73731 Y6.06821
G01 X40.51704 Y6.27474
G01 X38.91940 Y7.87237
G01 X38.70289 Y8.09864
G01 X38.64595 Y8.10021
G01 X38.70289 Y8.09864
G01 X38.73797 Y8.13003
G01 X38.73482 Y8.13826
G01 X38.73797 Y8.13003
G01 X46.03999 Y8.13003
G04 P0 ( dwell for no time -- G64 should not smooth over this point )
G00 Z5.00000 ( retract )

G00 X71.62785 Y18.56887 ( rapid move to begin. )
G01 F50.00000
( Mill infeed pass 1/1 )
G01 Z-0.10000
G04 P0 ( dwell for no time -- G64 should not smooth over this point )
G01 F50.00000
G01 X71.62785 Y18.56887
G01 X64.14778 Y18.56887
G01 X64.14592 Y18.56303
G01 X64.14778 Y18.56887
G01 X63.88463 Y18.75437
G01 X63.59093 Y19.01919
G01 X61.96698 Y20.64393
G01 X61.95327 Y20.63930
G01 X61.96698 Y20.64393
G01 X62.04730 Y21.23742
G01 X62.03899 Y21.24210
G01 X62.04730 Y21.23742
G01 X63.01806 Y22.02177
G01 X63.21506 Y22.34712
G01 X63.37135 Y22.64801
G01 X63.50711 Y22.95622
G01 X63.61852 Y23.26510
G01 X63.70541 Y23.57460
G01 X63.76927 Y23.89429
G01 X63.80533 Y24.19518
G01 X63.81813 Y24.50595
G01 X63.81585 Y25.21694
G01 X63.30086 Y26.46586
G01 X63.13658 Y26.79906
G01 X62.93594 Y27.09784
G01 X62.69937 Y27.36129
G01 X62.42395 Y27.59090
G01 X62.38344 Y27.60584
G01 X62.10826 Y27.65572
G01 X61.81829 Y27.67414
G01 X60.21078 Y27.67437
G01 X59.96932 Y27.66207
G01 X59.74075 Y27.62590
G01 X59.51220 Y27.66207
G01 X59.27077 Y27.67437
G01 X57.67075 Y27.67437
G01 X57.42932 Y27.66207
G01 X57.20077 Y27.62590
G01 X56.97220 Y27.66207
G01 X56.73077 Y27.67437
G01 X55.13078 Y27.67437
G01 X54.88932 Y27.66207
G01 X54.66077 Y27.62590
G01 X54.43220 Y27.66207
G01 X54.19077 Y27.67437
G01 X52.59078 Y27.67437
G01 X52.34932 Y27.66207
G01 X52.12077 Y27.62590
G01 X51.89220 Y27.66207
G01 X51.65075 Y27.67437
G01 X50.05078 Y27.67437
G01 X49.80932 Y27.66207
G01 X49.58075 Y27.62590
G01 X49.35220 Y27.66207
G01 X49.11077 Y27.67437
G01 X47.51075 Y27.67437
G01 X47.26932 Y27.66207
G01 X47.04077 Y27.62590
G01 X46.81220 Y27.66207
G01 X46.57075 Y27.67437
G01 X44.97078 Y27.67437
G01 X44.72932 Y27.66207
G01 X44.50075 Y27.62590
G01 X44.27220 Y27.66207
G01 X44.03077 Y27.67437
G01 X42.43075 Y27.67437
G01 X42.18932 Y27.66207
G01 X41.96077 Y27.62590
G01 X41.73220 Y27.66207
G01 X41.49077 Y27.67437
G01 X39.89078 Y27.67437
G01 X39.64932 Y27.66207
G01 X39.42077 Y27.62590
G01 X39.19220 Y27.66207
G01 X38.95075 Y27.67437
G01 X37.35078 Y27.67437
G01 X37.10932 Y27.66207
G01 X36.88077 Y27.62590
G01 X36.65220 Y27.66207
G01 X36.41077 Y27.67437
G01 X34.81078 Y27.67437
G01 X34.56932 Y27.66207
G01 X34.34077 Y27.62590
G01 X34.11220 Y27.66207
G01 X33.87075 Y27.67437
G01 X32.27078 Y27.67437
G01 X32.02932 Y27.66207
G01 X31.80075 Y27.62590
G01 X31.57220 Y27.66207
G01 X31.33077 Y27.67437
G01 X29.73075 Y27.67437
G01 X29.48932 Y27.66207
G01 X29.26077 Y27.62590
G01 X29.03220 Y27.66207
G01 X28.79077 Y27.67437
G01 X27.19078 Y27.67437
G01 X26.94932 Y27.66207
G01 X26.72077 Y27.62590
G01 X26.49217 Y27.66207
G01 X26.25077 Y27.67437
G01 X24.65078 Y27.67437
G01 X24.40932 Y27.66207
G01 X24.18075 Y27.62590
G01 X23.95220 Y27.66207
G01 X23.71077 Y27.67437
G01 X22.11075 Y27.67437
G01 X21.86932 Y27.66207
G01 X21.64077 Y27.62590
G01 X21.41220 Y27.66207
G01 X21.17077 Y27.67437
G01 X19.57075 Y27.67437
G01 X19.32932 Y27.66207
G01 X19.10077 Y27.62590
G01 X18.87220 Y27.66207
G01 X18.63077 Y27.67437
G01 X17.40466 Y27.67195
G01 X16.98295 Y27.49989
G01 X16.72509 Y27.37162
G01 X16.48897 Y27.20762
G01 X16.45592 Y27.17333
G01 X16.43809 Y27.12916
G01 X16.43581 Y23.57542
G01 X16.44175 Y23.53737
G01 X16.45900 Y23.50292
G01 X16.66613 Y23.21220
G01 X16.94873 Y22.89932
G01 X16.98201 Y22.87552
G01 X17.35287 Y22.69355
G01 X17.71896 Y22.46053
G01 X18.08704 Y22.17270
G01 X18.45838 Y21.82820
G01 X18.54591 Y21.74080
G01 X19.01251 Y21.30930
G01 X19.48241 Y20.80417
G01 X19.69140 Y20.59292
G01 X19.71703 Y20.59714
G01 X19.69140 Y20.59292
G01 X19.63811 Y20.47730
G01 X19.65074 Y20.45759
G01 X19.63811 Y20.47730
G01 X11.69960 Y20.47654
G01 X11.69624 Y20.46798
G01 X11.69960 Y20.47654
G01 X11.37369 Y20.77697
G01 X11.36317 Y20.77235
G01 X11.37369 Y20.77697
G01 X11.37364 Y21.14507
G01 X11.36541 Y21.14822
G01 X11.37364 Y21.14507
G01 X11.56993 Y21.36450
G01 X12.44072 Y22.17260
G01 X12.80879 Y22.46038
G01 X13.17483 Y22.69338
G01 X13.54559 Y22.87547
G01 X13.57887 Y22.89927
G01 X13.64366 Y22.96432
G01 X13.91778 Y23.27046
G01 X14.12319 Y23.56460
G01 X14.13995 Y23.59863
G01 X14.14572 Y23.63615
G01 X14.14353 Y27.34053
G01 X14.12659 Y27.38374
G01 X14.01704 Y27.55483
G01 X13.65438 Y28.08610
G01 X13.39733 Y28.48359
G01 X13.10648 Y28.99611
G01 X12.81453 Y29.58628
G01 X12.47386 Y30.35767
G01 X12.06619 Y31.34187
G01 X11.89751 Y31.73837
G01 X11.87521 Y31.74208
G01 X11.89751 Y31.73837
G01 X12.12604 Y31.98343
G01 X12.47422 Y32.38713
G01 X12.80762 Y32.81423
G01 X14.87076 Y35.64796
G01 X15.47609 Y36.42370
G01 X16.14889 Y37.19906
G01 X16.94335 Y38.03251
G01 X18.00921 Y39.09837
G01 X18.00606 Y39.13731
G01 X18.00921 Y39.09837
G01 X18.31200 Y38.86916
G01 X19.25833 Y38.19921
G01 X20.15838 Y37.62761
G01 X21.00478 Y37.14539
G01 X21.85690 Y36.71707
G01 X22.59261 Y36.39078
G01 X36.36686 Y30.68531
G01 X36.57664 Y30.60570
G01 X36.87458 Y30.51493
G01 X37.21141 Y30.44462
G01 X37.53909 Y30.40924
G01 X37.73193 Y30.40299
G01 X62.96261 Y30.40306
G01 X63.10089 Y30.39958
G01 X63.30859 Y30.38320
G01 X63.58898 Y30.33870
G01 X63.83810 Y30.27756
G01 X63.83978 Y30.28107
G01 X63.83810 Y30.27756
G01 X64.09416 Y30.05460
G01 X64.30051 Y29.89262
G01 X64.52189 Y29.74716
G01 X64.98298 Y29.51488
G01 X66.57071 Y28.85694
G01 X66.96471 Y28.71178
G01 X67.37441 Y28.59395
G01 X67.82455 Y28.49710
G01 X68.28315 Y28.42819
G01 X68.72414 Y28.37503
G01 X70.10423 Y28.21849
G01 X71.62785 Y28.05394
G01 X71.65967 Y28.08239
G01 X71.62785 Y28.05394
G01 X71.62785 Y18.56887
G01 X71.66445 Y18.53227
G04 P0 ( dwell for no time -- G64 should not smooth over this point )
G00 Z5.00000 ( retract )

G00 X71.62785 Y28.30530 ( rapid move to begin. )
G01 F50.00000
( Mill infeed pass 1/1 )
G01 Z-0.10000
G04 P0 ( dwell for no time -- G64 should not smooth over this point )
G01 F50.00000
G01 X71.62785 Y28.30530
G01 X71.62785 Y33.26460
G01 X71.66445 Y33.30118
G01 X71.62983 Y33.26656
G01 X71.66950 Y28.25872
G01 X71.62785 Y28.30530
G01 X70.04543 Y28.47642
G01 X68.31848 Y28.67558
G01 X67.86555 Y28.74366
G01 X67.43939 Y28.83530
G01 X67.03822 Y28.95067
G01 X66.65958 Y29.09052
G01 X65.09128 Y29.74012
G01 X64.64092 Y29.96702
G01 X64.44270 Y30.09819
G01 X64.25474 Y30.24607
G01 X63.98194 Y30.48386
G01 X63.95085 Y30.50393
G01 X63.87005 Y30.52813
G01 X63.59614 Y30.59199
G01 X63.37480 Y30.62702
G01 X63.11809 Y30.64891
G01 X62.96386 Y30.65290
G01 X37.73345 Y30.65290
G01 X37.56055 Y30.65823
G01 X37.30015 Y30.68394
G01 X36.98738 Y30.74411
G01 X36.65799 Y30.84200
G01 X36.46109 Y30.91678
G01 X22.68967 Y36.62109
G01 X21.91342 Y36.96673
G01 X21.12548 Y37.36424
G01 X20.29097 Y37.83945
G01 X19.39996 Y38.40513
G01 X18.50870 Y39.03442
G01 X18.11602 Y39.33093
G01 X18.10644 Y39.32550
G01 X18.11602 Y39.33093
G01 X18.05587 Y39.86731
G01 X18.04490 Y39.87071
G01 X18.05587 Y39.86731
G01 X18.72496 Y40.64925
G01 X19.19214 Y41.17660
G01 X19.77748 Y41.76966
G01 X21.25911 Y43.25130
G01 X21.72909 Y43.73938
G01 X22.19912 Y44.19130
G01 X23.79911 Y45.79130
G01 X24.26906 Y46.29231
G01 X24.73912 Y46.73130
G01 X26.33909 Y48.33130
G01 X26.60719 Y48.62825
G01 X26.82283 Y48.93216
G01 X26.83985 Y48.96642
G01 X26.84572 Y49.00422
G01 X26.84572 Y52.32405
G01 X26.80912 Y52.36065
G01 X26.84572 Y52.32405
G01 X29.13581 Y52.32405
G01 X29.17241 Y52.36065
G01 X29.13581 Y52.32405
G01 X29.13710 Y42.86971
G01 X29.14211 Y42.71447
G01 X29.16260 Y42.50533
G01 X29.18191 Y42.38147
G01 X29.19311 Y42.34658
G01 X29.31897 Y42.16575
G01 X29.45049 Y42.00566
G01 X29.55572 Y41.89339
G01 X37.76335 Y33.68576
G01 X37.87562 Y33.58053
G01 X38.03571 Y33.44901
G01 X38.22126 Y33.32015
G01 X38.25616 Y33.30900
G01 X38.37468 Y33.29064
G01 X38.58423 Y33.27011
G01 X38.73970 Y33.26508
G01 X71.62983 Y33.26656
G01 X71.62785 Y33.51449
G01 X71.66445 Y33.47789
G01 X71.62785 Y33.51449
G01 X38.74122 Y33.51500
G01 X38.59954 Y33.51957
G01 X38.40226 Y33.53902
G01 X38.32410 Y33.55111
G01 X38.32258 Y33.54692
G01 X38.32410 Y33.55111
G01 X38.19185 Y33.64413
G01 X38.04117 Y33.76775
G01 X37.93899 Y33.86356
G01 X29.73352 Y42.06903
G01 X29.63771 Y42.17121
G01 X29.51409 Y42.32189
G01 X29.42394 Y42.44972
G01 X29.41975 Y42.44820
G01 X29.42394 Y42.44972
G01 X29.41099 Y42.53291
G01 X29.39156 Y42.72978
G01 X29.38699 Y42.87126
G01 X29.38572 Y52.32405
G01 X29.34912 Y52.36065
G01 X29.38572 Y52.32405
G01 X31.67581 Y52.32405
G01 X31.71241 Y52.36065
G01 X31.67581 Y52.32405
G01 X31.67581 Y49.00712
G01 X31.67710 Y43.76288
G01 X31.68030 Y43.63872
G01 X31.69336 Y43.47185
G01 X31.70324 Y43.39039
G01 X31.71281 Y43.35587
G01 X31.81383 Y43.19412
G01 X31.91259 Y43.05813
G01 X32.03969 Y42.90675
G01 X32.12368 Y42.81797
G01 X38.68240 Y36.25924
G01 X38.79167 Y36.15685
G01 X38.95011 Y36.02688
G01 X39.16370 Y35.88116
G01 X39.22898 Y35.84344
G01 X39.26454 Y35.83452
G01 X39.46746 Y35.81451
G01 X39.62905 Y35.80905
G01 X71.62785 Y35.80841
G01 X71.66445 Y35.84501
G01 X71.62785 Y35.80841
G01 X71.62785 Y33.51449
G04 P0 ( dwell for no time -- G64 should not smooth over this point )
G00 Z5.00000 ( retract )

G00 X57.10862 Y27.42385 ( rapid move to begin. )
G01 F50.00000
( Mill infeed pass 1/1 )
G01 Z-0.10000
G04 P0 ( dwell for no time -- G64 should not smooth over this point )
G01 F50.00000
G01 X57.10862 Y27.42385
G01 X57.07581 Y27.39380
G01 X56.95295 Y27.41282
G01 X56.72755 Y27.42458
G01 X55.13398 Y27.42446
G01 X54.90858 Y27.41282
G01 X54.78572 Y27.39380
G01 X54.75290 Y27.42385
G01 X54.78572 Y27.39380
G01 X54.78572 Y22.63181
G01 X54.75414 Y22.60376
G01 X54.78572 Y22.63181
G01 X55.14830 Y22.59858
G01 X55.56829 Y22.53844
G01 X55.93674 Y22.44900
G01 X55.93725 Y22.44258
G01 X55.93674 Y22.44900
G01 X56.01772 Y22.47994
G01 X56.64017 Y23.10572
G01 X56.89681 Y23.38997
G01 X57.07581 Y23.64392
G01 X57.08167 Y23.64207
G01 X57.07581 Y23.64392
G01 X57.07581 Y27.39380
G04 P0 ( dwell for no time -- G64 should not smooth over this point )
G00 Z5.00000 ( retract )

G00 X52.99067 Y43.71431 ( rapid move to begin. )
G01 F50.00000
( Mill infeed pass 1/1 )
G01 Z-0.10000
G04 P0 ( dwell for no time -- G64 should not smooth over this point )
G01 F50.00000
G01 X52.99067 Y43.71431
G01 X53.04437 Y43.72917
G01 X53.56139 Y43.45087
G01 X54.02072 Y43.22775
G01 X54.49004 Y43.02155
G01 X58.00555 Y41.56540
G01 X58.43133 Y41.40228
G01 X59.19694 Y41.17167
G01 X59.92508 Y41.02865
G01 X60.63181 Y40.96101
G01 X61.28779 Y40.96098
G01 X61.64039 Y40.98539
G01 X61.68794 Y40.97960
G01 X61.72985 Y40.95636
G01 X62.21931 Y40.54427
G01 X62.70376 Y40.20045
G01 X63.18644 Y39.92169
G01 X63.64958 Y39.71544
G01 X63.64902 Y39.71272
G01 X63.64958 Y39.71544
G01 X71.62785 Y39.71696
G01 X71.66445 Y39.68039
G01 X71.62785 Y39.71696
G01 X71.62785 Y52.32405
G01 X71.66445 Y52.36065
G01 X71.62785 Y52.32405
G01 X66.41658 Y52.32405
G01 X66.41201 Y52.33449
G01 X66.41658 Y52.32405
G01 X66.28244 Y52.16873
G01 X65.86103 Y51.72489
G01 X65.12888 Y50.99266
G01 X64.60305 Y50.41456
G01 X64.38237 Y50.12939
G01 X64.18603 Y49.84206
G01 X62.87277 Y47.78405
G01 X62.51829 Y47.28881
G01 X62.48278 Y47.26424
G01 X62.44105 Y47.25322
G01 X62.05238 Y47.22177
G01 X62.01570 Y47.22988
G01 X61.76294 Y47.32741
G01 X60.70349 Y47.76625
G01 X60.67522 Y47.78256
G01 X60.12241 Y48.33386
G01 X59.85424 Y48.63099
G01 X59.62884 Y48.95157
G01 X59.62165 Y48.96935
G01 X59.61581 Y49.00712
G01 X59.61581 Y52.32405
G01 X59.65241 Y52.36065
G01 X59.61581 Y52.32405
G01 X57.32572 Y52.32405
G01 X57.28912 Y52.36065
G01 X57.32572 Y52.32405
G01 X57.32572 Y49.00422
G01 X57.32424 Y48.98509
G01 X57.31266 Y48.94864
G01 X57.08719 Y48.62825
G01 X56.81911 Y48.33130
G01 X55.33751 Y46.84969
G01 X54.75577 Y46.25157
G01 X54.29164 Y45.63207
G01 X53.77193 Y44.89877
G01 X53.35704 Y44.25472
G01 X53.04437 Y43.72917
G01 X54.70840 Y46.45274
G01 X54.78572 Y46.64017
G01 X54.78572 Y52.32405
G01 X54.74912 Y52.36065
G01 X54.78572 Y52.32405
G01 X57.07581 Y52.32405
G01 X57.11241 Y52.36065
G01 X57.07581 Y52.32405
G01 X57.07581 Y49.04389
G01 X57.08167 Y49.04204
G01 X57.07581 Y49.04389
G01 X56.89681 Y48.78995
G01 X56.64017 Y48.50569
G01 X55.15950 Y47.02510
G01 X54.78572 Y46.64017
G04 P0 ( dwell for no time -- G64 should not smooth over this point )
G00 Z5.00000 ( retract )

G00 X44.41241 Y52.36065 ( rapid move to begin. )
G01 F50.00000
( Mill infeed pass 1/1 )
G01 Z-0.10000
G04 P0 ( dwell for no time -- G64 should not smooth over this point )
G01 F50.00000
G01 X44.41241 Y52.36065
G01 X44.37581 Y52.32405
G01 X44.37581 Y43.81490
G01 X44.41157 Y43.77980
G01 X44.37581 Y43.81490
G01 X44.02958 Y43.80837
G01 X42.33903 Y43.80880
G01 X42.33845 Y43.80611
G01 X42.33903 Y43.80880
G01 X42.08572 Y43.92092
G01 X42.06547 Y43.90774
G01 X42.08572 Y43.92092
G01 X42.08572 Y52.32405
G01 X42.04912 Y52.36065
G01 X42.08572 Y52.32405
G01 X44.37581 Y52.32405
G01 X46.95241 Y52.36065
G01 X46.91581 Y52.32405
G01 X46.91581 Y43.81490
G01 X46.95157 Y43.77980
G01 X46.91581 Y43.81490
G01 X46.56958 Y43.80835
G01 X44.97194 Y43.80837
G01 X44.62572 Y43.81490
G01 X44.58927 Y43.77858
G01 X44.62572 Y43.81490
G01 X44.62572 Y52.32405
G01 X44.58912 Y52.36065
G01 X44.62572 Y52.32405
G01 X46.91581 Y52.32405
G01 X49.49241 Y52.36065
G01 X49.45581 Y52.32405
G01 X49.45581 Y43.81490
G01 X49.49157 Y43.77980
G01 X49.45581 Y43.81490
G01 X49.10958 Y43.80835
G01 X47.51194 Y43.80837
G01 X47.16572 Y43.81490
G01 X47.12927 Y43.77858
G01 X47.16572 Y43.81490
G01 X47.16572 Y52.32405
G01 X47.12912 Y52.36065
G01 X47.16572 Y52.32405
G01 X51.99581 Y52.32405
G01 X52.03241 Y52.36065
G01 X51.99581 Y52.32405
G01 X51.99581 Y43.81490
G01 X52.03157 Y43.77980
G01 X51.99581 Y43.81490
G01 X51.64958 Y43.80835
G01 X50.05194 Y43.80837
G01 X49.70572 Y43.81490
G01 X49.66927 Y43.77858
G01 X49.70572 Y43.81490
G01 X49.70572 Y52.32405
G01 X49.66912 Y52.36065
G01 X54.57241 Y52.36065
G01 X54.53581 Y52.32405
G01 X52.24572 Y52.32405
G01 X52.20912 Y52.36065
G01 X52.24572 Y52.32405
G01 X52.24572 Y43.81490
G01 X52.20962 Y43.77924
G01 X52.24572 Y43.81490
G01 X52.80068 Y43.80837
G01 X52.81011 Y43.79156
G01 X52.80068 Y43.80837
G01 X53.14335 Y44.38432
G01 X53.56512 Y45.03903
G01 X54.09098 Y45.78101
G01 X54.53581 Y46.37418
G01 X54.54223 Y46.37204
G01 X54.53581 Y46.37418
G01 X54.53581 Y52.32405
G04 P0 ( dwell for no time -- G64 should not smooth over this point )
G00 Z5.00000 ( retract )

G00 X66.08531 Y52.32405 ( rapid move to begin. )
G01 F50.00000
( Mill infeed pass 1/1 )
G01 Z-0.10000
G04 P0 ( dwell for no time -- G64 should not smooth over this point )
G01 F50.00000
G01 X66.08531 Y52.32405
G01 X59.86572 Y52.32405
G01 X59.82912 Y52.36065
G01 X59.86572 Y52.32405
G01 X59.86572 Y49.04674
G01 X59.85988 Y49.04489
G01 X59.86572 Y49.04674
G01 X60.04484 Y48.79279
G01 X60.30140 Y48.50829
G01 X60.82068 Y47.98553
G01 X61.85715 Y47.55888
G01 X62.07879 Y47.47339
G01 X62.07826 Y47.46986
G01 X62.07879 Y47.47339
G01 X62.36228 Y47.49734
G01 X62.36861 Y47.48627
G01 X62.36228 Y47.49734
G01 X62.66383 Y47.92114
G01 X63.97859 Y49.98143
G01 X64.17813 Y50.27343
G01 X64.40846 Y50.57143
G01 X64.94600 Y51.16302
G01 X65.68092 Y51.89814
G01 X66.08531 Y52.32405
G01 X66.26779 Y52.40066

G04 P0 ( dwell for no time -- G64 should not smooth over this point )
G00 Z40.000000 ( retract )

M5 ( Spindle off. )
G04 P1.000000
M9 ( Coolant off. )
M2 ( Program end. )

