( pcb2gcode 2.5.0 )
( Software-independent Gcode )

( This file uses only one drill bit. Forced by 'onedrill' option )

G94       (Millimeters per minute feed rate.)
G21       (Units == Millimeters.)
G91.1     (Incremental arc distance mode.)
G90       (Absolute coordinates.)
G00 S1000     (RPM spindle speed.)

G00 Z40.00000 (Retract)
T1
M5      (Spindle stop.)
G04 P1.00000
(MSG, Change tool bit to drill size 0.9mm)
M0      (Temporary machine stop.)
M3      (Spindle on clockwise.)
G0 Z5.00000
G04 P1.00000

G1 F200.00000
G0 X7.62000 Y9.52500
G1 Z-1.80000
G1 Z5.00000
G0 X7.62000 Y12.06500
G1 Z-1.80000
G1 Z5.00000
G0 X7.62000 Y14.60500
G1 Z-1.80000
G1 Z5.00000
G0 X7.62000 Y17.14500
G1 Z-1.80000
G1 Z5.00000
G0 X7.67100 Y25.46100
G1 Z-1.80000
G1 Z5.00000
G0 X10.21100 Y25.46100
G1 Z-1.80000
G1 Z5.00000
G0 X12.75100 Y25.46100
G1 Z-1.80000
G1 Z5.00000
G0 X15.29100 Y25.46100
G1 Z-1.80000
G1 Z5.00000
G0 X17.83100 Y25.46100
G1 Z-1.80000
G1 Z5.00000
G0 X20.37100 Y25.46100
G1 Z-1.80000
G1 Z5.00000
G0 X22.91100 Y25.46100
G1 Z-1.80000
G1 Z5.00000
G0 X25.45100 Y25.46100
G1 Z-1.80000
G1 Z5.00000
G0 X27.99100 Y25.46100
G1 Z-1.80000
G1 Z5.00000
G0 X30.53100 Y25.46100
G1 Z-1.80000
G1 Z5.00000
G0 X33.07100 Y25.46100
G1 Z-1.80000
G1 Z5.00000
G0 X35.61100 Y25.46100
G1 Z-1.80000
G1 Z5.00000
G0 X38.15100 Y25.46100
G1 Z-1.80000
G1 Z5.00000
G0 X40.69100 Y25.46100
G1 Z-1.80000
G1 Z5.00000
G0 X43.23100 Y25.46100
G1 Z-1.80000
G1 Z5.00000
G0 X45.77100 Y25.46100
G1 Z-1.80000
G1 Z5.00000
G0 X48.31100 Y25.46100
G1 Z-1.80000
G1 Z5.00000
G0 X50.85100 Y25.46100
G1 Z-1.80000
G1 Z5.00000
G0 X53.39100 Y25.46100
G1 Z-1.80000
G1 Z5.00000
G0 X55.93100 Y25.46100
G1 Z-1.80000
G1 Z5.00000
G0 X48.89500 Y19.68500
G1 Z-1.80000
G1 Z5.00000
G0 X43.18000 Y19.68500
G1 Z-1.80000
G1 Z5.00000
G0 X43.18000 Y17.14500
G1 Z-1.80000
G1 Z5.00000
G0 X43.18000 Y14.60500
G1 Z-1.80000
G1 Z5.00000
G0 X43.18000 Y12.06500
G1 Z-1.80000
G1 Z5.00000
G0 X43.18000 Y9.52500
G1 Z-1.80000
G1 Z5.00000
G0 X43.18000 Y6.98500
G1 Z-1.80000
G1 Z5.00000
G0 X51.43500 Y19.68500
G1 Z-1.80000
G1 Z5.00000
G0 X53.97500 Y19.68500
G1 Z-1.80000
G1 Z5.00000
G0 X65.82600 Y17.17200
G1 Z-1.80000
G1 Z5.00000
G0 X65.82600 Y19.71600
G1 Z-1.80000
G1 Z5.00000
G0 X61.01100 Y25.46100
G1 Z-1.80000
G1 Z5.00000
G0 X58.47100 Y25.46100
G1 Z-1.80000
G1 Z5.00000
G0 X65.82700 Y32.11800
G1 Z-1.80000
G1 Z5.00000
G0 X65.82700 Y34.66100
G1 Z-1.80000
G1 Z5.00000
G0 X65.82700 Y37.20600
G1 Z-1.80000
G1 Z5.00000
G0 X65.82600 Y41.97600
G1 Z-1.80000
G1 Z5.00000
G0 X65.82600 Y44.52000
G1 Z-1.80000
G1 Z5.00000
G0 X65.82600 Y47.06400
G1 Z-1.80000
G1 Z5.00000
G0 X61.01100 Y50.86100
G1 Z-1.80000
G1 Z5.00000
G0 X58.47100 Y50.86100
G1 Z-1.80000
G1 Z5.00000
G0 X55.93100 Y50.86100
G1 Z-1.80000
G1 Z5.00000
G0 X53.39100 Y50.86100
G1 Z-1.80000
G1 Z5.00000
G0 X50.85100 Y50.86100
G1 Z-1.80000
G1 Z5.00000
G0 X48.31100 Y50.86100
G1 Z-1.80000
G1 Z5.00000
G0 X45.77100 Y50.86100
G1 Z-1.80000
G1 Z5.00000
G0 X43.23100 Y50.86100
G1 Z-1.80000
G1 Z5.00000
G0 X40.69100 Y50.86100
G1 Z-1.80000
G1 Z5.00000
G0 X38.15100 Y50.86100
G1 Z-1.80000
G1 Z5.00000
G0 X35.61100 Y50.86100
G1 Z-1.80000
G1 Z5.00000
G0 X33.07100 Y50.86100
G1 Z-1.80000
G1 Z5.00000
G0 X30.53100 Y50.86100
G1 Z-1.80000
G1 Z5.00000
G0 X27.99100 Y50.86100
G1 Z-1.80000
G1 Z5.00000
G0 X25.45100 Y50.86100
G1 Z-1.80000
G1 Z5.00000
G0 X22.91100 Y50.86100
G1 Z-1.80000
G1 Z5.00000
G0 X20.37100 Y50.86100
G1 Z-1.80000
G1 Z5.00000
G0 X17.83100 Y50.86100
G1 Z-1.80000
G1 Z5.00000
G0 X15.29100 Y50.86100
G1 Z-1.80000
G1 Z5.00000
G0 X12.75100 Y50.86100
G1 Z-1.80000
G1 Z5.00000
G0 X10.21100 Y50.86100
G1 Z-1.80000
G1 Z5.00000
G0 X7.67100 Y50.86100
G1 Z-1.80000
G1 Z5.00000

G00 Z40.000 ( All done -- retract )

M5      (Spindle off.)
G04 P1.000000
M9      (Coolant off.)
M2      (Program end.)

