( pcb2gcode 2.5.0 )
( Software-independent Gcode )

G94 ( Millimeters per minute feed rate. )
G21 ( Units == Millimeters. )

G90 ( Absolute coordinates. )
G00 S1000 ( RPM spindle speed. )
G01 F75.00000 ( Feedrate. )


G00 Z40.00000 (Retract to tool change height)
T0
M5      (Spindle stop.)
G04 P1.00000 (Wait for spindle to stop)
(MSG, Change tool bit to mill diameter 0.50000mm)
M0      (Temporary machine stop.)
M3 ( Spindle on clockwise. )
G04 P1.00000 (Wait for spindle to get up to speed)
G04 P0 ( dwell for no time -- G64 should not smooth over this point )
G00 Z5.00000 ( retract )

G00 X-9.06988 Y12.86497 ( rapid move to begin. )
G01 F75.00000
( Mill infeed pass 1/1 )
G01 Z-0.10000
G04 P0 ( dwell for no time -- G64 should not smooth over this point )
G01 F75.00000
G01 X-9.06988 Y12.86497
G01 X-9.06028 Y12.96251
G01 X-9.03183 Y13.05629
G01 X-8.98563 Y13.14270
G01 X-8.93041 Y13.21003
G01 X-6.30956 Y13.21003
G01 X-6.25434 Y13.14270
G01 X-6.20814 Y13.05629
G01 X-6.17969 Y12.96251
G01 X-6.17009 Y12.86497
G01 X-6.17009 Y11.26498
G01 X-6.17969 Y11.16747
G01 X-6.20814 Y11.07369
G01 X-6.25434 Y10.98725
G01 X-6.30959 Y10.91992
G01 X-8.93039 Y10.91992
G01 X-8.98563 Y10.98725
G01 X-9.03183 Y11.07369
G01 X-9.06028 Y11.16747
G01 X-9.06988 Y11.26498
G01 X-8.82000 Y11.26498
G01 X-8.81517 Y11.21621
G01 X-8.80095 Y11.16932
G01 X-8.77786 Y11.12609
G01 X-8.74677 Y11.08822
G01 X-8.70887 Y11.05713
G01 X-8.66567 Y11.03401
G01 X-8.61875 Y11.01979
G01 X-8.56999 Y11.01499
G01 X-6.66999 Y11.01499
G01 X-6.62122 Y11.01979
G01 X-6.57428 Y11.03401
G01 X-6.53110 Y11.05713
G01 X-6.49318 Y11.08822
G01 X-6.46209 Y11.12609
G01 X-6.43900 Y11.16932
G01 X-6.42478 Y11.21621
G01 X-6.41998 Y11.26498
G01 X-6.41998 Y12.86497
G01 X-6.42478 Y12.91377
G01 X-6.43900 Y12.96065
G01 X-6.46209 Y13.00389
G01 X-6.49318 Y13.04176
G01 X-6.53110 Y13.07285
G01 X-6.57428 Y13.09594
G01 X-6.62122 Y13.11016
G01 X-6.66999 Y13.11496
G01 X-8.56999 Y13.11496
G01 X-8.61875 Y13.11016
G01 X-8.66567 Y13.09594
G01 X-8.70887 Y13.07285
G01 X-8.74677 Y13.04176
G01 X-8.77786 Y13.00389
G01 X-8.80095 Y12.96065
G01 X-8.81517 Y12.91377
G01 X-8.82000 Y12.86497
G01 X-8.82000 Y11.26498
G01 X-9.06988 Y11.26498
G01 X-9.06988 Y10.32500
G01 X-9.06028 Y10.42251
G01 X-9.03183 Y10.51629
G01 X-8.98563 Y10.60272
G01 X-8.93041 Y10.67003
G01 X-6.30956 Y10.67003
G01 X-6.25434 Y10.60272
G01 X-6.20814 Y10.51629
G01 X-6.17969 Y10.42251
G01 X-6.17009 Y10.32500
G01 X-6.17009 Y8.72498
G01 X-6.17969 Y8.62747
G01 X-6.20814 Y8.53369
G01 X-6.25434 Y8.44725
G01 X-6.31650 Y8.37151
G01 X-6.39227 Y8.30933
G01 X-6.47868 Y8.26313
G01 X-6.57245 Y8.23468
G01 X-6.66999 Y8.22508
G01 X-8.56999 Y8.22508
G01 X-8.66752 Y8.23468
G01 X-8.76130 Y8.26313
G01 X-8.84771 Y8.30933
G01 X-8.92348 Y8.37151
G01 X-8.98563 Y8.44725
G01 X-9.03183 Y8.53369
G01 X-9.06028 Y8.62747
G01 X-9.06988 Y8.72498
G01 X-8.82000 Y8.72498
G01 X-8.81517 Y8.67621
G01 X-8.80095 Y8.62932
G01 X-8.77786 Y8.58609
G01 X-8.74677 Y8.54822
G01 X-8.70887 Y8.51713
G01 X-8.66567 Y8.49401
G01 X-8.61875 Y8.47979
G01 X-8.56999 Y8.47499
G01 X-6.66999 Y8.47499
G01 X-6.62122 Y8.47979
G01 X-6.57428 Y8.49401
G01 X-6.53110 Y8.51713
G01 X-6.49318 Y8.54822
G01 X-6.46209 Y8.58609
G01 X-6.43900 Y8.62932
G01 X-6.42478 Y8.67621
G01 X-6.41998 Y8.72498
G01 X-6.41998 Y10.32500
G01 X-6.42478 Y10.37377
G01 X-6.43900 Y10.42065
G01 X-6.46209 Y10.46389
G01 X-6.49318 Y10.50176
G01 X-6.53110 Y10.53285
G01 X-6.57428 Y10.55596
G01 X-6.62122 Y10.57018
G01 X-6.66999 Y10.57499
G01 X-8.56999 Y10.57499
G01 X-8.61875 Y10.57018
G01 X-8.66567 Y10.55596
G01 X-8.70887 Y10.53285
G01 X-8.74677 Y10.50176
G01 X-8.77786 Y10.46389
G01 X-8.80095 Y10.42065
G01 X-8.81517 Y10.37377
G01 X-8.82000 Y10.32500
G01 X-8.82000 Y8.72498
G01 X-9.06988 Y8.72498
G01 X-9.06988 Y17.94500
G01 X-9.06028 Y18.04251
G01 X-9.03183 Y18.13629
G01 X-8.98563 Y18.22272
G01 X-8.92348 Y18.29846
G01 X-8.84771 Y18.36064
G01 X-8.76130 Y18.40685
G01 X-8.66752 Y18.43529
G01 X-8.56999 Y18.44490
G01 X-6.66999 Y18.44490
G01 X-6.57245 Y18.43529
G01 X-6.47868 Y18.40685
G01 X-6.39227 Y18.36064
G01 X-6.31650 Y18.29846
G01 X-6.29483 Y18.27207
G01 X-6.28137 Y18.23519
G01 X-6.24944 Y18.08955
G01 X-6.23854 Y17.94043
G01 X-6.23837 Y17.01104
G01 X-6.22343 Y16.82374
G01 X-6.18416 Y16.65501
G01 X-6.17009 Y16.61450
G01 X-6.17009 Y16.34498
G01 X-6.17969 Y16.24747
G01 X-6.20814 Y16.15369
G01 X-6.25434 Y16.06725
G01 X-6.30959 Y15.99992
G01 X-8.93039 Y15.99992
G01 X-8.98563 Y16.06725
G01 X-9.03183 Y16.15369
G01 X-9.06028 Y16.24747
G01 X-9.06988 Y16.34498
G01 X-8.82000 Y16.34498
G01 X-8.81517 Y16.29621
G01 X-8.80095 Y16.24932
G01 X-8.77786 Y16.20609
G01 X-8.74677 Y16.16822
G01 X-8.70887 Y16.13713
G01 X-8.66567 Y16.11401
G01 X-8.61875 Y16.09979
G01 X-8.56999 Y16.09499
G01 X-6.66999 Y16.09499
G01 X-6.62122 Y16.09979
G01 X-6.57428 Y16.11401
G01 X-6.53110 Y16.13713
G01 X-6.49318 Y16.16822
G01 X-6.46209 Y16.20609
G01 X-6.43900 Y16.24932
G01 X-6.42478 Y16.29621
G01 X-6.41998 Y16.34498
G01 X-6.41998 Y17.94500
G01 X-6.42478 Y17.99377
G01 X-6.43900 Y18.04065
G01 X-6.46209 Y18.08389
G01 X-6.49318 Y18.12176
G01 X-6.53110 Y18.15285
G01 X-6.57428 Y18.17596
G01 X-6.62122 Y18.19018
G01 X-6.66999 Y18.19499
G01 X-8.56999 Y18.19499
G01 X-8.61875 Y18.19018
G01 X-8.66567 Y18.17596
G01 X-8.70887 Y18.15285
G01 X-8.74677 Y18.12176
G01 X-8.77786 Y18.08389
G01 X-8.80095 Y18.04065
G01 X-8.81517 Y17.99377
G01 X-8.82000 Y17.94500
G01 X-8.82000 Y16.34498
G01 X-9.06988 Y16.34498
G01 X-9.06988 Y15.40500
G01 X-9.06028 Y15.50251
G01 X-9.03183 Y15.59629
G01 X-8.98563 Y15.68272
G01 X-8.93041 Y15.75003
G01 X-6.30956 Y15.75003
G01 X-6.25434 Y15.68272
G01 X-6.24086 Y15.65750
G01 X-6.23854 Y13.83843
G01 X-6.23062 Y13.57163
G01 X-6.25434 Y13.52725
G01 X-6.30959 Y13.45992
G01 X-8.93039 Y13.45992
G01 X-8.98563 Y13.52725
G01 X-9.03183 Y13.61369
G01 X-9.06028 Y13.70747
G01 X-9.06988 Y13.80498
G01 X-8.82000 Y13.80498
G01 X-8.81517 Y13.75621
G01 X-8.80095 Y13.70932
G01 X-8.77786 Y13.66609
G01 X-8.74677 Y13.62822
G01 X-8.70887 Y13.59713
G01 X-8.66567 Y13.57401
G01 X-8.61875 Y13.55979
G01 X-8.56999 Y13.55499
G01 X-6.66999 Y13.55499
G01 X-6.62122 Y13.55979
G01 X-6.57428 Y13.57401
G01 X-6.53110 Y13.59713
G01 X-6.49318 Y13.62822
G01 X-6.46209 Y13.66609
G01 X-6.43900 Y13.70932
G01 X-6.42478 Y13.75621
G01 X-6.41998 Y13.80498
G01 X-6.41998 Y15.40500
G01 X-6.42478 Y15.45377
G01 X-6.43900 Y15.50065
G01 X-6.46209 Y15.54389
G01 X-6.49318 Y15.58176
G01 X-6.53110 Y15.61285
G01 X-6.57428 Y15.63596
G01 X-6.62122 Y15.65018
G01 X-6.66999 Y15.65499
G01 X-8.56999 Y15.65499
G01 X-8.61875 Y15.65018
G01 X-8.66567 Y15.63596
G01 X-8.70887 Y15.61285
G01 X-8.74677 Y15.58176
G01 X-8.77786 Y15.54389
G01 X-8.80095 Y15.50065
G01 X-8.81517 Y15.45377
G01 X-8.82000 Y15.40500
G01 X-8.82000 Y13.80498
G04 P0 ( dwell for no time -- G64 should not smooth over this point )
G00 Z5.00000 ( retract )

G00 X-5.80725 Y15.41526 ( rapid move to begin. )
G01 F75.00000
( Mill infeed pass 1/1 )
G01 Z-0.10000
G04 P0 ( dwell for no time -- G64 should not smooth over this point )
G01 F75.00000
G01 X-5.80725 Y15.41526
G01 X-5.80245 Y15.46403
G01 X-5.78823 Y15.51092
G01 X-5.76511 Y15.55415
G01 X-5.73402 Y15.59202
G01 X-5.69613 Y15.62311
G01 X-5.65292 Y15.64622
G01 X-5.60601 Y15.66045
G01 X-5.55724 Y15.66525
G01 X-3.98244 Y15.66525
G01 X-3.93367 Y15.66045
G01 X-3.88678 Y15.64622
G01 X-3.84355 Y15.62311
G01 X-3.80568 Y15.59202
G01 X-3.77459 Y15.55415
G01 X-3.75148 Y15.51092
G01 X-3.73725 Y15.46403
G01 X-3.73245 Y15.41526
G01 X-3.73245 Y13.84043
G01 X-3.73725 Y13.79167
G01 X-3.75148 Y13.74478
G01 X-3.77459 Y13.70155
G01 X-3.80568 Y13.66368
G01 X-3.84355 Y13.63259
G01 X-3.88678 Y13.60947
G01 X-3.93367 Y13.59525
G01 X-3.98244 Y13.59045
G01 X-5.55724 Y13.59045
G01 X-5.60601 Y13.59525
G01 X-5.65292 Y13.60947
G01 X-5.69613 Y13.63259
G01 X-5.73402 Y13.66368
G01 X-5.76511 Y13.70155
G01 X-5.78823 Y13.74478
G01 X-5.80245 Y13.79167
G01 X-5.80725 Y13.84043
G01 X-5.80725 Y15.84571
G01 X-5.74855 Y15.87708
G01 X-5.65478 Y15.90553
G01 X-5.55724 Y15.91516
G01 X-3.98244 Y15.91516
G01 X-3.88493 Y15.90553
G01 X-3.79115 Y15.87708
G01 X-3.70472 Y15.83091
G01 X-3.62897 Y15.76873
G01 X-3.56679 Y15.69298
G01 X-3.52059 Y15.60655
G01 X-3.49214 Y15.51277
G01 X-3.48254 Y15.41526
G01 X-3.48254 Y13.84043
G01 X-3.49214 Y13.74292
G01 X-3.52059 Y13.64915
G01 X-3.56679 Y13.56271
G01 X-3.62897 Y13.48697
G01 X-3.70472 Y13.42479
G01 X-3.79115 Y13.37861
G01 X-3.88493 Y13.35016
G01 X-3.98244 Y13.34054
G01 X-5.55724 Y13.34054
G01 X-5.65478 Y13.35016
G01 X-5.74855 Y13.37861
G01 X-5.83496 Y13.42479
G01 X-5.91073 Y13.48697
G01 X-5.97291 Y13.56271
G01 X-5.98079 Y13.57744
G01 X-5.98866 Y13.84143
G01 X-5.80725 Y13.84043
G01 X-5.98866 Y13.84143
G01 X-5.99097 Y15.65918
G01 X-5.97291 Y15.69298
G01 X-5.91073 Y15.76873
G01 X-5.83496 Y15.83091
G01 X-5.80725 Y15.84571
G01 X-5.80725 Y16.59004
G01 X-5.74855 Y16.55869
G01 X-5.65478 Y16.53024
G01 X-5.55724 Y16.52062
G01 X-3.98244 Y16.52062
G01 X-3.88493 Y16.53024
G01 X-3.79115 Y16.55869
G01 X-3.70472 Y16.60487
G01 X-3.62897 Y16.66705
G01 X-3.56679 Y16.74279
G01 X-3.52059 Y16.82923
G01 X-3.49214 Y16.92300
G01 X-3.48254 Y17.02051
G01 X-3.48254 Y18.59534
G01 X-3.49214 Y18.69285
G01 X-3.52059 Y18.78663
G01 X-3.56679 Y18.87306
G01 X-3.62897 Y18.94881
G01 X-3.70472 Y19.01099
G01 X-3.79115 Y19.05716
G01 X-3.88493 Y19.08561
G01 X-3.98244 Y19.09524
G01 X-5.55724 Y19.09524
G01 X-5.65478 Y19.08561
G01 X-5.74855 Y19.05716
G01 X-5.83496 Y19.01099
G01 X-5.91073 Y18.94881
G01 X-5.97291 Y18.87306
G01 X-6.01909 Y18.78663
G01 X-6.04754 Y18.69285
G01 X-6.05714 Y18.59534
G01 X-6.05714 Y18.34972
G01 X-6.03905 Y18.29692
G01 X-6.00258 Y18.13446
G01 X-5.98899 Y17.95409
G01 X-5.98866 Y17.02524
G01 X-5.97690 Y16.87032
G01 X-5.94243 Y16.71894
G01 X-5.93308 Y16.69428
G01 X-5.91073 Y16.66705
G01 X-5.83496 Y16.60487
G01 X-5.80725 Y16.59004
G01 X-5.83496 Y16.60487
G01 X-5.91073 Y16.66705
G01 X-5.93308 Y16.69428
G01 X-5.94243 Y16.71894
G01 X-5.97690 Y16.87032
G01 X-5.98866 Y17.02524
G01 X-5.80725 Y17.02051
G01 X-5.80245 Y16.97175
G01 X-5.78823 Y16.92486
G01 X-5.76511 Y16.88163
G01 X-5.73402 Y16.84376
G01 X-5.69613 Y16.81267
G01 X-5.65292 Y16.78955
G01 X-5.60601 Y16.77533
G01 X-5.55724 Y16.77053
G01 X-3.98244 Y16.77053
G01 X-3.93367 Y16.77533
G01 X-3.88678 Y16.78955
G01 X-3.84355 Y16.81267
G01 X-3.80568 Y16.84376
G01 X-3.77459 Y16.88163
G01 X-3.75148 Y16.92486
G01 X-3.73725 Y16.97175
G01 X-3.73245 Y17.02051
G01 X-3.73245 Y18.59534
G01 X-3.73725 Y18.64411
G01 X-3.75148 Y18.69100
G01 X-3.77459 Y18.73423
G01 X-3.80568 Y18.77210
G01 X-3.84355 Y18.80319
G01 X-3.88678 Y18.82630
G01 X-3.93367 Y18.84053
G01 X-3.98244 Y18.84533
G01 X-5.55724 Y18.84533
G01 X-5.60601 Y18.84053
G01 X-5.65292 Y18.82630
G01 X-5.69613 Y18.80319
G01 X-5.73402 Y18.77210
G01 X-5.76511 Y18.73423
G01 X-5.78823 Y18.69100
G01 X-5.80245 Y18.64411
G01 X-5.80725 Y18.59534
G01 X-5.80725 Y16.59004
G04 P0 ( dwell for no time -- G64 should not smooth over this point )
G00 Z5.00000 ( retract )

G00 X-8.72079 Y24.51095 ( rapid move to begin. )
G01 F75.00000
( Mill infeed pass 1/1 )
G01 Z-0.10000
G04 P0 ( dwell for no time -- G64 should not smooth over this point )
G01 F75.00000
G01 X-8.72079 Y24.51095
G01 X-8.71598 Y24.46216
G01 X-8.70174 Y24.41527
G01 X-8.67865 Y24.37204
G01 X-8.64756 Y24.33417
G01 X-8.60966 Y24.30308
G01 X-8.56645 Y24.27996
G01 X-8.51954 Y24.26574
G01 X-8.47077 Y24.26094
G01 X-6.87078 Y24.26094
G01 X-6.82201 Y24.26574
G01 X-6.77509 Y24.27996
G01 X-6.73189 Y24.30308
G01 X-6.69399 Y24.33417
G01 X-6.66290 Y24.37204
G01 X-6.63979 Y24.41527
G01 X-6.62559 Y24.46216
G01 X-6.62076 Y24.51095
G01 X-6.62076 Y26.41095
G01 X-6.62559 Y26.45969
G01 X-6.63979 Y26.50658
G01 X-6.66290 Y26.54983
G01 X-6.69399 Y26.58768
G01 X-6.73189 Y26.61879
G01 X-6.77509 Y26.64191
G01 X-6.82201 Y26.65613
G01 X-6.87078 Y26.66093
G01 X-8.47077 Y26.66093
G01 X-8.51954 Y26.65613
G01 X-8.56645 Y26.64191
G01 X-8.60966 Y26.61879
G01 X-8.64756 Y26.58768
G01 X-8.67865 Y26.54983
G01 X-8.70174 Y26.50658
G01 X-8.71598 Y26.45969
G01 X-8.72079 Y26.41095
G01 X-8.72079 Y24.51095
G01 X-8.81581 Y24.15052
G01 X-8.81581 Y26.77135
G01 X-8.74850 Y26.82659
G01 X-8.66209 Y26.87279
G01 X-8.56831 Y26.90124
G01 X-8.47077 Y26.91084
G01 X-6.87078 Y26.91084
G01 X-6.77324 Y26.90124
G01 X-6.67946 Y26.87279
G01 X-6.59305 Y26.82659
G01 X-6.51726 Y26.76441
G01 X-6.45513 Y26.68867
G01 X-6.40893 Y26.60221
G01 X-6.38045 Y26.50843
G01 X-6.37088 Y26.41095
G01 X-6.37088 Y24.51095
G01 X-6.38045 Y24.41341
G01 X-6.40893 Y24.31964
G01 X-6.45513 Y24.23320
G01 X-6.51726 Y24.15746
G01 X-6.59305 Y24.09528
G01 X-6.67946 Y24.04910
G01 X-6.77324 Y24.02065
G01 X-6.87078 Y24.01103
G01 X-8.47077 Y24.01103
G01 X-8.56831 Y24.02065
G01 X-8.66209 Y24.04910
G01 X-8.74850 Y24.09528
G01 X-8.81581 Y24.15052
G01 X-11.35581 Y24.15052
G01 X-11.26079 Y24.51095
G01 X-11.25598 Y24.46216
G01 X-11.24174 Y24.41527
G01 X-11.21865 Y24.37204
G01 X-11.18756 Y24.33417
G01 X-11.14966 Y24.30308
G01 X-11.10645 Y24.27996
G01 X-11.05954 Y24.26574
G01 X-11.01077 Y24.26094
G01 X-9.41078 Y24.26094
G01 X-9.36201 Y24.26574
G01 X-9.31509 Y24.27996
G01 X-9.27189 Y24.30308
G01 X-9.23399 Y24.33417
G01 X-9.20290 Y24.37204
G01 X-9.17981 Y24.41527
G01 X-9.16559 Y24.46216
G01 X-9.16079 Y24.51095
G01 X-9.16079 Y26.41095
G01 X-9.16559 Y26.45969
G01 X-9.17981 Y26.50658
G01 X-9.20290 Y26.54983
G01 X-9.23399 Y26.58768
G01 X-9.27189 Y26.61879
G01 X-9.31509 Y26.64191
G01 X-9.36201 Y26.65613
G01 X-9.41078 Y26.66093
G01 X-11.01077 Y26.66093
G01 X-11.05954 Y26.65613
G01 X-11.10645 Y26.64191
G01 X-11.14966 Y26.61879
G01 X-11.18756 Y26.58768
G01 X-11.21865 Y26.54983
G01 X-11.24174 Y26.50658
G01 X-11.25598 Y26.45969
G01 X-11.26079 Y26.41095
G01 X-11.26079 Y24.51095
G01 X-11.35581 Y24.15052
G01 X-11.28850 Y24.09528
G01 X-11.20209 Y24.04910
G01 X-11.10831 Y24.02065
G01 X-11.01077 Y24.01103
G01 X-9.41078 Y24.01103
G01 X-9.31324 Y24.02065
G01 X-9.21946 Y24.04910
G01 X-9.13305 Y24.09528
G01 X-9.06572 Y24.15055
G01 X-9.06572 Y26.77132
G01 X-9.13305 Y26.82659
G01 X-9.21946 Y26.87279
G01 X-9.31324 Y26.90124
G01 X-9.41078 Y26.91084
G01 X-11.01077 Y26.91084
G01 X-11.10831 Y26.90124
G01 X-11.20209 Y26.87279
G01 X-11.28850 Y26.82659
G01 X-11.35581 Y26.77135
G01 X-11.35581 Y24.15052
G01 X-13.89581 Y24.15052
G01 X-13.80079 Y24.51095
G01 X-13.79598 Y24.46216
G01 X-13.78174 Y24.41527
G01 X-13.75865 Y24.37204
G01 X-13.72756 Y24.33417
G01 X-13.68966 Y24.30308
G01 X-13.64645 Y24.27996
G01 X-13.59954 Y24.26574
G01 X-13.55077 Y24.26094
G01 X-11.95078 Y24.26094
G01 X-11.90201 Y24.26574
G01 X-11.85509 Y24.27996
G01 X-11.81189 Y24.30308
G01 X-11.77399 Y24.33417
G01 X-11.74290 Y24.37204
G01 X-11.71981 Y24.41527
G01 X-11.70559 Y24.46216
G01 X-11.70079 Y24.51095
G01 X-11.70079 Y26.41095
G01 X-11.70559 Y26.45969
G01 X-11.71981 Y26.50658
G01 X-11.74290 Y26.54983
G01 X-11.77399 Y26.58768
G01 X-11.81189 Y26.61879
G01 X-11.85509 Y26.64191
G01 X-11.90201 Y26.65613
G01 X-11.95078 Y26.66093
G01 X-13.55077 Y26.66093
G01 X-13.59954 Y26.65613
G01 X-13.64645 Y26.64191
G01 X-13.68966 Y26.61879
G01 X-13.72756 Y26.58768
G01 X-13.75865 Y26.54983
G01 X-13.78174 Y26.50658
G01 X-13.79598 Y26.45969
G01 X-13.80079 Y26.41095
G01 X-13.80079 Y24.51095
G01 X-13.89581 Y24.15052
G01 X-13.82850 Y24.09528
G01 X-13.74209 Y24.04910
G01 X-13.64831 Y24.02065
G01 X-13.55077 Y24.01103
G01 X-11.95078 Y24.01103
G01 X-11.85324 Y24.02065
G01 X-11.75946 Y24.04910
G01 X-11.67305 Y24.09528
G01 X-11.60572 Y24.15055
G01 X-11.60572 Y26.77132
G01 X-11.67305 Y26.82659
G01 X-11.75946 Y26.87279
G01 X-11.85324 Y26.90124
G01 X-11.95078 Y26.91084
G01 X-13.55077 Y26.91084
G01 X-13.64831 Y26.90124
G01 X-13.74209 Y26.87279
G01 X-13.82850 Y26.82659
G01 X-13.89581 Y26.77135
G01 X-13.89581 Y24.15052
G01 X-16.43581 Y24.15052
G01 X-16.34079 Y24.51095
G01 X-16.33598 Y24.46216
G01 X-16.32174 Y24.41527
G01 X-16.29865 Y24.37204
G01 X-16.26756 Y24.33417
G01 X-16.22966 Y24.30308
G01 X-16.18645 Y24.27996
G01 X-16.13954 Y24.26574
G01 X-16.09077 Y24.26094
G01 X-14.49078 Y24.26094
G01 X-14.44201 Y24.26574
G01 X-14.39509 Y24.27996
G01 X-14.35189 Y24.30308
G01 X-14.31399 Y24.33417
G01 X-14.28290 Y24.37204
G01 X-14.25981 Y24.41527
G01 X-14.24559 Y24.46216
G01 X-14.24079 Y24.51095
G01 X-14.24079 Y26.41095
G01 X-14.24559 Y26.45969
G01 X-14.25981 Y26.50658
G01 X-14.28290 Y26.54983
G01 X-14.31399 Y26.58768
G01 X-14.35189 Y26.61879
G01 X-14.39509 Y26.64191
G01 X-14.44201 Y26.65613
G01 X-14.49078 Y26.66093
G01 X-16.09077 Y26.66093
G01 X-16.13954 Y26.65613
G01 X-16.18645 Y26.64191
G01 X-16.22966 Y26.61879
G01 X-16.26756 Y26.58768
G01 X-16.29865 Y26.54983
G01 X-16.32174 Y26.50658
G01 X-16.33598 Y26.45969
G01 X-16.34079 Y26.41095
G01 X-16.34079 Y24.51095
G01 X-16.43581 Y24.15052
G01 X-16.36850 Y24.09528
G01 X-16.28209 Y24.04910
G01 X-16.18831 Y24.02065
G01 X-16.09077 Y24.01103
G01 X-14.49078 Y24.01103
G01 X-14.39324 Y24.02065
G01 X-14.29946 Y24.04910
G01 X-14.21305 Y24.09528
G01 X-14.14572 Y24.15055
G01 X-14.14572 Y26.77132
G01 X-14.21305 Y26.82659
G01 X-14.29946 Y26.87279
G01 X-14.39324 Y26.90124
G01 X-14.49078 Y26.91084
G01 X-16.09077 Y26.91084
G01 X-16.18831 Y26.90124
G01 X-16.28209 Y26.87279
G01 X-16.36850 Y26.82659
G01 X-16.43581 Y26.77135
G01 X-16.43581 Y24.15052
G01 X-18.97581 Y24.15052
G01 X-18.88079 Y24.51095
G01 X-18.87598 Y24.46216
G01 X-18.86174 Y24.41527
G01 X-18.83865 Y24.37204
G01 X-18.80756 Y24.33417
G01 X-18.76966 Y24.30308
G01 X-18.72645 Y24.27996
G01 X-18.67954 Y24.26574
G01 X-18.63077 Y24.26094
G01 X-17.03078 Y24.26094
G01 X-16.98201 Y24.26574
G01 X-16.93509 Y24.27996
G01 X-16.89189 Y24.30308
G01 X-16.85399 Y24.33417
G01 X-16.82290 Y24.37204
G01 X-16.79981 Y24.41527
G01 X-16.78559 Y24.46216
G01 X-16.78079 Y24.51095
G01 X-16.78079 Y26.41095
G01 X-16.78559 Y26.45969
G01 X-16.79981 Y26.50658
G01 X-16.82290 Y26.54983
G01 X-16.85399 Y26.58768
G01 X-16.89189 Y26.61879
G01 X-16.93509 Y26.64191
G01 X-16.98201 Y26.65613
G01 X-17.03078 Y26.66093
G01 X-18.63077 Y26.66093
G01 X-18.67954 Y26.65613
G01 X-18.72645 Y26.64191
G01 X-18.76966 Y26.61879
G01 X-18.80756 Y26.58768
G01 X-18.83865 Y26.54983
G01 X-18.86174 Y26.50658
G01 X-18.87598 Y26.45969
G01 X-18.88079 Y26.41095
G01 X-18.88079 Y24.51095
G01 X-18.97581 Y24.15052
G01 X-18.90850 Y24.09528
G01 X-18.82209 Y24.04910
G01 X-18.72831 Y24.02065
G01 X-18.63077 Y24.01103
G01 X-17.03078 Y24.01103
G01 X-16.93324 Y24.02065
G01 X-16.83946 Y24.04910
G01 X-16.75305 Y24.09528
G01 X-16.68572 Y24.15055
G01 X-16.68572 Y26.77132
G01 X-16.75305 Y26.82659
G01 X-16.83946 Y26.87279
G01 X-16.93324 Y26.90124
G01 X-17.03078 Y26.91084
G01 X-18.63077 Y26.91084
G01 X-18.72831 Y26.90124
G01 X-18.82209 Y26.87279
G01 X-18.90850 Y26.82659
G01 X-18.97581 Y26.77135
G01 X-18.97581 Y24.15052
G01 X-21.51581 Y24.15052
G01 X-21.42079 Y24.51095
G01 X-21.41598 Y24.46216
G01 X-21.40174 Y24.41527
G01 X-21.37865 Y24.37204
G01 X-21.34756 Y24.33417
G01 X-21.30966 Y24.30308
G01 X-21.26645 Y24.27996
G01 X-21.21954 Y24.26574
G01 X-21.17077 Y24.26094
G01 X-19.57078 Y24.26094
G01 X-19.52201 Y24.26574
G01 X-19.47509 Y24.27996
G01 X-19.43189 Y24.30308
G01 X-19.39399 Y24.33417
G01 X-19.36290 Y24.37204
G01 X-19.33981 Y24.41527
G01 X-19.32559 Y24.46216
G01 X-19.32079 Y24.51095
G01 X-19.32079 Y26.41095
G01 X-19.32559 Y26.45969
G01 X-19.33981 Y26.50658
G01 X-19.36290 Y26.54983
G01 X-19.39399 Y26.58768
G01 X-19.43189 Y26.61879
G01 X-19.47509 Y26.64191
G01 X-19.52201 Y26.65613
G01 X-19.57078 Y26.66093
G01 X-21.17077 Y26.66093
G01 X-21.21954 Y26.65613
G01 X-21.26645 Y26.64191
G01 X-21.30966 Y26.61879
G01 X-21.34756 Y26.58768
G01 X-21.37865 Y26.54983
G01 X-21.40174 Y26.50658
G01 X-21.41598 Y26.45969
G01 X-21.42079 Y26.41095
G01 X-21.42079 Y24.51095
G01 X-21.51581 Y24.15052
G01 X-21.44850 Y24.09528
G01 X-21.36209 Y24.04910
G01 X-21.26831 Y24.02065
G01 X-21.17077 Y24.01103
G01 X-19.57078 Y24.01103
G01 X-19.47324 Y24.02065
G01 X-19.37946 Y24.04910
G01 X-19.29305 Y24.09528
G01 X-19.22572 Y24.15055
G01 X-19.22572 Y26.77132
G01 X-19.29305 Y26.82659
G01 X-19.37946 Y26.87279
G01 X-19.47324 Y26.90124
G01 X-19.57078 Y26.91084
G01 X-21.17077 Y26.91084
G01 X-21.26831 Y26.90124
G01 X-21.36209 Y26.87279
G01 X-21.44850 Y26.82659
G01 X-21.51581 Y26.77135
G01 X-21.51581 Y24.15052
G01 X-24.05581 Y24.15052
G01 X-23.96079 Y24.51095
G01 X-23.95598 Y24.46216
G01 X-23.94174 Y24.41527
G01 X-23.91865 Y24.37204
G01 X-23.88756 Y24.33417
G01 X-23.84966 Y24.30308
G01 X-23.80645 Y24.27996
G01 X-23.75954 Y24.26574
G01 X-23.71077 Y24.26094
G01 X-22.11078 Y24.26094
G01 X-22.06201 Y24.26574
G01 X-22.01509 Y24.27996
G01 X-21.97189 Y24.30308
G01 X-21.93399 Y24.33417
G01 X-21.90290 Y24.37204
G01 X-21.87981 Y24.41527
G01 X-21.86559 Y24.46216
G01 X-21.86079 Y24.51095
G01 X-21.86079 Y26.41095
G01 X-21.86559 Y26.45969
G01 X-21.87981 Y26.50658
G01 X-21.90290 Y26.54983
G01 X-21.93399 Y26.58768
G01 X-21.97189 Y26.61879
G01 X-22.01509 Y26.64191
G01 X-22.06201 Y26.65613
G01 X-22.11078 Y26.66093
G01 X-23.71077 Y26.66093
G01 X-23.75954 Y26.65613
G01 X-23.80645 Y26.64191
G01 X-23.84966 Y26.61879
G01 X-23.88756 Y26.58768
G01 X-23.91865 Y26.54983
G01 X-23.94174 Y26.50658
G01 X-23.95598 Y26.45969
G01 X-23.96079 Y26.41095
G01 X-23.96079 Y24.51095
G01 X-24.05581 Y24.15052
G01 X-23.98850 Y24.09528
G01 X-23.90209 Y24.04910
G01 X-23.80831 Y24.02065
G01 X-23.71077 Y24.01103
G01 X-22.11078 Y24.01103
G01 X-22.01324 Y24.02065
G01 X-21.91946 Y24.04910
G01 X-21.83305 Y24.09528
G01 X-21.76572 Y24.15055
G01 X-21.76572 Y26.77132
G01 X-21.83305 Y26.82659
G01 X-21.91946 Y26.87279
G01 X-22.01324 Y26.90124
G01 X-22.11078 Y26.91084
G01 X-23.71077 Y26.91084
G01 X-23.80831 Y26.90124
G01 X-23.90209 Y26.87279
G01 X-23.98850 Y26.82659
G01 X-24.05581 Y26.77135
G01 X-24.05581 Y24.15052
G01 X-26.59581 Y24.15052
G01 X-26.50079 Y24.51095
G01 X-26.49598 Y24.46216
G01 X-26.48174 Y24.41527
G01 X-26.45865 Y24.37204
G01 X-26.42753 Y24.33417
G01 X-26.38966 Y24.30308
G01 X-26.34643 Y24.27996
G01 X-26.29954 Y24.26574
G01 X-26.25077 Y24.26094
G01 X-24.65078 Y24.26094
G01 X-24.60201 Y24.26574
G01 X-24.55509 Y24.27996
G01 X-24.51189 Y24.30308
G01 X-24.47399 Y24.33417
G01 X-24.44290 Y24.37204
G01 X-24.41981 Y24.41527
G01 X-24.40559 Y24.46216
G01 X-24.40079 Y24.51095
G01 X-24.40079 Y26.41095
G01 X-24.40559 Y26.45969
G01 X-24.41981 Y26.50658
G01 X-24.44290 Y26.54983
G01 X-24.47399 Y26.58768
G01 X-24.51189 Y26.61879
G01 X-24.55509 Y26.64191
G01 X-24.60201 Y26.65613
G01 X-24.65078 Y26.66093
G01 X-26.25077 Y26.66093
G01 X-26.29954 Y26.65613
G01 X-26.34643 Y26.64191
G01 X-26.38966 Y26.61879
G01 X-26.42753 Y26.58768
G01 X-26.45865 Y26.54983
G01 X-26.48174 Y26.50658
G01 X-26.49598 Y26.45969
G01 X-26.50079 Y26.41095
G01 X-26.50079 Y24.51095
G01 X-26.59581 Y24.15052
G01 X-26.52850 Y24.09528
G01 X-26.44206 Y24.04910
G01 X-26.34828 Y24.02065
G01 X-26.25077 Y24.01103
G01 X-24.65078 Y24.01103
G01 X-24.55324 Y24.02065
G01 X-24.45946 Y24.04910
G01 X-24.37305 Y24.09528
G01 X-24.30572 Y24.15055
G01 X-24.30572 Y26.77132
G01 X-24.37305 Y26.82659
G01 X-24.45946 Y26.87279
G01 X-24.55324 Y26.90124
G01 X-24.65078 Y26.91084
G01 X-26.25077 Y26.91084
G01 X-26.34828 Y26.90124
G01 X-26.44206 Y26.87279
G01 X-26.52850 Y26.82659
G01 X-26.59581 Y26.77135
G01 X-26.59581 Y24.15052
G01 X-29.13581 Y24.15052
G01 X-29.04079 Y24.51095
G01 X-29.03598 Y24.46216
G01 X-29.02174 Y24.41527
G01 X-28.99865 Y24.37204
G01 X-28.96756 Y24.33417
G01 X-28.92966 Y24.30308
G01 X-28.88645 Y24.27996
G01 X-28.83954 Y24.26574
G01 X-28.79077 Y24.26094
G01 X-27.19078 Y24.26094
G01 X-27.14201 Y24.26574
G01 X-27.09509 Y24.27996
G01 X-27.05189 Y24.30308
G01 X-27.01399 Y24.33417
G01 X-26.98290 Y24.37204
G01 X-26.95981 Y24.41527
G01 X-26.94559 Y24.46216
G01 X-26.94079 Y24.51095
G01 X-26.94079 Y26.41095
G01 X-26.94559 Y26.45969
G01 X-26.95981 Y26.50658
G01 X-26.98290 Y26.54983
G01 X-27.01399 Y26.58768
G01 X-27.05189 Y26.61879
G01 X-27.09509 Y26.64191
G01 X-27.14201 Y26.65613
G01 X-27.19078 Y26.66093
G01 X-28.79077 Y26.66093
G01 X-28.83954 Y26.65613
G01 X-28.88645 Y26.64191
G01 X-28.92966 Y26.61879
G01 X-28.96756 Y26.58768
G01 X-28.99865 Y26.54983
G01 X-29.02174 Y26.50658
G01 X-29.03598 Y26.45969
G01 X-29.04079 Y26.41095
G01 X-29.04079 Y24.51095
G01 X-29.13581 Y24.15052
G01 X-29.06850 Y24.09528
G01 X-28.98209 Y24.04910
G01 X-28.88831 Y24.02065
G01 X-28.79077 Y24.01103
G01 X-27.19078 Y24.01103
G01 X-27.09324 Y24.02065
G01 X-26.99946 Y24.04910
G01 X-26.91305 Y24.09528
G01 X-26.84572 Y24.15055
G01 X-26.84572 Y26.77132
G01 X-26.91305 Y26.82659
G01 X-26.99946 Y26.87279
G01 X-27.09324 Y26.90124
G01 X-27.19078 Y26.91084
G01 X-28.79077 Y26.91084
G01 X-28.88831 Y26.90124
G01 X-28.98209 Y26.87279
G01 X-29.06850 Y26.82659
G01 X-29.13581 Y26.77135
G01 X-29.13581 Y24.15052
G01 X-31.67581 Y24.15052
G01 X-31.58079 Y24.51095
G01 X-31.57598 Y24.46216
G01 X-31.56174 Y24.41527
G01 X-31.53865 Y24.37204
G01 X-31.50756 Y24.33417
G01 X-31.46966 Y24.30308
G01 X-31.42645 Y24.27996
G01 X-31.37954 Y24.26574
G01 X-31.33077 Y24.26094
G01 X-29.73078 Y24.26094
G01 X-29.68201 Y24.26574
G01 X-29.63509 Y24.27996
G01 X-29.59189 Y24.30308
G01 X-29.55399 Y24.33417
G01 X-29.52290 Y24.37204
G01 X-29.49981 Y24.41527
G01 X-29.48559 Y24.46216
G01 X-29.48079 Y24.51095
G01 X-29.48079 Y26.41095
G01 X-29.48559 Y26.45969
G01 X-29.49981 Y26.50658
G01 X-29.52290 Y26.54983
G01 X-29.55399 Y26.58768
G01 X-29.59189 Y26.61879
G01 X-29.63509 Y26.64191
G01 X-29.68201 Y26.65613
G01 X-29.73078 Y26.66093
G01 X-31.33077 Y26.66093
G01 X-31.37954 Y26.65613
G01 X-31.42645 Y26.64191
G01 X-31.46966 Y26.61879
G01 X-31.50756 Y26.58768
G01 X-31.53865 Y26.54983
G01 X-31.56174 Y26.50658
G01 X-31.57598 Y26.45969
G01 X-31.58079 Y26.41095
G01 X-31.58079 Y24.51095
G01 X-31.67581 Y24.15052
G01 X-31.60850 Y24.09528
G01 X-31.52209 Y24.04910
G01 X-31.42831 Y24.02065
G01 X-31.33077 Y24.01103
G01 X-29.73078 Y24.01103
G01 X-29.63324 Y24.02065
G01 X-29.53946 Y24.04910
G01 X-29.45305 Y24.09528
G01 X-29.38572 Y24.15055
G01 X-29.38572 Y26.77132
G01 X-29.45305 Y26.82659
G01 X-29.53946 Y26.87279
G01 X-29.63324 Y26.90124
G01 X-29.73078 Y26.91084
G01 X-31.33077 Y26.91084
G01 X-31.42831 Y26.90124
G01 X-31.52209 Y26.87279
G01 X-31.60850 Y26.82659
G01 X-31.67581 Y26.77135
G01 X-31.67581 Y24.15052
G01 X-34.21581 Y24.15052
G01 X-34.12079 Y24.51095
G01 X-34.11598 Y24.46216
G01 X-34.10174 Y24.41527
G01 X-34.07865 Y24.37204
G01 X-34.04756 Y24.33417
G01 X-34.00966 Y24.30308
G01 X-33.96645 Y24.27996
G01 X-33.91954 Y24.26574
G01 X-33.87077 Y24.26094
G01 X-32.27078 Y24.26094
G01 X-32.22201 Y24.26574
G01 X-32.17509 Y24.27996
G01 X-32.13189 Y24.30308
G01 X-32.09399 Y24.33417
G01 X-32.06290 Y24.37204
G01 X-32.03981 Y24.41527
G01 X-32.02559 Y24.46216
G01 X-32.02079 Y24.51095
G01 X-32.02079 Y26.41095
G01 X-32.02559 Y26.45969
G01 X-32.03981 Y26.50658
G01 X-32.06290 Y26.54983
G01 X-32.09399 Y26.58768
G01 X-32.13189 Y26.61879
G01 X-32.17509 Y26.64191
G01 X-32.22201 Y26.65613
G01 X-32.27078 Y26.66093
G01 X-33.87077 Y26.66093
G01 X-33.91954 Y26.65613
G01 X-33.96645 Y26.64191
G01 X-34.00966 Y26.61879
G01 X-34.04756 Y26.58768
G01 X-34.07865 Y26.54983
G01 X-34.10174 Y26.50658
G01 X-34.11598 Y26.45969
G01 X-34.12079 Y26.41095
G01 X-34.12079 Y24.51095
G01 X-34.21581 Y24.15052
G01 X-34.14850 Y24.09528
G01 X-34.06209 Y24.04910
G01 X-33.96831 Y24.02065
G01 X-33.87077 Y24.01103
G01 X-32.27078 Y24.01103
G01 X-32.17324 Y24.02065
G01 X-32.07946 Y24.04910
G01 X-31.99305 Y24.09528
G01 X-31.92572 Y24.15055
G01 X-31.92572 Y26.77132
G01 X-31.99305 Y26.82659
G01 X-32.07946 Y26.87279
G01 X-32.17324 Y26.90124
G01 X-32.27078 Y26.91084
G01 X-33.87077 Y26.91084
G01 X-33.96831 Y26.90124
G01 X-34.06209 Y26.87279
G01 X-34.14850 Y26.82659
G01 X-34.21581 Y26.77135
G01 X-34.21581 Y24.15052
G01 X-36.75581 Y24.15052
G01 X-36.66079 Y24.51095
G01 X-36.65598 Y24.46216
G01 X-36.64174 Y24.41527
G01 X-36.61865 Y24.37204
G01 X-36.58756 Y24.33417
G01 X-36.54966 Y24.30308
G01 X-36.50645 Y24.27996
G01 X-36.45954 Y24.26574
G01 X-36.41077 Y24.26094
G01 X-34.81078 Y24.26094
G01 X-34.76201 Y24.26574
G01 X-34.71509 Y24.27996
G01 X-34.67189 Y24.30308
G01 X-34.63399 Y24.33417
G01 X-34.60290 Y24.37204
G01 X-34.57981 Y24.41527
G01 X-34.56559 Y24.46216
G01 X-34.56079 Y24.51095
G01 X-34.56079 Y26.41095
G01 X-34.56559 Y26.45969
G01 X-34.57981 Y26.50658
G01 X-34.60290 Y26.54983
G01 X-34.63399 Y26.58768
G01 X-34.67189 Y26.61879
G01 X-34.71509 Y26.64191
G01 X-34.76201 Y26.65613
G01 X-34.81078 Y26.66093
G01 X-36.41077 Y26.66093
G01 X-36.45954 Y26.65613
G01 X-36.50645 Y26.64191
G01 X-36.54966 Y26.61879
G01 X-36.58756 Y26.58768
G01 X-36.61865 Y26.54983
G01 X-36.64174 Y26.50658
G01 X-36.65598 Y26.45969
G01 X-36.66079 Y26.41095
G01 X-36.66079 Y24.51095
G01 X-36.75581 Y24.15052
G01 X-36.68850 Y24.09528
G01 X-36.60209 Y24.04910
G01 X-36.50831 Y24.02065
G01 X-36.41077 Y24.01103
G01 X-34.81078 Y24.01103
G01 X-34.71324 Y24.02065
G01 X-34.61946 Y24.04910
G01 X-34.53305 Y24.09528
G01 X-34.46572 Y24.15055
G01 X-34.46572 Y26.77132
G01 X-34.53305 Y26.82659
G01 X-34.61946 Y26.87279
G01 X-34.71324 Y26.90124
G01 X-34.81078 Y26.91084
G01 X-36.41077 Y26.91084
G01 X-36.50831 Y26.90124
G01 X-36.60209 Y26.87279
G01 X-36.68850 Y26.82659
G01 X-36.75581 Y26.77135
G01 X-36.75581 Y24.15052
G01 X-39.29581 Y24.15052
G01 X-39.20079 Y24.51095
G01 X-39.19598 Y24.46216
G01 X-39.18174 Y24.41527
G01 X-39.15865 Y24.37204
G01 X-39.12756 Y24.33417
G01 X-39.08966 Y24.30308
G01 X-39.04645 Y24.27996
G01 X-38.99954 Y24.26574
G01 X-38.95077 Y24.26094
G01 X-37.35078 Y24.26094
G01 X-37.30201 Y24.26574
G01 X-37.25509 Y24.27996
G01 X-37.21189 Y24.30308
G01 X-37.17399 Y24.33417
G01 X-37.14290 Y24.37204
G01 X-37.11981 Y24.41527
G01 X-37.10559 Y24.46216
G01 X-37.10079 Y24.51095
G01 X-37.10079 Y26.41095
G01 X-37.10559 Y26.45969
G01 X-37.11981 Y26.50658
G01 X-37.14290 Y26.54983
G01 X-37.17399 Y26.58768
G01 X-37.21189 Y26.61879
G01 X-37.25509 Y26.64191
G01 X-37.30201 Y26.65613
G01 X-37.35078 Y26.66093
G01 X-38.95077 Y26.66093
G01 X-38.99954 Y26.65613
G01 X-39.04645 Y26.64191
G01 X-39.08966 Y26.61879
G01 X-39.12756 Y26.58768
G01 X-39.15865 Y26.54983
G01 X-39.18174 Y26.50658
G01 X-39.19598 Y26.45969
G01 X-39.20079 Y26.41095
G01 X-39.20079 Y24.51095
G01 X-39.29581 Y24.15052
G01 X-39.22850 Y24.09528
G01 X-39.14209 Y24.04910
G01 X-39.04831 Y24.02065
G01 X-38.95077 Y24.01103
G01 X-37.35078 Y24.01103
G01 X-37.25324 Y24.02065
G01 X-37.15946 Y24.04910
G01 X-37.07305 Y24.09528
G01 X-37.00572 Y24.15055
G01 X-37.00572 Y26.77132
G01 X-37.07305 Y26.82659
G01 X-37.15946 Y26.87279
G01 X-37.25324 Y26.90124
G01 X-37.35078 Y26.91084
G01 X-38.95077 Y26.91084
G01 X-39.04831 Y26.90124
G01 X-39.14209 Y26.87279
G01 X-39.22850 Y26.82659
G01 X-39.29581 Y26.77135
G01 X-39.29581 Y24.15052
G01 X-41.83581 Y24.15052
G01 X-41.74079 Y24.51095
G01 X-41.73598 Y24.46216
G01 X-41.72174 Y24.41527
G01 X-41.69865 Y24.37204
G01 X-41.66756 Y24.33417
G01 X-41.62966 Y24.30308
G01 X-41.58645 Y24.27996
G01 X-41.53954 Y24.26574
G01 X-41.49077 Y24.26094
G01 X-39.89078 Y24.26094
G01 X-39.84201 Y24.26574
G01 X-39.79509 Y24.27996
G01 X-39.75189 Y24.30308
G01 X-39.71399 Y24.33417
G01 X-39.68290 Y24.37204
G01 X-39.65981 Y24.41527
G01 X-39.64559 Y24.46216
G01 X-39.64079 Y24.51095
G01 X-39.64079 Y26.41095
G01 X-39.64559 Y26.45969
G01 X-39.65981 Y26.50658
G01 X-39.68290 Y26.54983
G01 X-39.71399 Y26.58768
G01 X-39.75189 Y26.61879
G01 X-39.79509 Y26.64191
G01 X-39.84201 Y26.65613
G01 X-39.89078 Y26.66093
G01 X-41.49077 Y26.66093
G01 X-41.53954 Y26.65613
G01 X-41.58645 Y26.64191
G01 X-41.62966 Y26.61879
G01 X-41.66756 Y26.58768
G01 X-41.69865 Y26.54983
G01 X-41.72174 Y26.50658
G01 X-41.73598 Y26.45969
G01 X-41.74079 Y26.41095
G01 X-41.74079 Y24.51095
G01 X-41.83581 Y24.15052
G01 X-41.76850 Y24.09528
G01 X-41.68209 Y24.04910
G01 X-41.58831 Y24.02065
G01 X-41.49077 Y24.01103
G01 X-39.89078 Y24.01103
G01 X-39.79324 Y24.02065
G01 X-39.69946 Y24.04910
G01 X-39.61305 Y24.09528
G01 X-39.54572 Y24.15055
G01 X-39.54572 Y26.77132
G01 X-39.61305 Y26.82659
G01 X-39.69946 Y26.87279
G01 X-39.79324 Y26.90124
G01 X-39.89078 Y26.91084
G01 X-41.49077 Y26.91084
G01 X-41.58831 Y26.90124
G01 X-41.68209 Y26.87279
G01 X-41.76850 Y26.82659
G01 X-41.83581 Y26.77135
G01 X-41.83581 Y24.15052
G01 X-46.91581 Y24.15052
G01 X-46.82079 Y24.51095
G01 X-46.81598 Y24.46216
G01 X-46.80174 Y24.41527
G01 X-46.77865 Y24.37204
G01 X-46.74756 Y24.33417
G01 X-46.70966 Y24.30308
G01 X-46.66645 Y24.27996
G01 X-46.61954 Y24.26574
G01 X-46.57077 Y24.26094
G01 X-44.97078 Y24.26094
G01 X-44.92201 Y24.26574
G01 X-44.87509 Y24.27996
G01 X-44.83189 Y24.30308
G01 X-44.79399 Y24.33417
G01 X-44.76290 Y24.37204
G01 X-44.73981 Y24.41527
G01 X-44.72559 Y24.46216
G01 X-44.72079 Y24.51095
G01 X-44.72079 Y26.41095
G01 X-44.72559 Y26.45969
G01 X-44.73981 Y26.50658
G01 X-44.76290 Y26.54983
G01 X-44.79399 Y26.58768
G01 X-44.83189 Y26.61879
G01 X-44.87509 Y26.64191
G01 X-44.92201 Y26.65613
G01 X-44.97078 Y26.66093
G01 X-46.57077 Y26.66093
G01 X-46.61954 Y26.65613
G01 X-46.66645 Y26.64191
G01 X-46.70966 Y26.61879
G01 X-46.74756 Y26.58768
G01 X-46.77865 Y26.54983
G01 X-46.80174 Y26.50658
G01 X-46.81598 Y26.45969
G01 X-46.82079 Y26.41095
G01 X-46.82079 Y24.51095
G01 X-46.91581 Y24.15052
G01 X-46.84850 Y24.09528
G01 X-46.76209 Y24.04910
G01 X-46.66831 Y24.02065
G01 X-46.57077 Y24.01103
G01 X-44.97078 Y24.01103
G01 X-44.87324 Y24.02065
G01 X-44.77946 Y24.04910
G01 X-44.69305 Y24.09528
G01 X-44.62572 Y24.15055
G01 X-44.62572 Y26.77132
G01 X-44.69305 Y26.82659
G01 X-44.77946 Y26.87279
G01 X-44.87324 Y26.90124
G01 X-44.97078 Y26.91084
G01 X-46.57077 Y26.91084
G01 X-46.66831 Y26.90124
G01 X-46.76209 Y26.87279
G01 X-46.84850 Y26.82659
G01 X-46.91581 Y26.77135
G01 X-46.91581 Y24.15052
G01 X-49.45581 Y24.15052
G01 X-49.36079 Y24.51095
G01 X-49.35598 Y24.46216
G01 X-49.34174 Y24.41527
G01 X-49.31865 Y24.37204
G01 X-49.28756 Y24.33417
G01 X-49.24966 Y24.30308
G01 X-49.20645 Y24.27996
G01 X-49.15954 Y24.26574
G01 X-49.11077 Y24.26094
G01 X-47.51078 Y24.26094
G01 X-47.46201 Y24.26574
G01 X-47.41509 Y24.27996
G01 X-47.37189 Y24.30308
G01 X-47.33399 Y24.33417
G01 X-47.30290 Y24.37204
G01 X-47.27981 Y24.41527
G01 X-47.26559 Y24.46216
G01 X-47.26079 Y24.51095
G01 X-47.26079 Y26.41095
G01 X-47.26559 Y26.45969
G01 X-47.27981 Y26.50658
G01 X-47.30290 Y26.54983
G01 X-47.33399 Y26.58768
G01 X-47.37189 Y26.61879
G01 X-47.41509 Y26.64191
G01 X-47.46201 Y26.65613
G01 X-47.51078 Y26.66093
G01 X-49.11077 Y26.66093
G01 X-49.15954 Y26.65613
G01 X-49.20645 Y26.64191
G01 X-49.24966 Y26.61879
G01 X-49.28756 Y26.58768
G01 X-49.31865 Y26.54983
G01 X-49.34174 Y26.50658
G01 X-49.35598 Y26.45969
G01 X-49.36079 Y26.41095
G01 X-49.36079 Y24.51095
G01 X-49.45581 Y24.15052
G01 X-49.38850 Y24.09528
G01 X-49.30209 Y24.04910
G01 X-49.20831 Y24.02065
G01 X-49.11077 Y24.01103
G01 X-47.51078 Y24.01103
G01 X-47.41324 Y24.02065
G01 X-47.31946 Y24.04910
G01 X-47.23305 Y24.09528
G01 X-47.16572 Y24.15055
G01 X-47.16572 Y26.77132
G01 X-47.23305 Y26.82659
G01 X-47.31946 Y26.87279
G01 X-47.41324 Y26.90124
G01 X-47.51078 Y26.91084
G01 X-49.11077 Y26.91084
G01 X-49.20831 Y26.90124
G01 X-49.30209 Y26.87279
G01 X-49.38850 Y26.82659
G01 X-49.45581 Y26.77135
G01 X-49.45581 Y24.15052
G01 X-51.99581 Y24.15052
G01 X-51.90076 Y24.51095
G01 X-51.89598 Y24.46216
G01 X-51.88171 Y24.41527
G01 X-51.85862 Y24.37204
G01 X-51.82756 Y24.33417
G01 X-51.78963 Y24.30308
G01 X-51.74645 Y24.27996
G01 X-51.69954 Y24.26574
G01 X-51.65075 Y24.26094
G01 X-50.05078 Y24.26094
G01 X-50.00201 Y24.26574
G01 X-49.95509 Y24.27996
G01 X-49.91189 Y24.30308
G01 X-49.87399 Y24.33417
G01 X-49.84290 Y24.37204
G01 X-49.81981 Y24.41527
G01 X-49.80559 Y24.46216
G01 X-49.80079 Y24.51095
G01 X-49.80079 Y26.41095
G01 X-49.80559 Y26.45969
G01 X-49.81981 Y26.50658
G01 X-49.84290 Y26.54983
G01 X-49.87399 Y26.58768
G01 X-49.91189 Y26.61879
G01 X-49.95509 Y26.64191
G01 X-50.00201 Y26.65613
G01 X-50.05078 Y26.66093
G01 X-51.65075 Y26.66093
G01 X-51.69954 Y26.65613
G01 X-51.74645 Y26.64191
G01 X-51.78963 Y26.61879
G01 X-51.82756 Y26.58768
G01 X-51.85862 Y26.54983
G01 X-51.88171 Y26.50658
G01 X-51.89598 Y26.45969
G01 X-51.90076 Y26.41095
G01 X-51.90076 Y24.51095
G01 X-51.99581 Y24.15052
G01 X-51.92850 Y24.09528
G01 X-51.84209 Y24.04910
G01 X-51.74831 Y24.02065
G01 X-51.65075 Y24.01103
G01 X-50.05078 Y24.01103
G01 X-49.95324 Y24.02065
G01 X-49.85946 Y24.04910
G01 X-49.77305 Y24.09528
G01 X-49.70572 Y24.15055
G01 X-49.70572 Y26.77132
G01 X-49.77305 Y26.82659
G01 X-49.85946 Y26.87279
G01 X-49.95324 Y26.90124
G01 X-50.05078 Y26.91084
G01 X-51.65075 Y26.91084
G01 X-51.74831 Y26.90124
G01 X-51.84209 Y26.87279
G01 X-51.92850 Y26.82659
G01 X-51.99581 Y26.77135
G01 X-51.99581 Y24.15052
G01 X-54.53581 Y24.15052
G01 X-54.44079 Y24.51095
G01 X-54.43598 Y24.46216
G01 X-54.42174 Y24.41527
G01 X-54.39865 Y24.37204
G01 X-54.36756 Y24.33417
G01 X-54.32966 Y24.30308
G01 X-54.28645 Y24.27996
G01 X-54.23954 Y24.26574
G01 X-54.19077 Y24.26094
G01 X-52.59078 Y24.26094
G01 X-52.54198 Y24.26574
G01 X-52.49509 Y24.27996
G01 X-52.45189 Y24.30308
G01 X-52.41399 Y24.33417
G01 X-52.38290 Y24.37204
G01 X-52.35981 Y24.41527
G01 X-52.34556 Y24.46216
G01 X-52.34079 Y24.51095
G01 X-52.34079 Y26.41095
G01 X-52.34556 Y26.45969
G01 X-52.35981 Y26.50658
G01 X-52.38290 Y26.54983
G01 X-52.41399 Y26.58768
G01 X-52.45189 Y26.61879
G01 X-52.49509 Y26.64191
G01 X-52.54198 Y26.65613
G01 X-52.59078 Y26.66093
G01 X-54.19077 Y26.66093
G01 X-54.23954 Y26.65613
G01 X-54.28645 Y26.64191
G01 X-54.32966 Y26.61879
G01 X-54.36756 Y26.58768
G01 X-54.39865 Y26.54983
G01 X-54.42174 Y26.50658
G01 X-54.43598 Y26.45969
G01 X-54.44079 Y26.41095
G01 X-54.44079 Y24.51095
G01 X-54.53581 Y24.15052
G01 X-54.46850 Y24.09528
G01 X-54.38209 Y24.04910
G01 X-54.28831 Y24.02065
G01 X-54.19077 Y24.01103
G01 X-52.59078 Y24.01103
G01 X-52.49324 Y24.02065
G01 X-52.39946 Y24.04910
G01 X-52.31305 Y24.09528
G01 X-52.24572 Y24.15055
G01 X-52.24572 Y26.77132
G01 X-52.31305 Y26.82659
G01 X-52.39946 Y26.87279
G01 X-52.49324 Y26.90124
G01 X-52.59078 Y26.91084
G01 X-54.19077 Y26.91084
G01 X-54.28831 Y26.90124
G01 X-54.38209 Y26.87279
G01 X-54.46850 Y26.82659
G01 X-54.53581 Y26.77135
G01 X-54.53581 Y24.15052
G01 X-57.07581 Y24.15052
G01 X-56.98079 Y24.51095
G01 X-56.97598 Y24.46216
G01 X-56.96174 Y24.41527
G01 X-56.93865 Y24.37204
G01 X-56.90756 Y24.33417
G01 X-56.86966 Y24.30308
G01 X-56.82645 Y24.27996
G01 X-56.77954 Y24.26574
G01 X-56.73077 Y24.26094
G01 X-55.13078 Y24.26094
G01 X-55.08201 Y24.26574
G01 X-55.03509 Y24.27996
G01 X-54.99189 Y24.30308
G01 X-54.95399 Y24.33417
G01 X-54.92290 Y24.37204
G01 X-54.89981 Y24.41527
G01 X-54.88559 Y24.46216
G01 X-54.88079 Y24.51095
G01 X-54.88079 Y26.41095
G01 X-54.88559 Y26.45969
G01 X-54.89981 Y26.50658
G01 X-54.92290 Y26.54983
G01 X-54.95399 Y26.58768
G01 X-54.99189 Y26.61879
G01 X-55.03509 Y26.64191
G01 X-55.08201 Y26.65613
G01 X-55.13078 Y26.66093
G01 X-56.73077 Y26.66093
G01 X-56.77954 Y26.65613
G01 X-56.82645 Y26.64191
G01 X-56.86966 Y26.61879
G01 X-56.90756 Y26.58768
G01 X-56.93865 Y26.54983
G01 X-56.96174 Y26.50658
G01 X-56.97598 Y26.45969
G01 X-56.98079 Y26.41095
G01 X-56.98079 Y24.51095
G01 X-57.07581 Y24.15052
G01 X-57.00850 Y24.09528
G01 X-56.92209 Y24.04910
G01 X-56.82831 Y24.02065
G01 X-56.73077 Y24.01103
G01 X-55.13078 Y24.01103
G01 X-55.03324 Y24.02065
G01 X-54.93946 Y24.04910
G01 X-54.85305 Y24.09528
G01 X-54.78572 Y24.15055
G01 X-54.78572 Y26.77132
G01 X-54.85305 Y26.82659
G01 X-54.93946 Y26.87279
G01 X-55.03324 Y26.90124
G01 X-55.13078 Y26.91084
G01 X-56.73077 Y26.91084
G01 X-56.82831 Y26.90124
G01 X-56.92209 Y26.87279
G01 X-57.00850 Y26.82659
G01 X-57.07581 Y26.77135
G01 X-57.07581 Y24.15052
G01 X-59.61581 Y24.15052
G01 X-59.61581 Y26.77135
G01 X-59.54850 Y26.82659
G01 X-59.46209 Y26.87279
G01 X-59.36831 Y26.90124
G01 X-59.27077 Y26.91084
G01 X-57.67078 Y26.91084
G01 X-57.57324 Y26.90124
G01 X-57.47946 Y26.87279
G01 X-57.39305 Y26.82659
G01 X-57.32572 Y26.77132
G01 X-57.32572 Y24.15055
G01 X-57.39305 Y24.09528
G01 X-57.47946 Y24.04910
G01 X-57.57324 Y24.02065
G01 X-57.67078 Y24.01103
G01 X-59.27077 Y24.01103
G01 X-59.36831 Y24.02065
G01 X-59.46209 Y24.04910
G01 X-59.54850 Y24.09528
G01 X-59.61581 Y24.15052
G01 X-59.52079 Y24.51095
G01 X-59.51598 Y24.46216
G01 X-59.50174 Y24.41527
G01 X-59.47865 Y24.37204
G01 X-59.44756 Y24.33417
G01 X-59.40966 Y24.30308
G01 X-59.36645 Y24.27996
G01 X-59.31954 Y24.26574
G01 X-59.27077 Y24.26094
G01 X-57.67078 Y24.26094
G01 X-57.62201 Y24.26574
G01 X-57.57509 Y24.27996
G01 X-57.53189 Y24.30308
G01 X-57.49399 Y24.33417
G01 X-57.46290 Y24.37204
G01 X-57.43981 Y24.41527
G01 X-57.42559 Y24.46216
G01 X-57.42079 Y24.51095
G01 X-57.42079 Y26.41095
G01 X-57.42559 Y26.45969
G01 X-57.43981 Y26.50658
G01 X-57.46290 Y26.54983
G01 X-57.49399 Y26.58768
G01 X-57.53189 Y26.61879
G01 X-57.57509 Y26.64191
G01 X-57.62201 Y26.65613
G01 X-57.67078 Y26.66093
G01 X-59.27077 Y26.66093
G01 X-59.31954 Y26.65613
G01 X-59.36645 Y26.64191
G01 X-59.40966 Y26.61879
G01 X-59.44756 Y26.58768
G01 X-59.47865 Y26.54983
G01 X-59.50174 Y26.50658
G01 X-59.51598 Y26.45969
G01 X-59.52079 Y26.41095
G01 X-59.52079 Y24.51095
G04 P0 ( dwell for no time -- G64 should not smooth over this point )
G00 Z5.00000 ( retract )

G00 X-44.28079 Y24.51095 ( rapid move to begin. )
G01 F75.00000
( Mill infeed pass 1/1 )
G01 Z-0.10000
G04 P0 ( dwell for no time -- G64 should not smooth over this point )
G01 F75.00000
G01 X-44.28079 Y24.51095
G01 X-44.27598 Y24.46216
G01 X-44.26174 Y24.41527
G01 X-44.23865 Y24.37204
G01 X-44.20756 Y24.33417
G01 X-44.16966 Y24.30308
G01 X-44.12645 Y24.27996
G01 X-44.07954 Y24.26574
G01 X-44.03077 Y24.26094
G01 X-42.43078 Y24.26094
G01 X-42.38201 Y24.26574
G01 X-42.33509 Y24.27996
G01 X-42.29189 Y24.30308
G01 X-42.25399 Y24.33417
G01 X-42.22290 Y24.37204
G01 X-42.19981 Y24.41527
G01 X-42.18559 Y24.46216
G01 X-42.18079 Y24.51095
G01 X-42.18079 Y26.41095
G01 X-42.18559 Y26.45969
G01 X-42.19981 Y26.50658
G01 X-42.22290 Y26.54983
G01 X-42.25399 Y26.58768
G01 X-42.29189 Y26.61879
G01 X-42.33509 Y26.64191
G01 X-42.38201 Y26.65613
G01 X-42.43078 Y26.66093
G01 X-44.03077 Y26.66093
G01 X-44.07954 Y26.65613
G01 X-44.12645 Y26.64191
G01 X-44.16966 Y26.61879
G01 X-44.20756 Y26.58768
G01 X-44.23865 Y26.54983
G01 X-44.26174 Y26.50658
G01 X-44.27598 Y26.45969
G01 X-44.28079 Y26.41095
G01 X-44.28079 Y24.51095
G01 X-44.37581 Y24.15052
G01 X-44.30850 Y24.09528
G01 X-44.22209 Y24.04910
G01 X-44.12831 Y24.02065
G01 X-44.03077 Y24.01103
G01 X-42.43078 Y24.01103
G01 X-42.33324 Y24.02065
G01 X-42.23946 Y24.04910
G01 X-42.15305 Y24.09528
G01 X-42.08572 Y24.15055
G01 X-42.08572 Y26.77132
G01 X-42.15305 Y26.82659
G01 X-42.23946 Y26.87279
G01 X-42.33324 Y26.90124
G01 X-42.43078 Y26.91084
G01 X-44.03077 Y26.91084
G01 X-44.12831 Y26.90124
G01 X-44.22209 Y26.87279
G01 X-44.30850 Y26.82659
G01 X-44.37581 Y26.77135
G01 X-44.37581 Y24.15052
G01 X-44.62988 Y18.88498
G01 X-44.62028 Y18.78747
G01 X-44.59183 Y18.69369
G01 X-44.54563 Y18.60725
G01 X-44.49039 Y18.53992
G01 X-41.86959 Y18.53992
G01 X-41.81434 Y18.60725
G01 X-41.76814 Y18.69369
G01 X-41.73969 Y18.78747
G01 X-41.73009 Y18.88498
G01 X-41.73009 Y20.48500
G01 X-41.73969 Y20.58251
G01 X-41.76814 Y20.67629
G01 X-41.81434 Y20.76272
G01 X-41.87650 Y20.83846
G01 X-41.95227 Y20.90064
G01 X-42.03868 Y20.94685
G01 X-42.13245 Y20.97529
G01 X-42.22999 Y20.98490
G01 X-44.12999 Y20.98490
G01 X-44.22752 Y20.97529
G01 X-44.32130 Y20.94685
G01 X-44.40771 Y20.90064
G01 X-44.48348 Y20.83846
G01 X-44.54563 Y20.76272
G01 X-44.59183 Y20.67629
G01 X-44.62028 Y20.58251
G01 X-44.62988 Y20.48500
G01 X-44.62988 Y18.88498
G01 X-44.38000 Y18.88498
G01 X-44.37517 Y18.83621
G01 X-44.36095 Y18.78932
G01 X-44.33786 Y18.74609
G01 X-44.30677 Y18.70822
G01 X-44.26887 Y18.67713
G01 X-44.22567 Y18.65401
G01 X-44.17875 Y18.63979
G01 X-44.12999 Y18.63499
G01 X-42.22999 Y18.63499
G01 X-42.18122 Y18.63979
G01 X-42.13431 Y18.65401
G01 X-42.09110 Y18.67713
G01 X-42.05321 Y18.70822
G01 X-42.02212 Y18.74609
G01 X-41.99903 Y18.78932
G01 X-41.98480 Y18.83621
G01 X-41.97998 Y18.88498
G01 X-41.97998 Y20.48500
G01 X-41.98480 Y20.53377
G01 X-41.99903 Y20.58065
G01 X-42.02212 Y20.62389
G01 X-42.05321 Y20.66176
G01 X-42.09110 Y20.69285
G01 X-42.13431 Y20.71596
G01 X-42.18122 Y20.73018
G01 X-42.22999 Y20.73499
G01 X-44.12999 Y20.73499
G01 X-44.17875 Y20.73018
G01 X-44.22567 Y20.71596
G01 X-44.26887 Y20.69285
G01 X-44.30677 Y20.66176
G01 X-44.33786 Y20.62389
G01 X-44.36095 Y20.58065
G01 X-44.37517 Y20.53377
G01 X-44.38000 Y20.48500
G01 X-44.38000 Y18.88498
G01 X-44.62988 Y18.88498
G01 X-44.62988 Y17.94500
G01 X-44.62028 Y18.04251
G01 X-44.59183 Y18.13629
G01 X-44.54563 Y18.22272
G01 X-44.49041 Y18.29003
G01 X-41.86956 Y18.29003
G01 X-41.81434 Y18.22272
G01 X-41.76814 Y18.13629
G01 X-41.73969 Y18.04251
G01 X-41.73009 Y17.94500
G01 X-41.73009 Y16.34498
G01 X-41.73969 Y16.24747
G01 X-41.76814 Y16.15369
G01 X-41.81434 Y16.06725
G01 X-41.86959 Y15.99992
G01 X-44.49039 Y15.99992
G01 X-44.54563 Y16.06725
G01 X-44.59183 Y16.15369
G01 X-44.62028 Y16.24747
G01 X-44.62988 Y16.34498
G01 X-44.38000 Y16.34498
G01 X-44.38000 Y17.94500
G01 X-44.37517 Y17.99377
G01 X-44.36095 Y18.04065
G01 X-44.33786 Y18.08389
G01 X-44.30677 Y18.12176
G01 X-44.26887 Y18.15285
G01 X-44.22567 Y18.17596
G01 X-44.17875 Y18.19018
G01 X-44.12999 Y18.19499
G01 X-42.22999 Y18.19499
G01 X-42.18122 Y18.19018
G01 X-42.13431 Y18.17596
G01 X-42.09110 Y18.15285
G01 X-42.05321 Y18.12176
G01 X-42.02212 Y18.08389
G01 X-41.99903 Y18.04065
G01 X-41.98480 Y17.99377
G01 X-41.97998 Y17.94500
G01 X-41.97998 Y16.34498
G01 X-41.98480 Y16.29621
G01 X-41.99903 Y16.24932
G01 X-42.02212 Y16.20609
G01 X-42.05321 Y16.16822
G01 X-42.09110 Y16.13713
G01 X-42.13431 Y16.11401
G01 X-42.18122 Y16.09979
G01 X-42.22999 Y16.09499
G01 X-44.12999 Y16.09499
G01 X-44.17875 Y16.09979
G01 X-44.22567 Y16.11401
G01 X-44.26887 Y16.13713
G01 X-44.30677 Y16.16822
G01 X-44.33786 Y16.20609
G01 X-44.36095 Y16.24932
G01 X-44.37517 Y16.29621
G01 X-44.38000 Y16.34498
G01 X-44.62988 Y16.34498
G01 X-44.62988 Y15.40500
G01 X-44.62028 Y15.50251
G01 X-44.59183 Y15.59629
G01 X-44.54563 Y15.68272
G01 X-44.49041 Y15.75003
G01 X-41.86956 Y15.75003
G01 X-41.81434 Y15.68272
G01 X-41.76814 Y15.59629
G01 X-41.73969 Y15.50251
G01 X-41.73009 Y15.40500
G01 X-41.73009 Y13.80498
G01 X-41.73969 Y13.70747
G01 X-41.76814 Y13.61369
G01 X-41.81434 Y13.52725
G01 X-41.86959 Y13.45992
G01 X-44.49039 Y13.45992
G01 X-44.54563 Y13.52725
G01 X-44.59183 Y13.61369
G01 X-44.62028 Y13.70747
G01 X-44.62988 Y13.80498
G01 X-44.38000 Y13.80498
G01 X-44.38000 Y15.40500
G01 X-44.37517 Y15.45377
G01 X-44.36095 Y15.50065
G01 X-44.33786 Y15.54389
G01 X-44.30677 Y15.58176
G01 X-44.26887 Y15.61285
G01 X-44.22567 Y15.63596
G01 X-44.17875 Y15.65018
G01 X-44.12999 Y15.65499
G01 X-42.22999 Y15.65499
G01 X-42.18122 Y15.65018
G01 X-42.13431 Y15.63596
G01 X-42.09110 Y15.61285
G01 X-42.05321 Y15.58176
G01 X-42.02212 Y15.54389
G01 X-41.99903 Y15.50065
G01 X-41.98480 Y15.45377
G01 X-41.97998 Y15.40500
G01 X-41.97998 Y13.80498
G01 X-41.98480 Y13.75621
G01 X-41.99903 Y13.70932
G01 X-42.02212 Y13.66609
G01 X-42.05321 Y13.62822
G01 X-42.09110 Y13.59713
G01 X-42.13431 Y13.57401
G01 X-42.18122 Y13.55979
G01 X-42.22999 Y13.55499
G01 X-44.12999 Y13.55499
G01 X-44.17875 Y13.55979
G01 X-44.22567 Y13.57401
G01 X-44.26887 Y13.59713
G01 X-44.30677 Y13.62822
G01 X-44.33786 Y13.66609
G01 X-44.36095 Y13.70932
G01 X-44.37517 Y13.75621
G01 X-44.38000 Y13.80498
G01 X-44.62988 Y13.80498
G01 X-44.62988 Y12.86497
G01 X-44.62028 Y12.96251
G01 X-44.59183 Y13.05629
G01 X-44.54563 Y13.14270
G01 X-44.49041 Y13.21003
G01 X-41.86956 Y13.21003
G01 X-41.81434 Y13.14270
G01 X-41.76814 Y13.05629
G01 X-41.73969 Y12.96251
G01 X-41.73009 Y12.86497
G01 X-41.73009 Y11.26498
G01 X-41.73969 Y11.16747
G01 X-41.76814 Y11.07369
G01 X-41.81434 Y10.98725
G01 X-41.86959 Y10.91992
G01 X-44.49039 Y10.91992
G01 X-44.54563 Y10.98725
G01 X-44.59183 Y11.07369
G01 X-44.62028 Y11.16747
G01 X-44.62988 Y11.26498
G01 X-44.38000 Y11.26498
G01 X-44.38000 Y12.86497
G01 X-44.37517 Y12.91377
G01 X-44.36095 Y12.96065
G01 X-44.33786 Y13.00389
G01 X-44.30677 Y13.04176
G01 X-44.26887 Y13.07285
G01 X-44.22567 Y13.09594
G01 X-44.17875 Y13.11016
G01 X-44.12999 Y13.11496
G01 X-42.22999 Y13.11496
G01 X-42.18122 Y13.11016
G01 X-42.13431 Y13.09594
G01 X-42.09110 Y13.07285
G01 X-42.05321 Y13.04176
G01 X-42.02212 Y13.00389
G01 X-41.99903 Y12.96065
G01 X-41.98480 Y12.91377
G01 X-41.97998 Y12.86497
G01 X-41.97998 Y11.26498
G01 X-41.98480 Y11.21621
G01 X-41.99903 Y11.16932
G01 X-42.02212 Y11.12609
G01 X-42.05321 Y11.08822
G01 X-42.09110 Y11.05713
G01 X-42.13431 Y11.03401
G01 X-42.18122 Y11.01979
G01 X-42.22999 Y11.01499
G01 X-44.12999 Y11.01499
G01 X-44.17875 Y11.01979
G01 X-44.22567 Y11.03401
G01 X-44.26887 Y11.05713
G01 X-44.30677 Y11.08822
G01 X-44.33786 Y11.12609
G01 X-44.36095 Y11.16932
G01 X-44.37517 Y11.21621
G01 X-44.38000 Y11.26498
G01 X-44.62988 Y11.26498
G01 X-44.62988 Y10.32500
G01 X-44.62028 Y10.42251
G01 X-44.59183 Y10.51629
G01 X-44.54563 Y10.60272
G01 X-44.49041 Y10.67003
G01 X-41.86956 Y10.67003
G01 X-41.81434 Y10.60272
G01 X-41.76814 Y10.51629
G01 X-41.73969 Y10.42251
G01 X-41.73009 Y10.32500
G01 X-41.73009 Y8.72498
G01 X-41.73969 Y8.62747
G01 X-41.76814 Y8.53369
G01 X-41.81434 Y8.44725
G01 X-41.86959 Y8.37992
G01 X-44.49039 Y8.37992
G01 X-44.54563 Y8.44725
G01 X-44.59183 Y8.53369
G01 X-44.62028 Y8.62747
G01 X-44.62988 Y8.72498
G01 X-44.38000 Y8.72498
G01 X-44.38000 Y10.32500
G01 X-44.37517 Y10.37377
G01 X-44.36095 Y10.42065
G01 X-44.33786 Y10.46389
G01 X-44.30677 Y10.50176
G01 X-44.26887 Y10.53285
G01 X-44.22567 Y10.55596
G01 X-44.17875 Y10.57018
G01 X-44.12999 Y10.57499
G01 X-42.22999 Y10.57499
G01 X-42.18122 Y10.57018
G01 X-42.13431 Y10.55596
G01 X-42.09110 Y10.53285
G01 X-42.05321 Y10.50176
G01 X-42.02212 Y10.46389
G01 X-41.99903 Y10.42065
G01 X-41.98480 Y10.37377
G01 X-41.97998 Y10.32500
G01 X-41.97998 Y8.72498
G01 X-41.98480 Y8.67621
G01 X-41.99903 Y8.62932
G01 X-42.02212 Y8.58609
G01 X-42.05321 Y8.54822
G01 X-42.09110 Y8.51713
G01 X-42.13431 Y8.49401
G01 X-42.18122 Y8.47979
G01 X-42.22999 Y8.47499
G01 X-44.12999 Y8.47499
G01 X-44.17875 Y8.47979
G01 X-44.22567 Y8.49401
G01 X-44.26887 Y8.51713
G01 X-44.30677 Y8.54822
G01 X-44.33786 Y8.58609
G01 X-44.36095 Y8.62932
G01 X-44.37517 Y8.67621
G01 X-44.38000 Y8.72498
G01 X-44.62988 Y8.72498
G01 X-44.62988 Y7.78500
G01 X-44.62028 Y7.88251
G01 X-44.59183 Y7.97629
G01 X-44.54563 Y8.06272
G01 X-44.49041 Y8.13003
G01 X-41.86956 Y8.13003
G01 X-41.81434 Y8.06272
G01 X-41.76814 Y7.97629
G01 X-41.73969 Y7.88251
G01 X-41.73009 Y7.78500
G01 X-41.73009 Y6.18498
G01 X-41.73969 Y6.08747
G01 X-41.76814 Y5.99369
G01 X-41.81434 Y5.90725
G01 X-41.87650 Y5.83151
G01 X-41.95227 Y5.76933
G01 X-42.03868 Y5.72313
G01 X-42.13245 Y5.69468
G01 X-42.22999 Y5.68508
G01 X-44.12999 Y5.68508
G01 X-44.22752 Y5.69468
G01 X-44.32130 Y5.72313
G01 X-44.40771 Y5.76933
G01 X-44.48348 Y5.83151
G01 X-44.54563 Y5.90725
G01 X-44.59183 Y5.99369
G01 X-44.62028 Y6.08747
G01 X-44.62988 Y6.18498
G01 X-44.38000 Y6.18498
G01 X-44.37517 Y6.13621
G01 X-44.36095 Y6.08932
G01 X-44.33786 Y6.04609
G01 X-44.30677 Y6.00822
G01 X-44.26887 Y5.97713
G01 X-44.22567 Y5.95401
G01 X-44.17875 Y5.93979
G01 X-44.12999 Y5.93499
G01 X-42.22999 Y5.93499
G01 X-42.18122 Y5.93979
G01 X-42.13431 Y5.95401
G01 X-42.09110 Y5.97713
G01 X-42.05321 Y6.00822
G01 X-42.02212 Y6.04609
G01 X-41.99903 Y6.08932
G01 X-41.98480 Y6.13621
G01 X-41.97998 Y6.18498
G01 X-41.97998 Y7.78500
G01 X-41.98480 Y7.83377
G01 X-41.99903 Y7.88065
G01 X-42.02212 Y7.92389
G01 X-42.05321 Y7.96176
G01 X-42.09110 Y7.99285
G01 X-42.13431 Y8.01596
G01 X-42.18122 Y8.03018
G01 X-42.22999 Y8.03499
G01 X-44.12999 Y8.03499
G01 X-44.17875 Y8.03018
G01 X-44.22567 Y8.01596
G01 X-44.26887 Y7.99285
G01 X-44.30677 Y7.96176
G01 X-44.33786 Y7.92389
G01 X-44.36095 Y7.88065
G01 X-44.37517 Y7.83377
G01 X-44.38000 Y7.78500
G01 X-44.38000 Y6.18498
G01 X-44.62988 Y6.18498
G01 X-44.62988 Y17.94500
G04 P0 ( dwell for no time -- G64 should not smooth over this point )
G00 Z5.00000 ( retract )

G00 X-52.87241 Y8.46016 ( rapid move to begin. )
G01 F75.00000
( Mill infeed pass 1/1 )
G01 Z-0.10000
G04 P0 ( dwell for no time -- G64 should not smooth over this point )
G01 F75.00000
G01 X-52.87241 Y8.46016
G01 X-52.85008 Y8.48063
G01 X-52.80182 Y8.49716
G01 X-52.74203 Y8.49716
G01 X-52.69522 Y8.47971
G01 X-52.68117 Y8.43260
G01 X-52.69725 Y8.38645
G01 X-52.73970 Y8.37232
G01 X-52.80414 Y8.37232
G01 X-52.82476 Y8.37910
G01 X-52.87241 Y8.46016
G04 P0 ( dwell for no time -- G64 should not smooth over this point )
G00 Z5.00000 ( retract )

G00 X-53.90330 Y8.43260 ( rapid move to begin. )
G01 F75.00000
( Mill infeed pass 1/1 )
G01 Z-0.10000
G04 P0 ( dwell for no time -- G64 should not smooth over this point )
G01 F75.00000
G01 X-53.90330 Y8.43260
G01 X-53.89783 Y8.45350
G01 X-53.89783 Y8.41599
G01 X-53.90330 Y8.43260
G04 P0 ( dwell for no time -- G64 should not smooth over this point )
G00 Z5.00000 ( retract )

G00 X-55.94444 Y11.37265 ( rapid move to begin. )
G01 F75.00000
( Mill infeed pass 1/1 )
G01 Z-0.10000
G04 P0 ( dwell for no time -- G64 should not smooth over this point )
G01 F75.00000
G01 X-55.94444 Y11.37265
G01 X-55.96705 Y11.44003
G01 X-55.98480 Y11.52538
G01 X-55.98897 Y11.56505
G01 X-55.98952 Y11.64499
G01 X-55.98589 Y11.68461
G01 X-55.96951 Y11.76922
G01 X-55.94444 Y11.84610
G01 X-55.94444 Y12.15461
G01 X-55.84782 Y12.30338
G01 X-55.71399 Y12.45834
G01 X-55.69453 Y12.66957
G01 X-55.69453 Y13.18148
G01 X-55.70276 Y13.27175
G01 X-55.72620 Y13.37376
G01 X-55.75988 Y13.45336
G01 X-55.79382 Y13.51234
G01 X-55.86646 Y13.59982
G01 X-56.03469 Y13.64562
G01 X-56.21772 Y13.67305
G01 X-56.50774 Y13.69073
G01 X-56.61045 Y13.69177
G01 X-56.62381 Y13.68415
G01 X-56.72333 Y13.60482
G01 X-56.93214 Y13.39405
G01 X-56.93054 Y13.39192
G01 X-56.93214 Y13.39405
G01 X-57.04578 Y13.33591
G01 X-57.10669 Y13.29903
G01 X-57.16176 Y13.25392
G01 X-57.22577 Y13.18585
G01 X-57.28642 Y13.09035
G01 X-57.32640 Y13.00091
G01 X-57.34812 Y12.90536
G01 X-57.35701 Y12.80074
G01 X-57.10712 Y12.80208
G01 X-57.35701 Y12.80074
G01 X-57.35239 Y12.73551
G01 X-57.32882 Y12.63322
G01 X-57.30423 Y12.56391
G01 X-57.25914 Y12.48209
G01 X-57.21548 Y12.42289
G01 X-57.16361 Y12.37074
G01 X-57.13369 Y12.34476
G01 X-57.05371 Y12.28811
G01 X-56.96425 Y12.24813
G01 X-56.89755 Y12.22797
G01 X-56.85389 Y12.25801
G01 X-56.89755 Y12.22797
G01 X-56.89755 Y11.24092
G01 X-56.89514 Y11.19190
G01 X-56.88020 Y11.10450
G01 X-56.85175 Y11.01072
G01 X-56.80555 Y10.92431
G01 X-56.78353 Y10.89134
G01 X-56.74373 Y10.83945
G01 X-56.69750 Y10.79322
G01 X-56.61264 Y10.73140
G01 X-56.54865 Y10.69513
G01 X-56.48002 Y10.66866
G01 X-56.38922 Y10.64677
G01 X-56.31586 Y10.64136
G01 X-56.20286 Y10.64677
G01 X-56.11205 Y10.66866
G01 X-56.04342 Y10.69513
G01 X-55.97944 Y10.73140
G01 X-55.89458 Y10.79322
G01 X-55.86207 Y10.82573
G01 X-55.97162 Y11.10559
G01 X-55.95699 Y11.15327
G01 X-55.94563 Y11.21641
G01 X-55.94444 Y11.37265
G01 X-55.81993 Y11.25123
G01 X-55.78295 Y11.22225
G01 X-55.74030 Y11.20031
G01 X-55.62989 Y10.91819
G01 X-55.56402 Y10.91705
G01 X-55.45320 Y10.93424
G01 X-55.38302 Y10.95400
G01 X-55.31505 Y10.98453
G01 X-55.30085 Y11.08060
G01 X-55.27645 Y11.33711
G01 X-55.23606 Y11.37862
G01 X-55.20248 Y11.42362
G01 X-55.17083 Y11.49241
G01 X-55.15653 Y11.53884
G01 X-55.15216 Y11.58166
G01 X-55.15653 Y11.53884
G01 X-55.17083 Y11.49241
G01 X-55.20248 Y11.42362
G01 X-55.23606 Y11.37862
G01 X-55.38798 Y11.23183
G01 X-55.43484 Y11.20386
G01 X-55.46814 Y11.18898
G01 X-55.50322 Y11.17910
G01 X-55.57789 Y11.16655
G01 X-55.61434 Y11.16719
G01 X-55.66999 Y11.17491
G01 X-55.74119 Y11.20069
G01 X-55.78295 Y11.22225
G01 X-55.81993 Y11.25123
G01 X-55.94444 Y11.37265
G01 X-55.94563 Y11.21641
G01 X-55.95699 Y11.15327
G01 X-55.97121 Y11.10635
G01 X-55.99430 Y11.06315
G01 X-56.03624 Y11.00422
G01 X-56.08531 Y10.96119
G01 X-56.15028 Y10.92103
G01 X-56.18460 Y10.90780
G01 X-56.23954 Y10.89396
G01 X-56.31586 Y10.89127
G01 X-56.35254 Y10.89396
G01 X-56.38843 Y10.90204
G01 X-56.44180 Y10.92103
G01 X-56.50677 Y10.96119
G01 X-56.55584 Y11.00422
G01 X-56.57576 Y11.03018
G01 X-56.62087 Y11.10635
G01 X-56.63509 Y11.15327
G01 X-56.64644 Y11.21641
G01 X-56.64764 Y12.47737
G01 X-56.71127 Y12.46327
G01 X-56.78350 Y12.46027
G01 X-56.84759 Y12.47267
G01 X-56.92993 Y12.50518
G01 X-56.99986 Y12.55951
G01 X-57.02582 Y12.58557
G01 X-57.05826 Y12.63205
G01 X-57.07550 Y12.66454
G01 X-57.08780 Y12.69919
G01 X-57.10481 Y12.76947
G01 X-57.10712 Y12.80208
G01 X-57.10019 Y12.87407
G01 X-57.08932 Y12.92184
G01 X-57.06933 Y12.96657
G01 X-57.02917 Y13.03157
G01 X-57.00441 Y13.05875
G01 X-56.96240 Y13.09502
G01 X-56.78274 Y13.18979
G01 X-56.54581 Y13.42893
G01 X-56.51111 Y13.45811
G01 X-56.44159 Y13.50152
G01 X-56.36318 Y13.52540
G01 X-56.31838 Y13.53236
G01 X-56.27306 Y13.53111
G01 X-56.19227 Y13.51740
G01 X-56.11782 Y13.48316
G01 X-56.07969 Y13.45862
G01 X-56.04662 Y13.42761
G01 X-56.00144 Y13.37325
G01 X-55.96359 Y13.29568
G01 X-55.94855 Y13.22662
G01 X-55.94444 Y13.18148
G01 X-55.94444 Y11.84610
G01 X-55.80154 Y11.98580
G01 X-55.72999 Y12.02670
G01 X-55.66430 Y12.04623
G01 X-55.59897 Y12.05446
G01 X-55.54823 Y12.05192
G01 X-55.45663 Y12.02629
G01 X-55.54823 Y12.05192
G01 X-55.59897 Y12.05446
G01 X-55.66430 Y12.04623
G01 X-55.72879 Y12.02710
G01 X-55.64708 Y12.15357
G01 X-55.59234 Y12.21903
G01 X-55.53347 Y12.14707
G01 X-55.45663 Y12.02629
G01 X-55.40266 Y11.99784
G01 X-55.34045 Y11.94839
G01 X-55.23293 Y11.83617
G01 X-55.19202 Y11.77445
G01 X-55.17418 Y11.71938
G01 X-55.15610 Y11.62657
G01 X-55.15216 Y11.58166
G01 X-55.13288 Y11.49609
G01 X-55.09212 Y11.41357
G01 X-55.02727 Y11.31669
G01 X-55.05260 Y11.05200
G01 X-55.06890 Y10.94064
G01 X-54.99471 Y10.86630
G01 X-54.94459 Y10.82982
G01 X-54.87624 Y10.79083
G01 X-54.81879 Y10.76780
G01 X-54.51076 Y10.66597
G01 X-54.43489 Y10.64732
G01 X-54.35704 Y10.64072
G01 X-54.15547 Y10.63942
G01 X-54.04101 Y10.65088
G01 X-53.96365 Y10.66975
G01 X-53.68679 Y10.76119
G01 X-53.58115 Y10.80907
G01 X-53.51148 Y10.85345
G01 X-53.42712 Y10.93305
G01 X-53.37495 Y10.99868
G01 X-53.18280 Y11.28712
G01 X-53.15034 Y11.34354
G01 X-53.11689 Y11.42898
G01 X-53.09994 Y11.49248
G01 X-53.00850 Y11.95476
G01 X-52.99898 Y12.05177
G01 X-53.00139 Y12.41725
G01 X-53.10355 Y12.94115
G01 X-53.12049 Y13.00419
G01 X-53.14551 Y13.06452
G01 X-53.19128 Y13.14691
G01 X-53.38704 Y13.43678
G01 X-53.43741 Y13.49972
G01 X-53.49723 Y13.55377
G01 X-53.57421 Y13.60805
G01 X-53.64399 Y13.64239
G01 X-53.77564 Y13.68836
G01 X-53.95605 Y13.68872
G01 X-54.22796 Y13.67627
G01 X-54.33220 Y13.67673
G01 X-54.41579 Y13.67361
G01 X-54.69214 Y13.64889
G01 X-54.82938 Y13.64775
G01 X-54.91190 Y13.60907
G01 X-54.98048 Y13.56490
G01 X-55.06357 Y13.48605
G01 X-55.11503 Y13.42116
G01 X-55.30715 Y13.13271
G01 X-55.33964 Y13.07630
G01 X-55.37307 Y12.99086
G01 X-55.39003 Y12.92736
G01 X-55.44581 Y12.64547
G01 X-55.46390 Y12.45306
G01 X-55.33095 Y12.29444
G01 X-55.24109 Y12.15311
G01 X-55.24109 Y12.05177
G01 X-55.23624 Y12.00282
G01 X-55.18912 Y11.76685
G01 X-55.17418 Y11.71938
G01 X-55.15610 Y11.62657
G01 X-55.15216 Y11.58166
G01 X-55.13288 Y11.49609
G01 X-55.09212 Y11.41357
G01 X-54.90670 Y11.13671
G01 X-54.88094 Y11.10440
G01 X-54.83540 Y11.05883
G01 X-54.76908 Y11.01659
G01 X-54.43230 Y10.90323
G01 X-54.39438 Y10.89391
G01 X-54.35544 Y10.89061
G01 X-54.15387 Y10.88931
G01 X-54.08071 Y10.89762
G01 X-54.04201 Y10.90704
G01 X-53.76515 Y10.99848
G01 X-53.72712 Y11.01463
G01 X-53.66268 Y11.05240
G01 X-53.60904 Y11.10440
G01 X-53.58293 Y11.13721
G01 X-53.37457 Y11.45388
G01 X-53.34508 Y11.54097
G01 X-53.25364 Y12.00325
G01 X-53.24889 Y12.05177
G01 X-53.25011 Y12.39266
G01 X-53.35709 Y12.92372
G01 X-53.39839 Y13.00709
G01 X-53.59415 Y13.29693
G01 X-53.61932 Y13.32840
G01 X-53.67546 Y13.37554
G01 X-53.70086 Y13.39263
G01 X-53.76344 Y13.42078
G01 X-54.05641 Y13.51879
G01 X-54.09471 Y13.52832
G01 X-54.13405 Y13.53170
G01 X-54.33601 Y13.53307
G01 X-54.37843 Y13.52974
G01 X-54.45072 Y13.51440
G01 X-54.72758 Y13.42042
G01 X-54.76502 Y13.40421
G01 X-54.82844 Y13.36655
G01 X-54.88130 Y13.31506
G01 X-54.90705 Y13.28263
G01 X-55.09915 Y12.99418
G01 X-55.12786 Y12.93586
G01 X-55.14490 Y12.87887
G01 X-55.23634 Y12.41659
G01 X-55.24109 Y12.36807
G01 X-55.24109 Y12.15311
G04 P0 ( dwell for no time -- G64 should not smooth over this point )
G00 Z5.00000 ( retract )

G00 X-54.24498 Y11.59251 ( rapid move to begin. )
G01 F75.00000
( Mill infeed pass 1/1 )
G01 Z-0.10000
G04 P0 ( dwell for no time -- G64 should not smooth over this point )
G01 F75.00000
G01 X-54.24498 Y11.59251
G01 X-54.20883 Y11.59251
G01 X-54.10035 Y11.62835
G01 X-54.02128 Y11.74643
G01 X-53.95016 Y12.10592
G01 X-53.95016 Y12.31392
G01 X-54.02128 Y12.67341
G01 X-54.10126 Y12.79281
G01 X-54.21033 Y12.82987
G01 X-54.24498 Y12.82987
G01 X-54.24500 Y12.51659
G01 X-54.19888 Y12.28954
G01 X-54.19888 Y12.13030
G01 X-54.24500 Y11.90325
G01 X-54.28991 Y12.13040
G01 X-54.29110 Y12.28954
G01 X-54.24500 Y12.51659
G01 X-54.24498 Y12.82987
G01 X-54.27965 Y12.82987
G01 X-54.38872 Y12.79281
G01 X-54.46870 Y12.67341
G01 X-54.53982 Y12.31392
G01 X-54.53982 Y12.10592
G01 X-54.46870 Y11.74643
G01 X-54.38963 Y11.62835
G01 X-54.28115 Y11.59251
G01 X-54.24498 Y11.59251
G01 X-54.24500 Y11.90325
G01 X-54.28991 Y12.13040
G01 X-54.53982 Y12.10592
G04 P0 ( dwell for no time -- G64 should not smooth over this point )
G00 Z5.00000 ( retract )

G00 X-54.97787 Y14.22159 ( rapid move to begin. )
G01 F75.00000
( Mill infeed pass 1/1 )
G01 Z-0.10000
G04 P0 ( dwell for no time -- G64 should not smooth over this point )
G01 F75.00000
G01 X-54.97787 Y14.22159
G01 X-54.93954 Y13.93106
G01 X-54.83687 Y13.89761
G01 X-54.70649 Y13.89842
G01 X-54.42778 Y13.92324
G01 X-54.23423 Y13.92611
G01 X-53.96131 Y13.93858
G01 X-53.77525 Y13.93828
G01 X-53.69156 Y13.97254
G01 X-53.59578 Y14.02921
G01 X-53.53596 Y14.08123
G01 X-53.46268 Y14.16489
G01 X-53.42214 Y14.23289
G01 X-53.31668 Y14.44653
G01 X-53.28821 Y14.51740
G01 X-53.27086 Y14.59177
G01 X-53.26032 Y14.69837
G01 X-53.26032 Y14.78981
G01 X-53.26360 Y14.84693
G01 X-53.27340 Y14.90332
G01 X-53.30002 Y15.00314
G01 X-53.32237 Y15.05582
G01 X-53.35293 Y15.11783
G01 X-53.37040 Y15.11795
G01 X-53.35293 Y15.11783
G01 X-53.32400 Y15.16855
G01 X-53.28679 Y15.26670
G01 X-53.27020 Y15.32997
G01 X-53.26202 Y15.39484
G01 X-53.26238 Y15.46022
G01 X-53.26520 Y15.49977
G01 X-53.28112 Y15.59428
G01 X-53.31478 Y15.68399
G01 X-53.41336 Y15.88546
G01 X-53.44968 Y15.94858
G01 X-53.49296 Y16.00741
G01 X-53.57401 Y16.08518
G01 X-53.65285 Y16.14150
G01 X-53.74109 Y16.18153
G01 X-54.05209 Y16.28770
G01 X-54.13057 Y16.30756
G01 X-54.21127 Y16.31450
G01 X-54.50467 Y16.31584
G01 X-54.62107 Y16.30378
G01 X-54.70032 Y16.28394
G01 X-54.93771 Y16.20335
G01 X-54.97688 Y15.91262
G01 X-55.03090 Y15.87010
G01 X-55.06672 Y15.82910
G01 X-55.13583 Y15.70251
G01 X-55.13898 Y15.75869
G01 X-55.14528 Y15.79491
G01 X-55.15681 Y15.82984
G01 X-55.18851 Y15.89933
G01 X-55.22440 Y15.94698
G01 X-55.18589 Y16.23258
G01 X-55.22745 Y16.25656
G01 X-55.28785 Y16.28160
G01 X-55.38991 Y16.30624
G01 X-55.46291 Y16.31526
G01 X-55.55625 Y16.31150
G01 X-55.60477 Y16.30431
G01 X-55.67142 Y16.28661
G01 X-55.74005 Y16.26014
G01 X-55.80403 Y16.22387
G01 X-55.88889 Y16.16205
G01 X-55.93512 Y16.11582
G01 X-55.99473 Y16.03428
G01 X-55.99478 Y15.86062
G01 X-55.99473 Y16.03428
G01 X-56.04515 Y16.10332
G01 X-56.09587 Y16.15661
G01 X-56.15386 Y16.20185
G01 X-56.25081 Y16.26014
G01 X-56.31945 Y16.28661
G01 X-56.41025 Y16.30850
G01 X-56.52325 Y16.31391
G01 X-56.59661 Y16.30850
G01 X-56.66837 Y16.29237
G01 X-56.75605 Y16.26014
G01 X-56.80194 Y16.23413
G01 X-56.76514 Y15.94853
G01 X-56.80517 Y15.89212
G01 X-56.82826 Y15.84891
G01 X-56.85023 Y15.76314
G01 X-56.85503 Y15.68353
G01 X-56.81612 Y15.44157
G01 X-56.80951 Y15.37589
G01 X-56.80824 Y14.78981
G01 X-56.80413 Y14.72326
G01 X-56.76143 Y14.45605
G01 X-56.74238 Y14.39992
G01 X-56.71210 Y14.33573
G01 X-56.68515 Y14.29482
G01 X-56.65071 Y14.25994
G01 X-56.58998 Y14.21178
G01 X-56.36397 Y14.09979
G01 X-56.32912 Y14.08598
G01 X-56.29262 Y14.07752
G01 X-56.22300 Y14.06990
G01 X-55.93050 Y14.07112
G01 X-55.89255 Y14.07417
G01 X-55.82569 Y14.09248
G01 X-55.70705 Y14.14907
G01 X-55.68277 Y14.12916
G01 X-55.63954 Y14.10604
G01 X-55.57195 Y14.08036
G01 X-55.53989 Y14.07399
G01 X-55.46761 Y14.07185
G01 X-55.40291 Y14.08036
G01 X-55.33532 Y14.10604
G01 X-55.30245 Y14.12258
G01 X-55.27238 Y14.14376
G01 X-55.23034 Y14.18176
G01 X-55.18569 Y14.24374
G01 X-55.16260 Y14.28694
G01 X-55.14063 Y14.37272
G01 X-55.13583 Y14.42969
G01 X-55.14063 Y14.37272
G01 X-55.16260 Y14.28694
G01 X-55.18569 Y14.24374
G01 X-55.22565 Y14.18778
G01 X-55.18767 Y13.90134
G01 X-55.27632 Y13.85999
G01 X-55.33822 Y13.83899
G01 X-55.40235 Y13.82624
G01 X-55.46761 Y13.82194
G01 X-55.57251 Y13.82624
G01 X-55.63664 Y13.83899
G01 X-55.69854 Y13.85999
G01 X-55.71721 Y13.86774
G01 X-55.71747 Y13.87955
G01 X-55.71721 Y13.86774
G01 X-55.79867 Y13.84036
G01 X-55.98104 Y13.89017
G01 X-56.18599 Y13.92131
G01 X-56.49224 Y13.94018
G01 X-56.56737 Y13.94125
G01 X-56.60319 Y14.22149
G01 X-56.65071 Y14.25994
G01 X-56.68515 Y14.29482
G01 X-56.72691 Y14.36388
G01 X-56.76143 Y14.45605
G01 X-56.76623 Y14.37272
G01 X-56.78820 Y14.28694
G01 X-56.81129 Y14.24374
G01 X-56.85084 Y14.18793
G01 X-56.81462 Y13.90167
G01 X-56.86041 Y13.87572
G01 X-56.92905 Y13.84925
G01 X-57.01985 Y13.82735
G01 X-57.09321 Y13.82194
G01 X-57.20621 Y13.82735
G01 X-57.29702 Y13.84925
G01 X-57.36565 Y13.87572
G01 X-57.42963 Y13.91199
G01 X-57.52059 Y13.97925
G01 X-57.57131 Y14.03253
G01 X-57.62173 Y14.10157
G01 X-57.62168 Y14.27523
G01 X-57.62173 Y14.10157
G01 X-57.68134 Y14.02004
G01 X-57.72757 Y13.97381
G01 X-57.81243 Y13.91199
G01 X-57.87641 Y13.87572
G01 X-57.94505 Y13.84925
G01 X-58.01169 Y13.83154
G01 X-58.08002 Y13.82240
G01 X-58.15355 Y13.82060
G01 X-58.22655 Y13.82961
G01 X-58.32861 Y13.85425
G01 X-58.38901 Y13.87930
G01 X-58.47860 Y13.93401
G01 X-58.49986 Y13.95059
G01 X-58.48805 Y14.07221
G01 X-58.47207 Y14.18577
G01 X-58.44908 Y14.28046
G01 X-58.47118 Y14.34094
G01 X-58.47944 Y14.39700
G01 X-58.48063 Y14.63584
G01 X-58.43961 Y14.89436
G01 X-58.43448 Y14.95908
G01 X-58.43448 Y15.17678
G01 X-58.43974 Y15.24234
G01 X-58.48063 Y15.49657
G01 X-58.51766 Y15.59885
G01 X-58.53847 Y15.63233
G01 X-58.58393 Y15.68856
G01 X-58.69264 Y15.79489
G01 X-58.73069 Y15.98630
G01 X-58.74995 Y16.15905
G01 X-58.92109 Y16.24813
G01 X-58.99635 Y16.27980
G01 X-59.10356 Y16.30835
G01 X-59.18230 Y16.31460
G01 X-59.49102 Y16.31462
G01 X-59.56889 Y16.30853
G01 X-59.67496 Y16.28064
G01 X-59.74959 Y16.24965
G01 X-59.92617 Y16.15895
G01 X-59.94524 Y15.98663
G01 X-59.98307 Y15.79448
G01 X-60.10349 Y15.67569
G01 X-60.12924 Y15.64592
G01 X-60.15002 Y15.61244
G01 X-60.18027 Y15.54678
G01 X-60.27555 Y15.25417
G01 X-60.28469 Y15.21628
G01 X-60.28781 Y15.17739
G01 X-60.28835 Y14.96339
G01 X-60.28527 Y14.92367
G01 X-60.27590 Y14.88491
G01 X-60.17400 Y14.57406
G01 X-60.15896 Y14.53797
G01 X-60.13846 Y14.50467
G01 X-60.09383 Y14.44889
G01 X-59.89574 Y14.25273
G01 X-59.86556 Y14.22723
G01 X-59.83176 Y14.20680
G01 X-59.63211 Y14.10683
G01 X-59.59533 Y14.09195
G01 X-59.52871 Y14.07399
G01 X-59.49066 Y14.07109
G01 X-59.18271 Y14.07112
G01 X-59.14423 Y14.07409
G01 X-59.07689 Y14.09248
G01 X-59.03981 Y14.10769
G01 X-58.84296 Y14.20757
G01 X-58.80933 Y14.22811
G01 X-58.77936 Y14.25369
G01 X-58.57126 Y14.46167
G01 X-58.54598 Y14.49121
G01 X-58.51121 Y14.55227
G01 X-58.48063 Y14.63584
G01 X-58.51121 Y14.55227
G01 X-58.54598 Y14.49121
G01 X-58.69145 Y14.34155
G01 X-58.71903 Y14.22413
G01 X-58.73598 Y14.10386
G01 X-58.74855 Y13.97523
G01 X-58.92673 Y13.88483
G01 X-59.00087 Y13.85440
G01 X-59.10575 Y13.82718
G01 X-59.18269 Y13.82121
G01 X-59.49064 Y13.82118
G01 X-59.56671 Y13.82700
G01 X-59.67049 Y13.85362
G01 X-59.74400 Y13.88339
G01 X-59.94364 Y13.98336
G01 X-60.01126 Y14.02418
G01 X-60.07158 Y14.07516
G01 X-60.26968 Y14.27132
G01 X-60.32188 Y14.33203
G01 X-60.38139 Y14.42405
G01 X-60.41149 Y14.49621
G01 X-60.43948 Y14.58166
G01 X-60.47313 Y14.79420
G01 X-60.48675 Y14.96883
G01 X-60.48672 Y14.98740
G01 X-60.38665 Y15.09276
G01 X-60.28835 Y14.96339
G01 X-60.28576 Y15.20307
G01 X-60.38665 Y15.09276
G01 X-60.28576 Y15.20307
G01 X-60.27555 Y15.25417
G01 X-60.18027 Y15.54678
G01 X-60.15002 Y15.61244
G01 X-60.12924 Y15.64592
G01 X-60.10349 Y15.67569
G01 X-59.89559 Y15.88082
G01 X-59.86661 Y15.90535
G01 X-59.63539 Y16.02735
G01 X-59.59808 Y16.04284
G01 X-59.52998 Y16.06166
G01 X-59.49102 Y16.06471
G01 X-59.18233 Y16.06469
G01 X-59.14296 Y16.06156
G01 X-59.07413 Y16.04231
G01 X-59.03648 Y16.02649
G01 X-58.84047 Y15.92443
G01 X-58.80920 Y15.90510
G01 X-58.78111 Y15.88140
G01 X-58.58393 Y15.68856
G01 X-58.55739 Y15.65803
G01 X-58.51766 Y15.59885
G01 X-58.48063 Y15.49657
G01 X-58.47944 Y15.73886
G01 X-58.46808 Y15.80200
G01 X-58.45386 Y15.84891
G01 X-58.40875 Y15.92509
G01 X-58.38612 Y15.95410
G01 X-58.34408 Y15.99209
G01 X-58.31401 Y16.01328
G01 X-58.28114 Y16.02981
G01 X-58.21355 Y16.05549
G01 X-58.18149 Y16.06187
G01 X-58.10921 Y16.06400
G01 X-58.04451 Y16.05549
G01 X-57.97692 Y16.02981
G01 X-57.93369 Y16.00670
G01 X-57.90766 Y15.98534
G01 X-57.79099 Y16.04231
G01 X-57.72216 Y16.06156
G01 X-57.68279 Y16.06469
G01 X-57.37410 Y16.06471
G01 X-57.33514 Y16.06166
G01 X-57.29714 Y16.05260
G01 X-57.23092 Y16.02798
G01 X-57.04550 Y15.93400
G01 X-56.97322 Y15.88338
G01 X-56.93791 Y15.84965
G01 X-56.90982 Y15.80970
G01 X-56.87060 Y15.73065
G01 X-56.85503 Y15.68353
G01 X-56.87060 Y15.73065
G01 X-56.90982 Y15.80970
G01 X-56.93791 Y15.84965
G01 X-56.97322 Y15.88338
G01 X-57.01256 Y15.91300
G01 X-57.05135 Y16.21711
G01 X-57.11795 Y16.25087
G01 X-57.19016 Y16.28064
G01 X-57.29623 Y16.30853
G01 X-57.37410 Y16.31462
G01 X-57.68282 Y16.31460
G01 X-57.76156 Y16.30835
G01 X-57.86877 Y16.27980
G01 X-57.89788 Y16.26756
G01 X-57.89780 Y16.25702
G01 X-57.89788 Y16.26756
G01 X-57.91792 Y16.27586
G01 X-57.97982 Y16.29687
G01 X-58.04395 Y16.30962
G01 X-58.10921 Y16.31391
G01 X-58.21411 Y16.30962
G01 X-58.27824 Y16.29687
G01 X-58.37677 Y16.26067
G01 X-58.44248 Y16.22760
G01 X-58.50151 Y16.18602
G01 X-58.48444 Y16.02920
G01 X-58.45015 Y15.85585
G01 X-58.46808 Y15.80200
G01 X-58.47944 Y15.73886
G01 X-58.48063 Y15.49657
G01 X-58.43974 Y15.24234
G01 X-58.43448 Y15.17678
G01 X-58.43448 Y14.95908
G01 X-58.43961 Y14.89436
G01 X-58.48063 Y14.63584
G01 X-58.47944 Y14.39700
G01 X-58.47118 Y14.34094
G01 X-58.44908 Y14.28046
G01 X-58.42795 Y14.23652
G01 X-58.40677 Y14.20645
G01 X-58.36877 Y14.16441
G01 X-58.30679 Y14.11976
G01 X-58.24827 Y14.09090
G01 X-58.17781 Y14.07470
G01 X-58.14129 Y14.07020
G01 X-58.10453 Y14.07109
G01 X-58.03664 Y14.08262
G01 X-57.98327 Y14.10162
G01 X-57.89234 Y14.16169
G01 X-57.86923 Y14.18481
G01 X-57.82729 Y14.24374
G01 X-57.80916 Y14.27574
G01 X-57.79592 Y14.31006
G01 X-57.78213 Y14.36472
G01 X-57.77939 Y14.40114
G01 X-57.77766 Y15.19672
G01 X-57.64068 Y15.33246
G01 X-57.58170 Y15.36276
G01 X-57.48967 Y15.36276
G01 X-57.46455 Y15.28671
G01 X-57.46267 Y14.40114
G01 X-57.45782 Y14.35265
G01 X-57.44365 Y14.30602
G01 X-57.41195 Y14.23652
G01 X-57.37812 Y14.19106
G01 X-57.35277 Y14.16441
G01 X-57.32376 Y14.14178
G01 X-57.25879 Y14.10162
G01 X-57.22447 Y14.08839
G01 X-57.16953 Y14.07455
G01 X-57.13285 Y14.07185
G01 X-57.05653 Y14.07455
G01 X-57.00159 Y14.08839
G01 X-56.96727 Y14.10162
G01 X-56.93527 Y14.11976
G01 X-56.87634 Y14.16169
G01 X-56.85323 Y14.18481
G01 X-56.81129 Y14.24374
G01 X-56.78820 Y14.28694
G01 X-56.76623 Y14.37272
G01 X-56.76143 Y14.42151
G01 X-56.76143 Y14.45605
G01 X-56.79991 Y14.68915
G01 X-56.80685 Y14.75636
G01 X-56.80951 Y15.37589
G01 X-56.81612 Y15.44157
G01 X-56.85503 Y15.68353
G01 X-56.85023 Y15.76314
G01 X-56.82826 Y15.84891
G01 X-56.78315 Y15.92509
G01 X-56.74012 Y15.97416
G01 X-56.64919 Y16.03423
G01 X-56.59582 Y16.05323
G01 X-56.55993 Y16.06131
G01 X-56.52325 Y16.06400
G01 X-56.44693 Y16.06131
G01 X-56.39199 Y16.04747
G01 X-56.35767 Y16.03423
G01 X-56.29270 Y15.99408
G01 X-56.26369 Y15.97144
G01 X-56.22569 Y15.92941
G01 X-56.20451 Y15.89933
G01 X-56.17281 Y15.82984
G01 X-56.15864 Y15.78320
G01 X-56.15379 Y15.73472
G01 X-56.15191 Y14.84810
G01 X-56.12646 Y14.77310
G01 X-56.03016 Y14.77310
G01 X-55.97256 Y14.80190
G01 X-55.83880 Y14.93566
G01 X-55.83707 Y15.73472
G01 X-55.83433 Y15.77114
G01 X-55.82054 Y15.82580
G01 X-55.80731 Y15.86012
G01 X-55.78917 Y15.89212
G01 X-55.74723 Y15.95105
G01 X-55.72412 Y15.97416
G01 X-55.63319 Y16.03423
G01 X-55.57982 Y16.05323
G01 X-55.51193 Y16.06476
G01 X-55.47517 Y16.06565
G01 X-55.39979 Y16.05341
G01 X-55.33799 Y16.03245
G01 X-55.24769 Y15.97144
G01 X-55.20969 Y15.92941
G01 X-55.18851 Y15.89933
G01 X-55.17197 Y15.86647
G01 X-55.14528 Y15.79491
G01 X-55.13898 Y15.75869
G01 X-55.13583 Y15.70251
G01 X-55.17266 Y15.54414
G01 X-55.18241 Y15.42875
G01 X-55.17297 Y15.33258
G01 X-55.13583 Y15.16883
G01 X-55.13583 Y14.93459
G01 X-55.13583 Y15.16883
G01 X-55.07647 Y15.05885
G01 X-55.03743 Y15.00947
G01 X-55.09491 Y14.97493
G01 X-55.13583 Y14.93459
G01 X-55.17073 Y14.81516
G01 X-55.17708 Y14.77551
G01 X-55.18247 Y14.69499
G01 X-55.17863 Y14.63469
G01 X-55.16522 Y14.55268
G01 X-55.13583 Y14.42969
G01 X-55.09748 Y14.35397
G01 X-55.04685 Y14.28168
G01 X-55.01312 Y14.24638
G01 X-54.97317 Y14.21828
G01 X-54.91645 Y14.18765
G01 X-54.60053 Y14.08346
G01 X-54.56286 Y14.07437
G01 X-54.52422 Y14.07119
G01 X-54.23124 Y14.06990
G01 X-54.15857 Y14.07820
G01 X-54.11986 Y14.08763
G01 X-53.84300 Y14.17907
G01 X-53.77795 Y14.20922
G01 X-53.74429 Y14.23017
G01 X-53.69189 Y14.27912
G01 X-53.66649 Y14.30950
G01 X-53.64622 Y14.34351
G01 X-53.52651 Y14.59258
G01 X-53.51785 Y14.62976
G01 X-53.51023 Y14.69837
G01 X-53.51186 Y14.81836
G01 X-53.53533 Y14.91897
G01 X-53.65283 Y15.15560
G01 X-53.61066 Y15.19344
G01 X-53.58470 Y15.22339
G01 X-53.54874 Y15.27785
G01 X-53.51556 Y15.37736
G01 X-53.51148 Y15.40980
G01 X-53.51447 Y15.48206
G01 X-53.52242 Y15.52931
G01 X-53.53926 Y15.57419
G01 X-53.63781 Y15.77566
G01 X-53.66126 Y15.81559
G01 X-53.68290 Y15.84503
G01 X-53.73827 Y15.89684
G01 X-53.77769 Y15.92501
G01 X-53.82181 Y15.94503
G01 X-54.13281 Y16.05120
G01 X-54.17208 Y16.06113
G01 X-54.21241 Y16.06459
G01 X-54.50583 Y16.06596
G01 X-54.58038 Y16.05722
G01 X-54.62001 Y16.04729
G01 X-54.89687 Y15.95331
G01 X-54.97688 Y15.91262
G04 P0 ( dwell for no time -- G64 should not smooth over this point )
G00 Z5.00000 ( retract )

G00 X-59.58591 Y15.03177 ( rapid move to begin. )
G01 F75.00000
( Mill infeed pass 1/1 )
G01 Z-0.10000
G04 P0 ( dwell for no time -- G64 should not smooth over this point )
G01 F75.00000
G01 X-59.58591 Y15.03177
G01 X-59.58591 Y15.10408
G01 X-59.53879 Y15.24671
G01 X-59.45279 Y15.33154
G01 X-59.39122 Y15.36276
G01 X-59.28342 Y15.36276
G01 X-59.22406 Y15.33225
G01 X-59.13735 Y15.24671
G01 X-59.09023 Y15.10408
G01 X-59.09023 Y15.03177
G01 X-59.13775 Y14.88793
G01 X-59.22376 Y14.80190
G01 X-59.28136 Y14.77310
G01 X-59.39325 Y14.77310
G01 X-59.45307 Y14.80261
G01 X-59.53839 Y14.88793
G01 X-59.58591 Y15.03177
G04 P0 ( dwell for no time -- G64 should not smooth over this point )
G00 Z5.00000 ( retract )

G00 X-61.13681 Y11.62845 ( rapid move to begin. )
G01 F75.00000
( Mill infeed pass 1/1 )
G01 Z-0.10000
G04 P0 ( dwell for no time -- G64 should not smooth over this point )
G01 F75.00000
G01 X-61.13681 Y11.62845
G01 X-61.13036 Y11.62202
G01 X-61.07054 Y11.59251
G01 X-60.95865 Y11.59251
G01 X-60.90105 Y11.62131
G01 X-60.89391 Y11.62845
G01 X-61.13681 Y11.62845
G04 P0 ( dwell for no time -- G64 should not smooth over this point )
G00 Z5.00000 ( retract )

G00 X-66.20706 Y8.41599 ( rapid move to begin. )
G01 F75.00000
( Mill infeed pass 1/1 )
G01 Z-0.10000
G04 P0 ( dwell for no time -- G64 should not smooth over this point )
G01 F75.00000
G01 X-66.20706 Y8.41599
G01 X-66.20706 Y8.45350
G01 X-66.20159 Y8.43689
G01 X-66.20706 Y8.41599
G04 P0 ( dwell for no time -- G64 should not smooth over this point )
G00 Z5.00000 ( retract )

G00 X-67.08343 Y7.67042 ( rapid move to begin. )
G01 F75.00000
( Mill infeed pass 1/1 )
G01 Z-0.10000
G04 P0 ( dwell for no time -- G64 should not smooth over this point )
G01 F75.00000
G01 X-67.08343 Y7.67042
G01 X-67.26738 Y7.45498
G01 X-67.32130 Y7.47687
G01 X-67.34589 Y7.76762
G01 X-67.40789 Y7.80857
G01 X-67.45961 Y7.86366
G01 X-67.48287 Y7.89607
G01 X-67.43377 Y7.83415
G01 X-67.40789 Y7.80857
G01 X-67.37858 Y7.78703
G01 X-67.33888 Y7.76374
G01 X-67.17264 Y7.68548
G01 X-67.10515 Y7.67210
G01 X-67.06667 Y7.66912
G01 X-66.94729 Y7.66912
G01 X-66.91025 Y7.67276
G01 X-66.90906 Y7.58220
G01 X-66.89413 Y7.50720
G01 X-67.07261 Y7.29839
G01 X-67.00634 Y7.20524
G01 X-66.96012 Y7.15902
G01 X-66.90822 Y7.11921
G01 X-66.81864 Y7.06450
G01 X-66.75824 Y7.03946
G01 X-66.65618 Y7.01482
G01 X-66.55867 Y7.00519
G01 X-66.46113 Y7.01482
G01 X-66.42224 Y7.02254
G01 X-66.35907 Y7.03946
G01 X-66.29867 Y7.06450
G01 X-66.24206 Y7.09719
G01 X-66.15720 Y7.15902
G01 X-66.11097 Y7.20524
G01 X-66.07117 Y7.25714
G01 X-66.01287 Y7.35409
G01 X-65.98641 Y7.42272
G01 X-65.97998 Y7.44461
G01 X-65.99712 Y7.46120
G01 X-65.97998 Y7.44461
G01 X-65.92885 Y7.45988
G01 X-65.83802 Y7.50153
G01 X-65.83855 Y7.78403
G01 X-65.87056 Y7.76465
G01 X-66.01402 Y7.69480
G01 X-66.11650 Y7.67072
G01 X-66.20858 Y7.66953
G01 X-66.20901 Y7.58563
G01 X-66.21181 Y7.54957
G01 X-66.21978 Y7.51431
G01 X-66.23878 Y7.46095
G01 X-66.29885 Y7.37001
G01 X-66.34792 Y7.32699
G01 X-66.40921 Y7.28861
G01 X-66.47101 Y7.26765
G01 X-66.55867 Y7.25510
G01 X-66.64630 Y7.26765
G01 X-66.70810 Y7.28861
G01 X-66.76939 Y7.32699
G01 X-66.81846 Y7.37001
G01 X-66.86039 Y7.42894
G01 X-66.88348 Y7.47215
G01 X-66.90545 Y7.55792
G01 X-66.91025 Y7.60672
G01 X-66.91025 Y7.67276
G01 X-66.86784 Y7.72328
G01 X-66.81978 Y7.79419
G01 X-66.79860 Y7.83384
G01 X-66.77774 Y7.88363
G01 X-66.75600 Y7.97303
G01 X-66.75392 Y8.04055
G01 X-66.75765 Y8.07784
G01 X-66.78160 Y8.16950
G01 X-66.81978 Y8.24723
G01 X-66.86784 Y8.31814
G01 X-66.90157 Y8.35924
G01 X-66.90157 Y8.52330
G01 X-66.83779 Y8.62929
G01 X-66.81102 Y8.69318
G01 X-66.79011 Y8.77209
G01 X-66.78325 Y8.87329
G01 X-66.78343 Y9.11769
G01 X-66.70441 Y9.16864
G01 X-66.65849 Y9.18540
G01 X-66.65849 Y9.21807
G01 X-66.52016 Y9.44794
G01 X-66.46113 Y9.44065
G01 X-66.44206 Y9.43473
G01 X-66.42009 Y9.44227
G01 X-66.34201 Y9.44895
G01 X-66.14800 Y9.45025
G01 X-66.06484 Y9.44385
G01 X-65.95539 Y9.41972
G01 X-65.83840 Y9.36602
G01 X-65.83914 Y9.08342
G01 X-65.99725 Y9.16699
G01 X-66.03398 Y9.18251
G01 X-66.10474 Y9.19716
G01 X-66.14632 Y9.20036
G01 X-66.34033 Y9.19907
G01 X-66.37939 Y9.19571
G01 X-66.43896 Y9.17918
G01 X-66.50987 Y9.19556
G01 X-66.54640 Y9.20006
G01 X-66.60299 Y9.19721
G01 X-66.65105 Y9.18764
G01 X-66.70441 Y9.16864
G01 X-66.78343 Y9.11769
G01 X-66.85879 Y9.16686
G01 X-66.89420 Y9.18075
G01 X-66.89481 Y9.28408
G01 X-66.89976 Y9.33209
G01 X-66.91384 Y9.37826
G01 X-66.95211 Y9.45812
G01 X-67.01125 Y9.52403
G01 X-67.04912 Y9.55512
G01 X-67.09235 Y9.57824
G01 X-67.15994 Y9.60392
G01 X-67.22463 Y9.61243
G01 X-67.30096 Y9.60973
G01 X-67.35590 Y9.59589
G01 X-67.39021 Y9.58266
G01 X-67.48115 Y9.52259
G01 X-67.50426 Y9.49947
G01 X-67.54619 Y9.44054
G01 X-67.56433 Y9.40854
G01 X-67.57756 Y9.37423
G01 X-67.59128 Y9.32002
G01 X-67.59486 Y9.15391
G01 X-67.64604 Y9.11931
G01 X-67.64576 Y8.57885
G01 X-67.71985 Y8.53067
G01 X-67.75392 Y8.51713
G01 X-67.75392 Y8.36590
G01 X-67.69163 Y8.35132
G01 X-67.66143 Y8.33882
G01 X-67.59486 Y8.29579
G01 X-67.59550 Y8.54441
G01 X-67.64576 Y8.57885
G01 X-67.59550 Y8.54441
G01 X-67.59486 Y8.29579
G01 X-67.52090 Y8.11947
G01 X-67.49959 Y8.04055
G01 X-67.48287 Y7.89607
G01 X-67.49100 Y7.87497
G01 X-67.55107 Y7.78403
G01 X-67.60014 Y7.74101
G01 X-67.66143 Y7.70263
G01 X-67.69163 Y7.69013
G01 X-67.76209 Y7.67392
G01 X-67.81089 Y7.66912
G01 X-67.93027 Y7.66912
G01 X-67.99964 Y7.67692
G01 X-68.03624 Y7.68548
G01 X-68.07111 Y7.69943
G01 X-68.20812 Y7.76694
G01 X-68.03624 Y7.68548
G01 X-67.96875 Y7.67210
G01 X-67.93027 Y7.66912
G01 X-67.81089 Y7.66912
G01 X-67.72323 Y7.68167
G01 X-67.66143 Y7.70263
G01 X-67.59478 Y7.74512
G01 X-67.57132 Y7.47006
G01 X-67.61129 Y7.45348
G01 X-67.71335 Y7.42884
G01 X-67.81089 Y7.41921
G01 X-67.93027 Y7.41921
G01 X-68.03812 Y7.43001
G01 X-68.11127 Y7.44710
G01 X-68.18490 Y7.47687
G01 X-68.20812 Y7.76694
G01 X-68.25369 Y7.79714
G01 X-68.29016 Y7.82790
G01 X-68.31383 Y7.85068
G01 X-68.34622 Y7.89617
G01 X-68.35932 Y8.02074
G01 X-68.38483 Y8.18330
G01 X-68.38935 Y8.24039
G01 X-68.38978 Y8.58474
G01 X-68.46245 Y8.70524
G01 X-68.49991 Y8.79338
G01 X-68.51520 Y8.86856
G01 X-68.54419 Y9.08390
G01 X-68.67919 Y9.15515
G01 X-68.68071 Y9.16955
G01 X-68.83286 Y9.43620
G01 X-68.83941 Y9.43437
G01 X-68.83286 Y9.43620
G01 X-68.84005 Y9.47796
G01 X-68.84005 Y9.61603
G01 X-68.87703 Y9.66424
G01 X-68.92326 Y9.71047
G01 X-68.97515 Y9.75027
G01 X-69.06473 Y9.80498
G01 X-69.12513 Y9.83003
G01 X-69.18830 Y9.84694
G01 X-69.22719 Y9.85467
G01 X-69.32473 Y9.86429
G01 X-69.42224 Y9.85467
G01 X-69.46113 Y9.84694
G01 X-69.53202 Y9.82734
G01 X-69.59925 Y9.79752
G01 X-69.71368 Y9.72106
G01 X-69.76697 Y9.67034
G01 X-69.81220 Y9.61235
G01 X-69.83423 Y9.57938
G01 X-69.88043 Y9.49297
G01 X-69.90888 Y9.39919
G01 X-69.92381 Y9.31179
G01 X-69.92623 Y8.02074
G01 X-69.67631 Y8.02074
G01 X-69.92623 Y8.02074
G01 X-69.92186 Y7.95190
G01 X-69.90928 Y7.87944
G01 X-69.88622 Y7.80961
G01 X-69.83796 Y7.70727
G01 X-69.79562 Y7.64715
G01 X-69.73227 Y7.57847
G01 X-69.67428 Y7.53323
G01 X-69.58470 Y7.47852
G01 X-69.52430 Y7.45348
G01 X-69.42224 Y7.42884
G01 X-69.32473 Y7.41921
G01 X-69.22719 Y7.42884
G01 X-69.11741 Y7.45617
G01 X-69.05018 Y7.48599
G01 X-69.00001 Y7.51716
G01 X-69.00042 Y7.54690
G01 X-69.00001 Y7.51716
G01 X-68.92709 Y7.47494
G01 X-68.83941 Y7.44271
G01 X-68.74330 Y7.42358
G01 X-68.64995 Y7.41982
G01 X-68.57695 Y7.42884
G01 X-68.47489 Y7.45348
G01 X-68.43492 Y7.47006
G01 X-68.45722 Y7.74603
G01 X-68.41467 Y7.78403
G01 X-68.39476 Y7.80999
G01 X-68.37274 Y7.84296
G01 X-68.34632 Y7.89716
G01 X-68.37274 Y7.84296
G01 X-68.39476 Y7.80999
G01 X-68.41467 Y7.78403
G01 X-68.46374 Y7.74101
G01 X-68.52503 Y7.70263
G01 X-68.55523 Y7.69013
G01 X-68.66222 Y7.66943
G01 X-68.71881 Y7.67227
G01 X-68.76687 Y7.68185
G01 X-68.82023 Y7.70085
G01 X-68.85224 Y7.71898
G01 X-68.91117 Y7.76092
G01 X-68.93428 Y7.78403
G01 X-68.97621 Y7.84296
G01 X-68.99961 Y7.88711
G01 X-69.04500 Y7.80999
G01 X-69.06763 Y7.78099
G01 X-69.10967 Y7.74299
G01 X-69.15041 Y7.71576
G01 X-69.20161 Y7.69148
G01 X-69.27593 Y7.67392
G01 X-69.32473 Y7.66912
G01 X-69.37350 Y7.67392
G01 X-69.44396 Y7.69013
G01 X-69.47416 Y7.70263
G01 X-69.53545 Y7.74101
G01 X-69.56445 Y7.76364
G01 X-69.60245 Y7.80567
G01 X-69.62364 Y7.83575
G01 X-69.65533 Y7.90524
G01 X-69.66687 Y7.94017
G01 X-69.67512 Y7.99622
G01 X-69.67631 Y9.26280
G01 X-69.67151 Y9.31156
G01 X-69.64954 Y9.39734
G01 X-69.62645 Y9.44054
G01 X-69.58180 Y9.50252
G01 X-69.53976 Y9.54052
G01 X-69.49902 Y9.56775
G01 X-69.44782 Y9.59203
G01 X-69.41236 Y9.60183
G01 X-69.32473 Y9.61438
G01 X-69.27593 Y9.60958
G01 X-69.20547 Y9.59338
G01 X-69.14695 Y9.56452
G01 X-69.08803 Y9.52259
G01 X-69.06491 Y9.49947
G01 X-69.02298 Y9.44054
G01 X-68.99989 Y9.39734
G01 X-68.98566 Y9.35043
G01 X-68.97431 Y9.28728
G01 X-68.97312 Y9.20036
G01 X-68.82282 Y9.19864
G01 X-68.74759 Y9.18230
G01 X-68.69237 Y9.16191
G01 X-68.54419 Y9.08390
G01 X-68.49836 Y9.12650
G01 X-68.45592 Y9.15391
G01 X-68.45518 Y9.27966
G01 X-68.59016 Y9.51070
G01 X-68.59016 Y9.61608
G01 X-68.55320 Y9.66424
G01 X-68.50697 Y9.71047
G01 X-68.42211 Y9.77229
G01 X-68.35813 Y9.80857
G01 X-68.28950 Y9.83503
G01 X-68.19870 Y9.85693
G01 X-68.12534 Y9.86234
G01 X-68.02044 Y9.85804
G01 X-67.95630 Y9.84529
G01 X-67.89440 Y9.82429
G01 X-67.80009 Y9.77829
G01 X-67.80068 Y9.43475
G01 X-67.79006 Y9.41489
G01 X-67.81317 Y9.45812
G01 X-67.87231 Y9.52403
G01 X-67.91018 Y9.55512
G01 X-67.95341 Y9.57824
G01 X-68.02100 Y9.60392
G01 X-68.05305 Y9.61029
G01 X-68.16202 Y9.60973
G01 X-68.21696 Y9.59589
G01 X-68.25127 Y9.58266
G01 X-68.31625 Y9.54250
G01 X-68.36532 Y9.49947
G01 X-68.42539 Y9.40854
G01 X-68.44439 Y9.35518
G01 X-68.45234 Y9.32002
G01 X-68.45518 Y9.27966
G01 X-68.45234 Y9.32002
G01 X-68.44439 Y9.35518
G01 X-68.42539 Y9.40854
G01 X-68.38523 Y9.47351
G01 X-68.34221 Y9.52259
G01 X-68.28328 Y9.56452
G01 X-68.25127 Y9.58266
G01 X-68.21696 Y9.59589
G01 X-68.16202 Y9.60973
G01 X-68.05305 Y9.61029
G01 X-67.99003 Y9.59340
G01 X-67.91018 Y9.55512
G01 X-67.84426 Y9.49599
G01 X-67.81317 Y9.45812
G01 X-67.79006 Y9.41489
G01 X-67.76082 Y9.33209
G01 X-67.75587 Y9.28408
G01 X-67.75526 Y9.18075
G01 X-67.71985 Y9.16686
G01 X-67.64604 Y9.11885
G01 X-67.59486 Y9.15391
G01 X-67.59128 Y9.32002
G01 X-67.57756 Y9.37423
G01 X-67.55077 Y9.43247
G01 X-67.55016 Y9.77847
G01 X-67.49707 Y9.80857
G01 X-67.40939 Y9.84080
G01 X-67.33764 Y9.85693
G01 X-67.22463 Y9.86234
G01 X-67.15938 Y9.85804
G01 X-67.09524 Y9.84529
G01 X-66.99672 Y9.80910
G01 X-66.91028 Y9.76292
G01 X-66.83454 Y9.70074
G01 X-66.80650 Y9.67270
G01 X-66.74432 Y9.59696
G01 X-66.73390 Y9.57745
G01 X-66.89682 Y9.30361
G01 X-66.89420 Y9.18075
G01 X-66.85879 Y9.16686
G01 X-66.78343 Y9.11769
G01 X-66.70441 Y9.16864
G01 X-66.65105 Y9.18764
G01 X-66.60299 Y9.19721
G01 X-66.54640 Y9.20006
G01 X-66.50987 Y9.19556
G01 X-66.43896 Y9.17918
G01 X-66.37939 Y9.19571
G01 X-66.34033 Y9.19907
G01 X-66.14632 Y9.20036
G01 X-66.07272 Y9.19198
G01 X-66.03398 Y9.18251
G01 X-65.99725 Y9.16699
G01 X-65.82202 Y9.07291
G01 X-65.70406 Y8.96244
G01 X-65.68785 Y8.85414
G01 X-65.68295 Y8.71611
G01 X-65.67696 Y8.66254
G01 X-65.65908 Y8.59597
G01 X-65.62839 Y8.51037
G01 X-65.60040 Y8.40412
G01 X-65.65707 Y8.27816
G01 X-65.67574 Y8.20778
G01 X-65.68176 Y8.15995
G01 X-65.68999 Y8.00425
G01 X-65.70500 Y7.90565
G01 X-65.65859 Y7.84055
G01 X-65.62501 Y7.80895
G01 X-65.58852 Y7.78302
G01 X-65.58813 Y7.50796
G01 X-65.39174 Y7.44451
G01 X-65.31778 Y7.42681
G01 X-65.24196 Y7.42051
G01 X-65.04810 Y7.41924
G01 X-64.93261 Y7.43090
G01 X-64.85461 Y7.45010
G01 X-64.69858 Y7.50209
G01 X-64.62682 Y7.64570
G01 X-64.66187 Y7.79673
G01 X-64.62271 Y7.82925
G01 X-64.58682 Y7.87027
G01 X-64.56185 Y7.91246
G01 X-64.56898 Y7.94560
G01 X-64.56192 Y7.91284
G01 X-64.54711 Y7.90148
G01 X-64.46949 Y7.86615
G01 X-64.40995 Y7.85165
G01 X-64.41813 Y7.85236
G01 X-64.41666 Y7.84667
G01 X-64.40995 Y7.85165
G01 X-64.37485 Y7.84863
G01 X-64.29959 Y7.85208
G01 X-64.26424 Y7.86028
G01 X-64.21171 Y7.87936
G01 X-64.13525 Y7.92856
G01 X-64.04968 Y8.04029
G01 X-64.00541 Y8.11309
G01 X-63.98804 Y8.14883
G01 X-63.95095 Y8.25457
G01 X-63.95364 Y8.31345
G01 X-63.96749 Y8.36839
G01 X-63.98072 Y8.40270
G01 X-64.01775 Y8.46298
G01 X-64.60376 Y8.46323
G01 X-64.01775 Y8.46298
G01 X-63.98072 Y8.40270
G01 X-63.96749 Y8.36839
G01 X-63.95364 Y8.31345
G01 X-63.95095 Y8.25457
G01 X-63.71161 Y8.68020
G01 X-63.68875 Y8.81598
G01 X-63.68230 Y8.97197
G01 X-63.70312 Y9.20511
G01 X-63.37198 Y9.79386
G01 X-63.31580 Y9.87415
G01 X-63.24430 Y9.95101
G01 X-63.19286 Y9.99139
G01 X-63.13660 Y10.02472
G01 X-63.10125 Y10.04265
G01 X-63.00993 Y10.07821
G01 X-62.91344 Y10.09526
G01 X-62.87392 Y10.09830
G01 X-62.77592 Y10.09620
G01 X-62.68024 Y10.07504
G01 X-62.64257 Y10.06272
G01 X-62.55286 Y10.02327
G01 X-62.47257 Y9.96709
G01 X-62.39571 Y9.89559
G01 X-62.35532 Y9.84415
G01 X-62.32200 Y9.78789
G01 X-62.30407 Y9.75253
G01 X-62.26980 Y9.66457
G01 X-62.28433 Y9.56465
G01 X-62.34963 Y9.36323
G01 X-62.36190 Y9.33529
G01 X-62.40595 Y9.24695
G01 X-63.12164 Y7.97288
G01 X-63.19241 Y7.82528
G01 X-63.26060 Y7.61182
G01 X-63.27270 Y7.55978
G01 X-63.27986 Y7.50362
G01 X-63.38771 Y7.31185
G01 X-63.44389 Y7.23156
G01 X-63.51539 Y7.15470
G01 X-63.56683 Y7.11431
G01 X-63.62309 Y7.08099
G01 X-63.65845 Y7.06305
G01 X-63.74976 Y7.02749
G01 X-63.84625 Y7.01045
G01 X-63.88578 Y7.00740
G01 X-63.98377 Y7.00951
G01 X-64.07945 Y7.03067
G01 X-64.11712 Y7.04299
G01 X-64.17782 Y7.06735
G01 X-64.23480 Y7.09940
G01 X-64.31722 Y7.16440
G01 X-64.38501 Y7.23516
G01 X-64.43769 Y7.31782
G01 X-64.47231 Y7.39597
G01 X-64.39588 Y7.54921
G01 X-64.26017 Y7.65162
G01 X-64.23815 Y7.73420
G01 X-64.21844 Y7.77905
G01 X-64.13246 Y7.93194
G01 X-64.21844 Y7.77905
G01 X-64.23815 Y7.73420
G01 X-64.25857 Y7.66483
G01 X-64.26248 Y7.63237
G01 X-64.25908 Y7.56013
G01 X-64.25054 Y7.51187
G01 X-64.23276 Y7.46620
G01 X-64.18849 Y7.38952
G01 X-64.12448 Y7.32833
G01 X-64.06982 Y7.29270
G01 X-64.00178 Y7.26821
G01 X-63.95392 Y7.25762
G01 X-63.90493 Y7.25658
G01 X-63.81714 Y7.26813
G01 X-63.73612 Y7.30385
G01 X-63.68227 Y7.34070
G01 X-63.63360 Y7.39419
G01 X-63.60551 Y7.43435
G01 X-62.54125 Y9.32665
G01 X-62.52154 Y9.37151
G01 X-62.50112 Y9.44088
G01 X-62.49721 Y9.47334
G01 X-62.50061 Y9.54557
G01 X-62.50915 Y9.59383
G01 X-62.54486 Y9.67486
G01 X-62.58171 Y9.72871
G01 X-62.63521 Y9.77737
G01 X-62.67536 Y9.80547
G01 X-62.75791 Y9.83750
G01 X-62.80577 Y9.84809
G01 X-62.85476 Y9.84913
G01 X-62.94255 Y9.83757
G01 X-62.98822 Y9.81979
G01 X-63.05169 Y9.78520
G01 X-63.07742 Y9.76500
G01 X-63.12609 Y9.71151
G01 X-63.15418 Y9.67135
G01 X-63.95095 Y8.25457
G01 X-63.95364 Y8.31345
G01 X-63.96749 Y8.36839
G01 X-63.98072 Y8.40270
G01 X-64.01859 Y8.46298
G01 X-63.98514 Y8.51886
G01 X-63.96998 Y8.55548
G01 X-63.95309 Y8.61850
G01 X-63.95095 Y8.65114
G01 X-63.95364 Y8.72747
G01 X-63.96172 Y8.76336
G01 X-63.98072 Y8.81672
G01 X-63.99886 Y8.84872
G01 X-64.03698 Y8.90318
G01 X-64.12888 Y8.99373
G01 X-64.16484 Y9.02249
G01 X-64.20546 Y9.04418
G01 X-64.28768 Y9.07367
G01 X-64.33574 Y9.07885
G01 X-64.42301 Y9.07512
G01 X-64.45352 Y9.06635
G01 X-64.42301 Y9.07512
G01 X-64.37485 Y9.07928
G01 X-64.28768 Y9.07367
G01 X-64.24150 Y9.05932
G01 X-64.16484 Y9.02249
G01 X-64.12888 Y8.99373
G01 X-64.05529 Y8.92284
G01 X-64.02088 Y8.88169
G01 X-63.98072 Y8.81672
G01 X-63.96749 Y8.78241
G01 X-63.95364 Y8.72747
G01 X-63.95550 Y8.73572
G01 X-63.93769 Y8.83834
G01 X-63.93325 Y8.97562
G01 X-63.94740 Y9.14865
G01 X-63.95037 Y9.16876
G01 X-64.02738 Y9.23120
G01 X-64.14465 Y9.28969
G01 X-64.23696 Y9.31837
G01 X-64.33309 Y9.32873
G01 X-64.42271 Y9.32480
G01 X-64.45352 Y9.06635
G01 X-64.53853 Y9.03160
G01 X-64.58806 Y8.99554
G01 X-64.63101 Y9.04598
G01 X-64.70160 Y9.09643
G01 X-64.67094 Y9.35370
G01 X-64.86284 Y9.42081
G01 X-64.94239 Y9.44148
G01 X-65.02425 Y9.44883
G01 X-65.21897 Y9.45025
G01 X-65.33774 Y9.43798
G01 X-65.41770 Y9.41776
G01 X-65.58844 Y9.35921
G01 X-65.58912 Y9.08261
G01 X-65.62260 Y9.06021
G01 X-65.64937 Y9.03559
G01 X-65.68491 Y8.99429
G01 X-65.70406 Y8.96244
G01 X-65.68491 Y8.99429
G01 X-65.64937 Y9.03559
G01 X-65.62260 Y9.06021
G01 X-65.55857 Y9.10031
G01 X-65.51445 Y9.12040
G01 X-65.33665 Y9.18136
G01 X-65.26373 Y9.19696
G01 X-65.22080 Y9.20036
G01 X-65.02606 Y9.19894
G01 X-64.98514 Y9.19526
G01 X-64.94536 Y9.18492
G01 X-64.70393 Y9.09787
G01 X-64.63101 Y9.04598
G01 X-64.58806 Y8.99554
G01 X-64.60980 Y8.83633
G01 X-64.61364 Y8.77771
G01 X-64.61468 Y8.47771
G01 X-64.60376 Y8.46323
G01 X-64.61432 Y8.36399
G01 X-64.61349 Y8.24121
G01 X-64.60439 Y8.15495
G01 X-64.56185 Y7.91246
G01 X-64.58682 Y7.87027
G01 X-64.62271 Y7.82925
G01 X-64.64971 Y7.80486
G01 X-64.71407 Y7.76531
G01 X-64.75837 Y7.74558
G01 X-64.93363 Y7.68716
G01 X-65.00477 Y7.67235
G01 X-65.04645 Y7.66912
G01 X-65.27823 Y7.67354
G01 X-65.50868 Y7.74464
G01 X-65.57564 Y7.77537
G01 X-65.62501 Y7.80895
G01 X-65.65859 Y7.84055
G01 X-65.70500 Y7.90565
G01 X-65.77800 Y7.83171
G01 X-65.83855 Y7.78403
G04 P0 ( dwell for no time -- G64 should not smooth over this point )
G00 Z5.00000 ( retract )

G00 X-60.65208 Y8.43260 ( rapid move to begin. )
G01 F75.00000
( Mill infeed pass 1/1 )
G01 Z-0.10000
G04 P0 ( dwell for no time -- G64 should not smooth over this point )
G01 F75.00000
G01 X-60.65208 Y8.43260
G01 X-60.63739 Y8.38789
G01 X-60.62182 Y8.37232
G01 X-60.61690 Y8.37232
G01 X-60.55591 Y8.43463
G01 X-60.62017 Y8.49716
G01 X-60.63800 Y8.47969
G01 X-60.65208 Y8.43260
G04 P0 ( dwell for no time -- G64 should not smooth over this point )
G00 Z5.00000 ( retract )

G00 X-58.69114 Y8.43476 ( rapid move to begin. )
G01 F75.00000
( Mill infeed pass 1/1 )
G01 Z-0.10000
G04 P0 ( dwell for no time -- G64 should not smooth over this point )
G01 F75.00000
G01 X-58.69114 Y8.43476
G01 X-58.67499 Y8.38769
G01 X-58.65602 Y8.37232
G01 X-58.64098 Y8.38769
G01 X-58.62483 Y8.43473
G01 X-58.64032 Y8.47992
G01 X-58.65757 Y8.49716
G01 X-58.67565 Y8.47992
G01 X-58.69114 Y8.43476
G04 P0 ( dwell for no time -- G64 should not smooth over this point )
G00 Z5.00000 ( retract )

G00 X-55.79862 Y9.14141 ( rapid move to begin. )
G01 F75.00000
( Mill infeed pass 1/1 )
G01 Z-0.10000
G04 P0 ( dwell for no time -- G64 should not smooth over this point )
G01 F75.00000
G01 X-55.79862 Y9.14141
G01 X-55.77909 Y9.31065
G01 X-55.77373 Y9.41413
G01 X-55.76316 Y9.41776
G01 X-55.65026 Y9.44347
G01 X-55.56453 Y9.45025
G01 X-55.37002 Y9.44888
G01 X-55.28907 Y9.44169
G01 X-55.21033 Y9.42147
G01 X-54.99834 Y9.34824
G01 X-54.91074 Y9.30816
G01 X-54.83245 Y9.25200
G01 X-54.77855 Y9.20151
G01 X-54.79989 Y8.94258
G01 X-54.80053 Y8.85683
G01 X-54.83451 Y8.81390
G01 X-54.81452 Y8.76226
G01 X-54.80670 Y8.71553
G01 X-54.80380 Y8.65205
G01 X-54.71742 Y8.66562
G01 X-54.67383 Y8.66562
G01 X-54.63090 Y8.65805
G01 X-54.57741 Y8.64232
G01 X-54.55442 Y8.59279
G01 X-54.57657 Y8.64052
G01 X-54.52146 Y8.80242
G01 X-54.55059 Y8.84974
G01 X-54.55034 Y8.92932
G01 X-54.52897 Y9.18881
G01 X-54.44548 Y9.26394
G01 X-54.35318 Y9.32350
G01 X-54.17980 Y9.40813
G01 X-54.12491 Y9.42482
G01 X-54.11368 Y9.41319
G01 X-54.12491 Y9.42482
G01 X-54.11848 Y9.44677
G01 X-54.09202 Y9.51540
G01 X-54.05575 Y9.57938
G01 X-53.99392 Y9.66424
G01 X-53.94769 Y9.71047
G01 X-53.89580 Y9.75027
G01 X-53.80622 Y9.80498
G01 X-53.74582 Y9.83003
G01 X-53.64376 Y9.85467
G01 X-53.54625 Y9.86429
G01 X-53.41572 Y9.84811
G01 X-53.41783 Y9.58957
G01 X-53.36847 Y9.56452
G01 X-53.30955 Y9.52259
G01 X-53.29197 Y9.50498
G01 X-53.29171 Y9.48167
G01 X-53.29194 Y9.50471
G01 X-53.28125 Y9.51677
G01 X-53.21158 Y9.56859
G01 X-53.11330 Y9.60620
G01 X-53.06103 Y9.61334
G01 X-52.44643 Y9.61438
G01 X-52.39761 Y9.60958
G01 X-52.32718 Y9.59338
G01 X-52.26865 Y9.56452
G01 X-52.20668 Y9.51987
G01 X-52.16868 Y9.47783
G01 X-52.14750 Y9.44776
G01 X-52.11580 Y9.37826
G01 X-52.10426 Y9.34334
G01 X-52.09797 Y9.30712
G01 X-52.09601 Y9.23828
G01 X-52.10426 Y9.18223
G01 X-52.13096 Y9.11068
G01 X-52.14750 Y9.07781
G01 X-52.18280 Y9.02708
G01 X-52.20322 Y8.98215
G01 X-52.18280 Y9.02708
G01 X-52.15776 Y9.06285
G01 X-52.08829 Y9.13191
G01 X-52.03995 Y9.16148
G01 X-52.00647 Y9.17672
G01 X-51.90284 Y9.19924
G01 X-51.73604 Y9.43033
G01 X-51.65557 Y9.40684
G01 X-51.56868 Y9.36153
G01 X-51.52705 Y9.33341
G01 X-51.52768 Y9.29846
G01 X-51.52705 Y9.33341
G01 X-51.47097 Y9.37009
G01 X-51.37513 Y9.41294
G01 X-51.28100 Y9.44016
G01 X-51.18334 Y9.44852
G01 X-51.14371 Y9.44801
G01 X-51.04633 Y9.43714
G01 X-50.95293 Y9.40747
G01 X-50.91651 Y9.39183
G01 X-50.84608 Y9.35418
G01 X-50.84618 Y8.98129
G01 X-50.83114 Y8.93201
G01 X-50.81971 Y8.84420
G01 X-50.82517 Y8.79551
G01 X-50.83965 Y8.73300
G01 X-50.88509 Y8.62414
G01 X-50.85019 Y8.64238
G01 X-50.79147 Y8.65970
G01 X-50.74150 Y8.66633
G01 X-50.67366 Y8.66254
G01 X-50.63076 Y8.65497
G01 X-50.55784 Y8.62515
G01 X-50.53348 Y8.61124
G01 X-50.49363 Y8.57372
G01 X-50.52223 Y8.60064
G01 X-50.58019 Y8.67938
G01 X-50.60300 Y8.73069
G01 X-50.61377 Y8.76587
G01 X-50.61928 Y8.80222
G01 X-50.62268 Y8.87446
G01 X-50.61877 Y8.90692
G01 X-50.59629 Y8.98126
G01 X-50.59619 Y9.35210
G01 X-50.54425 Y9.38522
G01 X-50.45291 Y9.42076
G01 X-50.41473 Y9.43145
G01 X-50.31824 Y9.44850
G01 X-50.22027 Y9.44639
G01 X-50.11664 Y9.42962
G01 X-50.05448 Y9.40930
G01 X-49.96096 Y9.36160
G01 X-49.94704 Y9.35190
G01 X-49.94628 Y9.32337
G01 X-49.94704 Y9.35190
G01 X-49.93315 Y9.36160
G01 X-49.83201 Y9.41227
G01 X-49.76157 Y9.43341
G01 X-49.66934 Y9.44829
G01 X-49.59579 Y9.44806
G01 X-49.52388 Y9.44039
G01 X-49.52378 Y9.18583
G01 X-49.44610 Y9.15165
G01 X-49.39802 Y9.11890
G01 X-49.35311 Y9.15144
G01 X-49.30224 Y9.17638
G01 X-49.22815 Y9.19490
G01 X-49.16310 Y9.20001
G01 X-49.05606 Y9.17959
G01 X-49.00455 Y9.15594
G01 X-48.97323 Y9.13668
G01 X-48.91669 Y9.08535
G01 X-48.88530 Y9.04817
G01 X-48.86173 Y9.00560
G01 X-48.81931 Y8.90758
G01 X-48.77686 Y9.00560
G01 X-48.75329 Y9.04817
G01 X-48.69353 Y9.11301
G01 X-48.64123 Y9.15208
G01 X-48.57491 Y9.18086
G01 X-48.52782 Y9.19447
G01 X-48.47900 Y9.19864
G01 X-48.40676 Y9.19556
G01 X-48.37476 Y9.18878
G01 X-48.30752 Y9.16221
G01 X-48.26940 Y9.14128
G01 X-48.26828 Y8.74352
G01 X-48.26414 Y8.69859
G01 X-48.24923 Y8.62371
G01 X-48.21786 Y8.53018
G01 X-48.33610 Y8.25485
G01 X-48.35782 Y8.21817
G01 X-48.39617 Y8.13722
G01 X-48.42027 Y8.05881
G01 X-48.49622 Y7.88198
G01 X-48.63333 Y7.61182
G01 X-48.65314 Y7.57933
G01 X-48.81761 Y7.40766
G01 X-48.84877 Y7.38073
G01 X-48.88393 Y7.35929
G01 X-49.01814 Y7.29198
G01 X-49.08484 Y7.26768
G01 X-49.11982 Y7.25945
G01 X-49.15558 Y7.25630
G01 X-49.25781 Y7.25630
G01 X-49.31387 Y7.26455
G01 X-49.38542 Y7.29125
G01 X-49.42865 Y7.31436
G01 X-49.46653 Y7.34545
G01 X-49.51613 Y7.39805
G01 X-49.54877 Y7.45460
G01 X-49.57816 Y7.53811
G01 X-49.58296 Y7.58688
G01 X-49.57846 Y7.67225
G01 X-49.29863 Y7.93590
G01 X-49.27747 Y7.95464
G01 X-49.26266 Y7.95612
G01 X-49.22797 Y7.99160
G01 X-49.20714 Y8.03280
G01 X-49.42286 Y8.53514
G01 X-49.40143 Y8.70168
G01 X-49.39855 Y8.75121
G01 X-49.39802 Y9.11890
G01 X-49.33569 Y9.16107
G01 X-49.27382 Y9.18467
G01 X-49.27394 Y9.44024
G01 X-49.21534 Y9.44872
G01 X-49.14997 Y9.44956
G01 X-49.04605 Y9.43463
G01 X-48.97493 Y9.41593
G01 X-48.88962 Y9.37786
G01 X-48.82698 Y9.33930
G01 X-48.81969 Y9.33318
G01 X-48.82045 Y9.29307
G01 X-48.81822 Y9.33447
G01 X-48.76338 Y9.37009
G01 X-48.66754 Y9.41294
G01 X-48.57341 Y9.44016
G01 X-48.47577 Y9.44852
G01 X-48.39485 Y9.44476
G01 X-48.39452 Y9.19297
G01 X-48.34395 Y9.17786
G01 X-48.26940 Y9.14128
G01 X-48.26937 Y8.76529
G01 X-48.26414 Y8.69859
G01 X-48.24923 Y8.62371
G01 X-48.21677 Y8.52734
G01 X-48.14133 Y8.50397
G01 X-48.33597 Y8.25508
G01 X-48.35782 Y8.21817
G01 X-48.39617 Y8.13722
G01 X-48.42492 Y8.04095
G01 X-48.42530 Y8.01159
G01 X-48.41710 Y7.93953
G01 X-48.40049 Y7.88838
G01 X-48.36714 Y7.82721
G01 X-48.31908 Y7.76851
G01 X-48.28258 Y7.55759
G01 X-48.25291 Y7.44870
G01 X-48.16770 Y7.42787
G01 X-48.07509 Y7.41921
G01 X-47.42485 Y7.41921
G01 X-47.32731 Y7.42884
G01 X-47.21753 Y7.45617
G01 X-47.13275 Y7.49536
G01 X-47.07059 Y7.53473
G01 X-47.01492 Y7.58276
G01 X-46.94377 Y7.65995
G01 X-46.90742 Y7.71434
G01 X-46.87852 Y7.77298
G01 X-46.86333 Y7.80961
G01 X-46.83488 Y7.90339
G01 X-46.82528 Y8.00090
G01 X-46.83069 Y8.11390
G01 X-46.85259 Y8.20471
G01 X-46.87905 Y8.27334
G01 X-46.93735 Y8.37029
G01 X-46.98830 Y8.43333
G01 X-47.04801 Y8.43222
G01 X-46.98830 Y8.43333
G01 X-46.94090 Y8.49396
G01 X-46.89089 Y8.57181
G01 X-46.84522 Y8.69361
G01 X-46.82675 Y8.78477
G01 X-46.82851 Y8.91535
G01 X-46.84451 Y9.00699
G01 X-46.87722 Y9.09406
G01 X-46.94199 Y9.20745
G01 X-47.00417 Y9.27666
G01 X-47.10577 Y9.35866
G01 X-47.18888 Y9.40046
G01 X-47.29061 Y9.43501
G01 X-47.35949 Y9.44634
G01 X-47.42485 Y9.45027
G01 X-48.07509 Y9.45027
G01 X-48.14494 Y9.44339
G01 X-48.14458 Y9.19165
G01 X-48.19818 Y9.17801
G01 X-48.26940 Y9.14128
G01 X-48.19818 Y9.17801
G01 X-48.12386 Y9.19556
G01 X-48.07509 Y9.20036
G01 X-47.40158 Y9.19927
G01 X-47.34829 Y9.19185
G01 X-47.31497 Y9.18144
G01 X-47.23834 Y9.14682
G01 X-47.17369 Y9.09305
G01 X-47.14260 Y9.05843
G01 X-47.10199 Y8.98479
G01 X-47.08561 Y8.94126
G01 X-47.07760 Y8.89541
G01 X-47.07524 Y8.81136
G01 X-47.09533 Y8.72970
G01 X-47.11273 Y8.68685
G01 X-47.13775 Y8.64791
G01 X-47.35858 Y8.36552
G01 X-47.27908 Y8.34060
G01 X-47.21410 Y8.30044
G01 X-47.16503 Y8.25741
G01 X-47.12310 Y8.19848
G01 X-47.10496 Y8.16648
G01 X-47.09173 Y8.13217
G01 X-47.07788 Y8.07723
G01 X-47.07519 Y8.00090
G01 X-47.07999 Y7.95213
G01 X-47.09422 Y7.90524
G01 X-47.12386 Y7.83928
G01 X-47.14202 Y7.81207
G01 X-47.19163 Y7.75947
G01 X-47.21946 Y7.73544
G01 X-47.25053 Y7.71576
G01 X-47.30173 Y7.69148
G01 X-47.33719 Y7.68167
G01 X-47.42485 Y7.66912
G01 X-48.07509 Y7.66912
G01 X-48.12139 Y7.67344
G01 X-48.20313 Y7.69328
G01 X-48.24468 Y7.71416
G01 X-48.31357 Y7.76239
G01 X-48.34468 Y7.79699
G01 X-48.38596 Y7.85663
G01 X-48.41710 Y7.93953
G01 X-48.42530 Y8.01159
G01 X-48.42492 Y8.04095
G01 X-48.42027 Y8.05881
G01 X-48.49622 Y7.88198
G01 X-48.56754 Y7.74088
G01 X-48.56371 Y7.70270
G01 X-48.52731 Y7.50669
G01 X-48.49371 Y7.38182
G01 X-48.63925 Y7.23260
G01 X-48.70158 Y7.17878
G01 X-48.77189 Y7.13593
G01 X-48.90610 Y7.06859
G01 X-49.01019 Y7.02920
G01 X-49.08009 Y7.01271
G01 X-49.15164 Y7.00644
G01 X-49.22540 Y7.00527
G01 X-49.30214 Y7.00956
G01 X-49.37460 Y7.02213
G01 X-49.44443 Y7.04520
G01 X-49.48105 Y7.06039
G01 X-49.56749 Y7.10656
G01 X-49.64323 Y7.16874
G01 X-49.71438 Y7.24593
G01 X-49.75073 Y7.30032
G01 X-49.76353 Y7.32630
G01 X-49.56950 Y7.50877
G01 X-49.57816 Y7.53811
