( pcb2gcode 2.5.0 )
( Software-independent Gcode )

G94 ( Millimeters per minute feed rate. )
G21 ( Units == Millimeters. )

G90 ( Absolute coordinates. )
G00 S1000 ( RPM spindle speed. )
G01 F50.00000 ( Feedrate. )


G00 Z40.00000 (Retract to tool change height)
T0
M5      (Spindle stop.)
G04 P1.00000 (Wait for spindle to stop)
(MSG, Change tool bit to mill diameter 0.50000mm)
M0      (Temporary machine stop.)
M3 ( Spindle on clockwise. )
G04 P1.00000 (Wait for spindle to get up to speed)
G04 P0 ( dwell for no time -- G64 should not smooth over this point )
G00 Z5.00000 ( retract )

G00 X-1.84140 Y2.53743 ( rapid move to begin. )
G01 F50.00000
( Mill infeed pass 1/1 )
G01 Z-0.10000
G04 P0 ( dwell for no time -- G64 should not smooth over this point )
G01 F50.00000
G01 X-1.84140 Y2.53743
G01 X-1.87800 Y2.57404
G01 X-1.87800 Y10.67003
G01 X-1.84140 Y10.70663
G01 X-1.87800 Y10.67003
G01 X-22.22675 Y10.67003
G01 X-22.23061 Y10.67946
G01 X-22.22675 Y10.67003
G01 X-22.66795 Y10.23625
G01 X-23.62241 Y9.28179
G01 X-24.09220 Y8.81908
G01 X-24.56111 Y8.34037
G01 X-25.25560 Y7.61680
G01 X-25.26624 Y7.62076
G01 X-25.25560 Y7.61680
G01 X-25.17945 Y6.19300
G01 X-24.90635 Y2.57404
G01 X-24.93726 Y2.54069
G01 X-24.90635 Y2.57404
G01 X-1.87800 Y2.57404
G04 P0 ( dwell for no time -- G64 should not smooth over this point )
G00 Z5.00000 ( retract )

G00 X-11.40866 Y20.70453 ( rapid move to begin. )
G01 F50.00000
( Mill infeed pass 1/1 )
G01 Z-0.10000
G04 P0 ( dwell for no time -- G64 should not smooth over this point )
G01 F50.00000
G01 X-11.40866 Y20.70453
G01 X-11.35581 Y20.77933
G01 X-11.35581 Y38.03599
G01 X-11.39241 Y38.07259
G01 X-11.35581 Y38.03599
G01 X-9.06572 Y38.03599
G01 X-9.02912 Y38.07259
G01 X-9.06572 Y38.03599
G01 X-9.06572 Y21.34428
G01 X-9.03521 Y21.31786
G01 X-9.06572 Y21.34428
G01 X-9.42663 Y21.29808
G01 X-9.83755 Y21.23277
G01 X-10.23755 Y21.14499
G01 X-10.65111 Y21.02907
G01 X-11.05431 Y20.89142
G01 X-11.35581 Y20.77933
G01 X-13.96352 Y19.10248
G01 X-13.89581 Y19.23390
G01 X-13.89581 Y38.03599
G01 X-13.93241 Y38.07259
G01 X-13.89581 Y38.03599
G01 X-11.60572 Y38.03599
G01 X-11.56912 Y38.07259
G01 X-11.60572 Y38.03599
G01 X-11.60572 Y20.67578
G01 X-11.58784 Y20.66503
G01 X-11.60572 Y20.67578
G01 X-12.01059 Y20.46727
G01 X-12.41555 Y20.24629
G01 X-12.81554 Y20.00377
G01 X-13.62225 Y19.44129
G01 X-13.89581 Y19.23390
G01 X-16.51208 Y16.64907
G01 X-16.43581 Y16.82938
G01 X-16.43581 Y38.03599
G01 X-16.47241 Y38.07259
G01 X-16.43581 Y38.03599
G01 X-14.14572 Y38.03599
G01 X-14.10912 Y38.07259
G01 X-14.14572 Y38.03599
G01 X-14.14572 Y19.03783
G01 X-14.13533 Y19.03334
G01 X-14.14572 Y19.03783
G01 X-14.57444 Y18.65125
G01 X-15.22202 Y18.03552
G01 X-16.17845 Y17.07916
G01 X-16.43581 Y16.82938
G01 X-17.07876 Y15.92395
G01 X-16.90045 Y15.99992
G01 X-1.87800 Y15.99992
G01 X-1.84140 Y15.96332
G01 X-1.87800 Y15.99992
G01 X-1.87800 Y21.25256
G01 X-1.84003 Y21.29170
G01 X-1.87800 Y21.25256
G01 X-6.66615 Y21.10613
G01 X-6.87078 Y21.10301
G01 X-8.47171 Y21.10301
G01 X-8.93376 Y21.10956
G01 X-9.39305 Y21.05043
G01 X-9.78759 Y20.98797
G01 X-10.18050 Y20.90171
G01 X-10.57372 Y20.79150
G01 X-10.96881 Y20.65660
G01 X-11.43033 Y20.48535
G01 X-11.89225 Y20.24718
G01 X-12.28844 Y20.03115
G01 X-12.68260 Y19.79221
G01 X-13.47724 Y19.23778
G01 X-13.94109 Y18.88602
G01 X-14.40586 Y18.46677
G01 X-15.04869 Y17.85551
G01 X-16.00373 Y16.90047
G01 X-16.47203 Y16.44599
G01 X-16.90045 Y15.99992
G01 X-19.05229 Y14.10581
G01 X-18.97581 Y14.28755
G01 X-18.97581 Y38.03599
G01 X-19.01241 Y38.07259
G01 X-18.97581 Y38.03599
G01 X-16.68572 Y38.03599
G01 X-16.64912 Y38.07259
G01 X-16.68572 Y38.03599
G01 X-16.68572 Y16.58402
G01 X-16.67667 Y16.58038
G01 X-16.68572 Y16.58402
G01 X-17.28191 Y15.96293
G01 X-17.76428 Y15.49334
G01 X-18.71861 Y14.53901
G01 X-18.97581 Y14.28755
G01 X-19.62147 Y13.38367
G01 X-19.44134 Y13.45992
G01 X-1.87800 Y13.45992
G01 X-1.84140 Y13.42332
G01 X-1.87800 Y13.45992
G01 X-1.87800 Y15.75003
G01 X-1.84140 Y15.78663
G01 X-1.87800 Y15.75003
G01 X-17.14236 Y15.75003
G01 X-17.14622 Y15.75940
G01 X-17.14236 Y15.75003
G01 X-17.58815 Y15.31605
G01 X-18.54241 Y14.36179
G01 X-19.01210 Y13.90259
G01 X-19.44134 Y13.45992
G01 X-21.59241 Y11.56383
G01 X-21.51581 Y11.74643
G01 X-21.51581 Y38.03599
G01 X-21.55241 Y38.07259
G01 X-21.51581 Y38.03599
G01 X-19.22572 Y38.03599
G01 X-19.18912 Y38.07259
G01 X-19.22572 Y38.03599
G01 X-19.22572 Y14.04109
G01 X-19.21657 Y14.03739
G01 X-19.22572 Y14.04109
G01 X-19.82473 Y13.42304
G01 X-20.30428 Y12.95334
G01 X-21.25871 Y11.99891
G01 X-21.51581 Y11.74643
G01 X-22.16869 Y10.84270
G01 X-21.98190 Y10.91992
G01 X-1.87800 Y10.91992
G01 X-1.84140 Y10.88332
G01 X-1.87800 Y10.91992
G01 X-1.87800 Y13.21003
G01 X-1.84140 Y13.24663
G01 X-1.87800 Y13.21003
G01 X-19.68505 Y13.21003
G01 X-19.68896 Y13.21951
G01 X-19.68505 Y13.21003
G01 X-20.12803 Y12.77617
G01 X-21.08241 Y11.82179
G01 X-21.55215 Y11.36048
G01 X-21.98190 Y10.91992
G01 X-24.13251 Y9.02249
G01 X-24.05581 Y9.20567
G01 X-22.84428 Y10.41334
G01 X-22.36648 Y10.88309
G01 X-21.76572 Y11.49929
G01 X-21.75624 Y11.49538
G01 X-21.76572 Y11.49929
G01 X-21.76572 Y38.03599
G01 X-21.72912 Y38.07259
G01 X-21.76572 Y38.03599
G01 X-24.05581 Y38.03599
G01 X-24.09241 Y38.07259
G01 X-24.05581 Y38.03599
G01 X-24.05581 Y9.20567
G01 X-24.13251 Y9.02249
G01 X-25.38509 Y7.84276
G01 X-24.74092 Y8.51393
G01 X-24.30572 Y8.95810
G01 X-24.29660 Y8.95439
G01 X-24.30572 Y8.95810
G01 X-24.30572 Y38.03599
G01 X-24.26912 Y38.07259
G01 X-24.30572 Y38.03599
G01 X-26.59581 Y38.03599
G01 X-26.63238 Y38.07259
G01 X-26.59581 Y38.03599
G01 X-26.59581 Y9.05982
G01 X-26.60510 Y9.05604
G01 X-26.59581 Y9.05982
G01 X-25.89230 Y8.34319
G01 X-25.38509 Y7.84276
G01 X-25.38448 Y7.79015
G01 X-26.27813 Y8.37992
G01 X-26.09146 Y8.30273
G01 X-26.27813 Y8.37992
G01 X-26.80924 Y8.92061
G01 X-27.27912 Y9.38337
G01 X-28.13200 Y10.23625
G01 X-28.57320 Y10.67003
G01 X-28.56929 Y10.67951
G01 X-28.57320 Y10.67003
G01 X-52.16929 Y10.67003
G01 X-52.17279 Y10.67887
G01 X-52.16929 Y10.67003
G01 X-52.61663 Y10.24773
G01 X-53.09799 Y9.75286
G01 X-54.21376 Y8.63709
G01 X-54.46525 Y8.37992
G01 X-54.64940 Y8.30308
G01 X-54.46525 Y8.37992
G01 X-26.27813 Y8.37992
G01 X-26.76881 Y9.12256
G01 X-26.84572 Y9.30727
G01 X-26.84572 Y38.03599
G01 X-26.80912 Y38.07259
G01 X-26.84572 Y38.03599
G01 X-29.13581 Y38.03599
G01 X-29.17241 Y38.07259
G01 X-29.13581 Y38.03599
G01 X-29.13581 Y11.60107
G01 X-29.14505 Y11.59731
G01 X-29.13581 Y11.60107
G01 X-28.43355 Y10.88316
G01 X-27.95567 Y10.41334
G01 X-26.84572 Y9.30727
G01 X-26.76881 Y9.12256
G01 X-28.81859 Y10.91992
G01 X-28.63182 Y10.84270
G01 X-28.81859 Y10.91992
G01 X-29.34927 Y11.46203
G01 X-29.81830 Y11.92256
G01 X-30.67192 Y12.77617
G01 X-31.11490 Y13.21003
G01 X-31.11099 Y13.21951
G01 X-31.11490 Y13.21003
G01 X-49.62395 Y13.21003
G01 X-49.62728 Y13.21857
G01 X-49.62395 Y13.21003
G01 X-50.07671 Y12.79334
G01 X-50.55923 Y12.29162
G01 X-51.67358 Y11.17727
G01 X-51.92347 Y10.91992
G01 X-52.10683 Y10.84321
G01 X-51.92347 Y10.91992
G01 X-28.81859 Y10.91992
G01 X-29.30883 Y11.66365
G01 X-29.38572 Y11.84803
G01 X-29.38572 Y38.03599
G01 X-29.34912 Y38.07259
G01 X-29.38572 Y38.03599
G01 X-31.67581 Y38.03599
G01 X-31.71241 Y38.07259
G01 X-31.67581 Y38.03599
G01 X-31.67581 Y14.14292
G01 X-31.68500 Y14.13919
G01 X-31.67581 Y14.14292
G01 X-30.97535 Y13.42314
G01 X-30.49567 Y12.95334
G01 X-29.38572 Y11.84803
G01 X-29.30883 Y11.66365
G01 X-31.92572 Y14.38918
G01 X-32.18292 Y14.64059
G01 X-33.03567 Y15.49334
G01 X-33.51820 Y15.96306
G01 X-34.21581 Y16.68600
G01 X-34.22490 Y16.68231
G01 X-34.21581 Y16.68600
G01 X-34.21581 Y38.03599
G01 X-34.25241 Y38.07259
G01 X-34.21581 Y38.03599
G01 X-31.92572 Y38.03599
G01 X-31.88912 Y38.07259
G01 X-31.92572 Y38.03599
G01 X-31.92572 Y14.38918
G01 X-31.84891 Y14.20531
G01 X-33.90034 Y15.99992
G01 X-33.72094 Y15.92379
G01 X-33.90034 Y15.99992
G01 X-34.42937 Y16.54762
G01 X-34.89912 Y17.00337
G01 X-35.75154 Y17.85579
G01 X-36.20254 Y18.29003
G01 X-36.19873 Y18.29933
G01 X-36.20254 Y18.29003
G01 X-46.02173 Y18.29003
G01 X-46.04167 Y18.31594
G01 X-46.02173 Y18.29003
G01 X-46.11284 Y17.91020
G01 X-46.22874 Y17.51020
G01 X-46.39274 Y17.08991
G01 X-46.59371 Y16.68135
G01 X-46.83270 Y16.27749
G01 X-47.01080 Y15.99992
G01 X-47.12480 Y15.93606
G01 X-47.01080 Y15.99992
G01 X-33.90034 Y15.99992
G01 X-34.38903 Y16.74807
G01 X-34.46572 Y16.93106
G01 X-34.46572 Y38.03599
G01 X-34.42912 Y38.07259
G01 X-34.46572 Y38.03599
G01 X-36.75581 Y38.03599
G01 X-36.79241 Y38.07259
G01 X-36.75581 Y38.03599
G01 X-36.75581 Y19.23197
G01 X-36.76472 Y19.22841
G01 X-36.75581 Y19.23197
G01 X-36.06340 Y18.50293
G01 X-35.57567 Y18.03334
G01 X-34.72307 Y17.18074
G01 X-34.46572 Y16.93106
G01 X-34.38903 Y16.74807
G01 X-36.44232 Y18.53992
G01 X-36.26592 Y18.46425
G01 X-36.44232 Y18.53992
G01 X-36.96950 Y19.09437
G01 X-37.43912 Y19.54337
G01 X-38.29134 Y20.39559
G01 X-38.66131 Y20.74842
G01 X-39.03099 Y21.06666
G01 X-39.49174 Y21.44265
G01 X-39.95148 Y21.70915
G01 X-40.34495 Y21.91822
G01 X-40.73535 Y22.08687
G01 X-41.12473 Y22.21641
G01 X-41.51625 Y22.30773
G01 X-41.96898 Y22.39162
G01 X-42.22374 Y22.37816
G01 X-42.43075 Y22.37301
G01 X-44.03077 Y22.37301
G01 X-44.48945 Y22.38375
G01 X-44.94111 Y22.28878
G01 X-45.50588 Y22.13059
G01 X-45.99841 Y21.92167
G01 X-46.01924 Y21.93547
G01 X-45.99841 Y21.92167
G01 X-45.99384 Y20.47278
G01 X-45.99495 Y18.53992
G01 X-46.03145 Y18.50337
G01 X-45.99495 Y18.53992
G01 X-36.44232 Y18.53992
G01 X-36.92914 Y19.29239
G01 X-37.00572 Y19.47471
G01 X-37.00572 Y38.03599
G01 X-36.96912 Y38.07259
G01 X-37.00572 Y38.03599
G01 X-39.29581 Y38.03599
G01 X-39.33241 Y38.07259
G01 X-39.29581 Y38.03599
G01 X-39.29581 Y21.60468
G01 X-39.30757 Y21.59919
G01 X-39.29581 Y21.60468
G01 X-38.86924 Y21.25716
G01 X-38.49116 Y20.93145
G01 X-38.11781 Y20.57542
G01 X-37.26340 Y19.72107
G01 X-37.00572 Y19.47471
G01 X-36.92914 Y19.29239
G01 X-39.54572 Y21.76242
G01 X-39.54572 Y38.03599
G01 X-39.50912 Y38.07259
G01 X-39.54572 Y38.03599
G01 X-41.83581 Y38.03599
G01 X-41.87241 Y38.07259
G01 X-41.83581 Y38.03599
G01 X-41.83581 Y22.62050
G01 X-41.86377 Y22.59777
G01 X-41.83581 Y22.62050
G01 X-41.46238 Y22.55177
G01 X-41.05133 Y22.45535
G01 X-40.64122 Y22.31842
G01 X-40.23213 Y22.14126
G01 X-39.82799 Y21.92642
G01 X-39.54572 Y21.76242
G01 X-39.48427 Y21.65833
G04 P0 ( dwell for no time -- G64 should not smooth over this point )
G00 Z5.00000 ( retract )

G00 X-44.41241 Y38.07259 ( rapid move to begin. )
G01 F50.00000
( Mill infeed pass 1/1 )
G01 Z-0.10000
G04 P0 ( dwell for no time -- G64 should not smooth over this point )
G01 F50.00000
G01 X-44.41241 Y38.07259
G01 X-44.37581 Y38.03599
G01 X-44.37581 Y22.63023
G01 X-44.41147 Y22.59531
G01 X-44.37581 Y22.63023
G01 X-44.02999 Y22.62289
G01 X-42.43233 Y22.62292
G01 X-42.08572 Y22.63526
G01 X-42.04940 Y22.59919
G01 X-42.08572 Y22.63526
G01 X-42.08572 Y38.03599
G01 X-42.04912 Y38.07259
G01 X-42.08572 Y38.03599
G01 X-44.37581 Y38.03599
G01 X-46.95241 Y38.07259
G01 X-46.91581 Y38.03599
G01 X-46.91581 Y22.46424
G01 X-46.93704 Y22.44999
G01 X-46.91581 Y22.46424
G01 X-46.52632 Y22.31603
G01 X-46.12289 Y22.14034
G01 X-46.12284 Y22.13000
G01 X-46.12289 Y22.14034
G01 X-45.58093 Y22.36881
G01 X-44.99630 Y22.53247
G01 X-44.62572 Y22.60986
G01 X-44.59775 Y22.58718
G01 X-44.62572 Y22.60986
G01 X-44.62572 Y38.03599
G01 X-44.58912 Y38.07259
G01 X-44.62572 Y38.03599
G01 X-49.45581 Y38.03599
G01 X-49.45581 Y22.63691
G01 X-49.48987 Y22.60476
G01 X-49.45581 Y22.63691
G01 X-49.10714 Y22.61657
G01 X-48.10760 Y22.61662
G01 X-47.80455 Y22.60549
G01 X-47.49249 Y22.57118
G01 X-47.16572 Y22.52287
G01 X-47.12325 Y22.47458
G01 X-47.16572 Y22.52287
G01 X-47.16572 Y38.03599
G01 X-47.12912 Y38.07259
G01 X-47.16572 Y38.03599
G01 X-49.45581 Y38.03599
G01 X-49.49241 Y38.07259
G01 X-49.45581 Y38.03599
G01 X-51.99581 Y38.03599
G01 X-52.03241 Y38.07259
G01 X-51.99581 Y38.03599
G01 X-51.99581 Y22.63691
G01 X-52.02987 Y22.60476
G01 X-51.99581 Y22.63691
G01 X-51.64712 Y22.61657
G01 X-50.64760 Y22.61662
G01 X-50.16782 Y22.58781
G01 X-49.70572 Y22.63181
G01 X-49.67318 Y22.60219
G01 X-49.70572 Y22.63181
G01 X-49.70572 Y38.03599
G01 X-49.66912 Y38.07259
G01 X-52.24572 Y38.03599
G01 X-53.23837 Y38.03599
G01 X-53.24236 Y38.04559
G01 X-53.23837 Y38.03599
G01 X-54.10192 Y37.17153
G01 X-54.53581 Y36.72779
G01 X-54.54523 Y36.73165
G01 X-54.53581 Y36.72779
G01 X-54.53581 Y22.63691
G01 X-54.56987 Y22.60476
G01 X-54.53581 Y22.63691
G01 X-54.18714 Y22.61657
G01 X-53.18755 Y22.61662
G01 X-52.70782 Y22.58781
G01 X-52.24572 Y22.63181
G01 X-52.21318 Y22.60219
G01 X-52.24572 Y22.63181
G01 X-52.24572 Y38.03599
G01 X-52.20912 Y38.07259
G01 X-53.46916 Y38.15824
G01 X-54.28010 Y37.34674
G01 X-54.74901 Y36.86721
G01 X-55.57980 Y36.05832
G01 X-55.57604 Y36.04913
G01 X-55.57980 Y36.05832
G01 X-71.62785 Y36.05832
G01 X-71.66445 Y36.02172
G01 X-71.62785 Y36.05832
G01 X-71.62785 Y39.46708
G01 X-71.66445 Y39.50368
G01 X-71.62785 Y39.46708
G01 X-54.88158 Y39.46345
G01 X-54.87845 Y39.47165
G01 X-54.88158 Y39.46345
G01 X-54.74279 Y39.34808
G01 X-54.27581 Y38.92299
G01 X-53.46916 Y38.15824
G01 X-54.70550 Y39.51079
G01 X-54.78572 Y39.71991
G01 X-54.78572 Y52.32405
G01 X-54.74912 Y52.36065
G01 X-54.78572 Y52.32405
G01 X-57.07581 Y52.32405
G01 X-57.11241 Y52.36065
G01 X-57.07581 Y52.32405
G01 X-57.07581 Y42.13804
G01 X-57.08505 Y42.13428
G01 X-57.07581 Y42.13804
G01 X-56.64175 Y41.69095
G01 X-56.22602 Y41.27520
G01 X-55.63349 Y40.66256
G01 X-55.03697 Y40.00533
G01 X-54.78572 Y39.71991
G01 X-54.70550 Y39.51079
G01 X-55.11295 Y39.71341
G01 X-54.94584 Y39.63914
G01 X-55.11295 Y39.71341
G01 X-55.81449 Y40.49024
G01 X-56.40494 Y41.10073
G01 X-56.81911 Y41.51490
G01 X-57.28912 Y41.99898
G01 X-57.75777 Y42.45356
G01 X-57.97822 Y42.67401
G01 X-58.44339 Y43.12285
G01 X-58.43966 Y43.13204
G01 X-58.44339 Y43.12285
G01 X-71.62785 Y43.12285
G01 X-71.66445 Y43.15945
G01 X-71.62785 Y43.12285
G01 X-71.62785 Y39.71696
G01 X-71.66445 Y39.68039
G01 X-71.62785 Y39.71696
G01 X-55.11295 Y39.71341
G01 X-57.24934 Y42.20162
G01 X-57.32572 Y42.38264
G01 X-57.32572 Y52.32405
G01 X-57.28912 Y52.36065
G01 X-57.32572 Y52.32405
G01 X-59.61581 Y52.32405
G01 X-59.65241 Y52.36065
G01 X-59.61581 Y52.32405
G01 X-59.61581 Y44.68431
G01 X-59.62500 Y44.68058
G01 X-59.61581 Y44.68431
G01 X-59.18144 Y44.23065
G01 X-58.76996 Y43.81914
G01 X-58.30456 Y43.33613
G01 X-57.80390 Y42.85308
G01 X-57.58310 Y42.63227
G01 X-57.32572 Y42.38264
G01 X-57.24934 Y42.20162
G01 X-58.68685 Y43.37274
G01 X-58.50590 Y43.29638
G01 X-58.68685 Y43.37274
G01 X-58.94911 Y43.64490
G01 X-59.36102 Y44.05683
G01 X-59.82909 Y44.54573
G01 X-60.29709 Y44.99292
G01 X-60.52182 Y45.21761
G01 X-60.99764 Y45.66691
G01 X-60.99401 Y45.67593
G01 X-60.99764 Y45.66691
G01 X-71.62785 Y45.66691
G01 X-71.66445 Y45.70352
G01 X-71.62785 Y45.66691
G01 X-71.62785 Y43.37274
G01 X-71.66445 Y43.33613
G01 X-71.62785 Y43.37274
G01 X-58.68685 Y43.37274
G01 X-61.05568 Y45.84037
G01 X-61.23711 Y45.91680
G01 X-61.49368 Y46.18947
G01 X-61.90320 Y46.59920
G01 X-62.43437 Y47.18319
G01 X-62.67107 Y47.48878
G01 X-62.87061 Y47.78078
G01 X-64.18603 Y49.84206
G01 X-64.38237 Y50.12939
G01 X-64.60305 Y50.41456
G01 X-65.12888 Y50.99266
G01 X-65.86103 Y51.72489
G01 X-66.28244 Y52.16873
G01 X-66.41658 Y52.32405
G01 X-66.41201 Y52.33449
G01 X-66.41658 Y52.32405
G01 X-71.62785 Y52.32405
G01 X-71.66445 Y52.36065
G01 X-71.62785 Y52.32405
G01 X-71.62785 Y45.91680
G01 X-71.66445 Y45.88020
G01 X-71.62785 Y45.91680
G01 X-61.23711 Y45.91680
G04 P0 ( dwell for no time -- G64 should not smooth over this point )
G00 Z5.00000 ( retract )

G00 X-71.62785 Y18.56887 ( rapid move to begin. )
G01 F50.00000
( Mill infeed pass 1/1 )
G01 Z-0.10000
G04 P0 ( dwell for no time -- G64 should not smooth over this point )
G01 F50.00000
G01 X-71.62785 Y18.56887
G01 X-60.02642 Y18.56887
G01 X-59.98992 Y18.53232
G01 X-60.02642 Y18.56887
G01 X-60.02536 Y19.32940
G01 X-60.01560 Y19.33349
G01 X-60.02536 Y19.32940
G01 X-60.29775 Y19.59356
G01 X-61.11811 Y20.41390
G01 X-61.50450 Y20.78149
G01 X-61.89053 Y21.11118
G01 X-65.11681 Y23.70960
G01 X-65.50955 Y24.04494
G01 X-65.90670 Y24.42258
G01 X-66.70022 Y25.21610
G01 X-67.31287 Y25.79207
G01 X-67.30939 Y25.80089
G01 X-67.31287 Y25.79207
G01 X-71.62785 Y25.79180
G01 X-71.66445 Y25.82840
G01 X-71.62785 Y25.79180
G01 X-71.62785 Y18.56887
G01 X-71.66445 Y18.53227
G04 P0 ( dwell for no time -- G64 should not smooth over this point )
G00 Z5.00000 ( retract )

G00 X-71.66445 Y2.53743 ( rapid move to begin. )
G01 F50.00000
( Mill infeed pass 1/1 )
G01 Z-0.10000
G04 P0 ( dwell for no time -- G64 should not smooth over this point )
G01 F50.00000
G01 X-71.66445 Y2.53743
G01 X-71.62785 Y2.57404
G01 X-71.62785 Y18.31896
G01 X-71.66445 Y18.35556
G01 X-71.62785 Y18.31896
G01 X-60.01588 Y18.31896
G01 X-59.98779 Y18.35056
G01 X-60.01588 Y18.31896
G01 X-59.98149 Y17.94322
G01 X-59.87943 Y17.15582
G01 X-59.71449 Y16.35481
G01 X-57.22188 Y6.16260
G01 X-57.21403 Y6.16176
G01 X-57.22188 Y6.16260
G01 X-58.97245 Y2.57404
G01 X-58.96059 Y2.55504
G01 X-58.97245 Y2.57404
G01 X-71.62785 Y2.57404
G04 P0 ( dwell for no time -- G64 should not smooth over this point )
G00 Z5.00000 ( retract )

G00 X-58.78843 Y2.51529 ( rapid move to begin. )
G01 F50.00000
( Mill infeed pass 1/1 )
G01 Z-0.10000
G04 P0 ( dwell for no time -- G64 should not smooth over this point )
G01 F50.00000
G01 X-58.78843 Y2.51529
G01 X-58.69442 Y2.57404
G01 X-56.98917 Y6.06966
G01 X-56.99125 Y6.07126
G01 X-56.96443 Y6.09039
G01 X-56.03489 Y6.89318
G01 X-55.16705 Y7.69470
G01 X-54.71206 Y8.13003
G01 X-54.71551 Y8.13874
G01 X-54.71206 Y8.13003
G01 X-26.03203 Y8.13003
G01 X-26.02819 Y8.13940
G01 X-26.03203 Y8.13003
G01 X-25.50549 Y7.60974
G01 X-25.49726 Y7.61342
G01 X-25.50549 Y7.60974
G01 X-25.42873 Y6.17555
G01 X-25.15697 Y2.57404
G01 X-25.11384 Y2.53406
G01 X-25.15697 Y2.57404
G01 X-58.69442 Y2.57404
G01 X-57.05152 Y6.26646
G01 X-57.01668 Y6.37545
G01 X-56.20291 Y7.07819
G01 X-55.33901 Y7.87603
G01 X-54.85008 Y8.34382
G01 X-54.39194 Y8.81233
G01 X-53.27653 Y9.92774
G01 X-52.82992 Y10.38662
G01 X-52.82054 Y10.38278
G01 X-52.82992 Y10.38662
G01 X-52.82992 Y22.34512
G01 X-52.79593 Y22.37715
G01 X-52.82992 Y22.34512
G01 X-53.19128 Y22.36671
G01 X-54.19077 Y22.36671
G01 X-54.65793 Y22.39414
G01 X-55.11637 Y22.35070
G01 X-55.50748 Y22.29589
G01 X-55.89610 Y22.20260
G01 X-56.28564 Y22.07067
G01 X-56.67830 Y21.89853
G01 X-57.13669 Y21.67575
G01 X-57.59552 Y21.34469
G01 X-58.15449 Y20.90308
G01 X-58.71418 Y20.38243
G01 X-59.18457 Y19.91210
G01 X-59.65172 Y19.46704
G01 X-59.77547 Y19.33334
G01 X-59.78507 Y19.33738
G01 X-59.77547 Y19.33334
G01 X-59.77699 Y18.44942
G01 X-59.73338 Y17.97299
G01 X-59.63229 Y17.19255
G01 X-59.47123 Y16.41196
G01 X-57.01668 Y6.37545
G04 P0 ( dwell for no time -- G64 should not smooth over this point )
G00 Z5.00000 ( retract )

G00 X-52.58003 Y10.62594 ( rapid move to begin. )
G01 F50.00000
( Mill infeed pass 1/1 )
G01 Z-0.10000
G04 P0 ( dwell for no time -- G64 should not smooth over this point )
G01 F50.00000
G01 X-52.58003 Y10.62594
G01 X-52.58003 Y22.35035
G01 X-52.61259 Y22.38002
G01 X-52.58003 Y22.35035
G01 X-52.11790 Y22.39404
G01 X-51.65075 Y22.36671
G01 X-50.65131 Y22.36671
G01 X-50.28994 Y22.34512
G01 X-50.25593 Y22.37715
G01 X-50.28994 Y22.34512
G01 X-50.28994 Y12.93157
G01 X-50.28087 Y12.92794
G01 X-50.28994 Y12.93157
G01 X-50.73678 Y12.46749
G01 X-51.85095 Y11.35332
G01 X-52.30670 Y10.88398
G01 X-52.58003 Y10.62594
G01 X-52.65550 Y10.45091
G01 X-50.04003 Y13.16670
G01 X-49.76020 Y13.42426
G01 X-49.31095 Y13.89332
G01 X-48.19734 Y15.00693
G01 X-47.74466 Y15.48900
G01 X-47.33928 Y15.95016
G01 X-47.04423 Y16.41053
G01 X-46.81129 Y16.80439
G01 X-46.61939 Y17.19532
G01 X-46.46722 Y17.58516
G01 X-46.35368 Y17.97695
G01 X-46.24433 Y18.42981
G01 X-46.24372 Y20.47220
G01 X-46.24829 Y21.92238
G01 X-46.22792 Y21.93574
G01 X-46.24829 Y21.92238
G01 X-46.61797 Y22.08352
G01 X-47.07230 Y22.25721
G01 X-47.52678 Y22.32363
G01 X-47.81837 Y22.35594
G01 X-48.10989 Y22.36671
G01 X-49.11077 Y22.36671
G01 X-49.57793 Y22.39404
G01 X-50.04003 Y22.35035
G01 X-50.07259 Y22.37999
G01 X-50.04003 Y22.35035
G01 X-50.04003 Y13.16670
G01 X-50.11478 Y12.99629
G01 X-49.38004 Y13.45992
G01 X-49.13328 Y13.71757
G01 X-48.01649 Y14.83444
G01 X-47.55825 Y15.32255
G01 X-47.18289 Y15.75003
G01 X-47.18792 Y15.76113
G01 X-47.18289 Y15.75003
G01 X-33.65759 Y15.75003
G01 X-33.65376 Y15.75938
G01 X-33.65759 Y15.75003
G01 X-33.21180 Y15.31605
G01 X-32.35912 Y14.46337
G01 X-31.88932 Y14.00414
G01 X-31.35927 Y13.45992
G01 X-31.17827 Y13.38354
G01 X-31.35927 Y13.45992
G01 X-49.38004 Y13.45992
G01 X-49.56465 Y13.38303
G04 P0 ( dwell for no time -- G64 should not smooth over this point )
G00 Z5.00000 ( retract )

G00 X-59.69246 Y19.66359 ( rapid move to begin. )
G01 F50.00000
( Mill infeed pass 1/1 )
G01 Z-0.10000
G04 P0 ( dwell for no time -- G64 should not smooth over this point )
G01 F50.00000
G01 X-59.69246 Y19.66359
G01 X-59.61581 Y19.84642
G01 X-59.35805 Y20.09198
G01 X-58.88604 Y20.56389
G01 X-58.32094 Y21.08944
G01 X-57.74378 Y21.54583
G01 X-57.32572 Y21.84690
G01 X-57.31198 Y21.83986
G01 X-57.32572 Y21.84690
G01 X-57.32572 Y33.94126
G01 X-57.24959 Y34.12045
G01 X-57.32572 Y33.94126
G01 X-57.98914 Y33.30108
G01 X-58.45612 Y32.81731
G01 X-59.18144 Y32.09199
G01 X-59.61581 Y31.63832
G01 X-59.62480 Y31.64192
G01 X-59.61581 Y31.63832
G01 X-59.61581 Y19.84642
G04 P0 ( dwell for no time -- G64 should not smooth over this point )
G00 Z5.00000 ( retract )

G00 X-59.86572 Y31.39808 ( rapid move to begin. )
G01 F50.00000
( Mill infeed pass 1/1 )
G01 Z-0.10000
G04 P0 ( dwell for no time -- G64 should not smooth over this point )
G01 F50.00000
G01 X-59.86572 Y31.39808
G01 X-60.52932 Y30.76915
G01 X-60.93402 Y30.42153
G01 X-61.33401 Y30.11028
G01 X-61.74222 Y29.82567
G01 X-64.96921 Y27.70812
G01 X-65.35887 Y27.43690
G01 X-65.74765 Y27.13512
G01 X-66.13695 Y26.80178
G01 X-66.52765 Y26.43589
G01 X-66.64703 Y26.31943
G01 X-67.08041 Y25.91651
G01 X-67.13797 Y25.91659
G01 X-67.08041 Y25.91651
G01 X-66.52765 Y25.39688
G01 X-65.73109 Y24.60038
G01 X-65.34475 Y24.23274
G01 X-64.95867 Y23.90310
G01 X-61.73239 Y21.30468
G01 X-61.33965 Y20.96935
G01 X-60.94250 Y20.59170
G01 X-60.12310 Y19.77230
G01 X-59.90524 Y19.56102
G01 X-59.90410 Y19.50606
G01 X-59.90524 Y19.56102
G01 X-59.86572 Y19.60375
G01 X-59.85711 Y19.60037
G01 X-59.86572 Y19.60375
G01 X-59.86572 Y31.39808
G01 X-59.79013 Y31.57385
G01 X-58.37166 Y33.26460
G01 X-71.62785 Y33.26460
G01 X-71.66445 Y33.30120
G01 X-71.62785 Y33.26460
G01 X-71.62785 Y26.04171
G01 X-71.66445 Y26.00508
G01 X-71.62785 Y26.04171
G01 X-67.31249 Y26.04201
G01 X-67.30901 Y26.03325
G01 X-67.31249 Y26.04201
G01 X-66.81831 Y26.50137
G01 X-66.69941 Y26.61745
G01 X-66.30157 Y26.98976
G01 X-65.90787 Y27.32687
G01 X-65.50952 Y27.63627
G01 X-65.10774 Y27.91612
G01 X-61.88078 Y30.03365
G01 X-61.48489 Y30.30952
G01 X-61.08990 Y30.61688
G01 X-60.69434 Y30.95686
G01 X-59.82889 Y31.77710
G01 X-59.36102 Y32.26580
G01 X-58.63361 Y32.99323
G01 X-58.37166 Y33.26460
G01 X-58.18952 Y33.34113
G01 X-58.37166 Y33.26460
G01 X-55.64200 Y35.88515
G01 X-55.82536 Y35.80841
G01 X-71.62785 Y35.80841
G01 X-71.66445 Y35.84501
G01 X-71.62785 Y35.80841
G01 X-71.62785 Y33.51449
G01 X-71.66445 Y33.47789
G01 X-71.62785 Y33.51449
G01 X-58.12767 Y33.51449
G01 X-58.12399 Y33.50539
G01 X-58.12767 Y33.51449
G01 X-57.28896 Y34.32378
G01 X-56.81911 Y34.80773
G01 X-56.09082 Y35.53602
G01 X-55.82536 Y35.80841
G01 X-54.70934 Y36.66386
G01 X-54.78572 Y36.48291
G01 X-55.44088 Y35.84491
G01 X-55.91241 Y35.36102
G01 X-56.64175 Y34.63168
G01 X-57.07581 Y34.18459
G01 X-57.08498 Y34.18830
G01 X-57.07581 Y34.18459
G01 X-57.07581 Y21.98279
G01 X-57.13329 Y21.89317
G01 X-57.07581 Y21.98279
G01 X-56.78551 Y22.12429
G01 X-56.38089 Y22.30158
G01 X-55.97086 Y22.44100
G01 X-55.55991 Y22.54006
G01 X-55.14818 Y22.59858
G01 X-54.78572 Y22.63181
G01 X-54.75412 Y22.60371
G01 X-54.78572 Y22.63181
G01 X-54.78572 Y36.48291
G01 X-54.70934 Y36.66386
G01 X-53.46916 Y38.15824
G01 X-53.41541 Y38.15905
G04 P0 ( dwell for no time -- G64 should not smooth over this point )
G00 Z5.00000 ( retract )

G00 X-66.26779 Y52.40066 ( rapid move to begin. )
G01 F50.00000
( Mill infeed pass 1/1 )
G01 Z-0.10000
G04 P0 ( dwell for no time -- G64 should not smooth over this point )
G01 F50.00000
G01 X-66.26779 Y52.40066
G01 X-66.08531 Y52.32405
G01 X-65.68092 Y51.89814
G01 X-64.94600 Y51.16302
G01 X-64.41483 Y50.57902
G01 X-64.17813 Y50.27343
G01 X-63.97859 Y49.98143
G01 X-62.66317 Y47.92015
G01 X-62.46686 Y47.63280
G01 X-62.24623 Y47.34761
G01 X-61.72032 Y46.76950
G01 X-61.31298 Y46.36211
G01 X-60.85952 Y45.88015
G01 X-60.34895 Y45.39808
G01 X-60.12343 Y45.17260
G01 X-59.86572 Y44.92638
G01 X-59.78977 Y44.74820
G01 X-59.86572 Y44.92638
G01 X-59.86572 Y52.32405
G01 X-59.82912 Y52.36065
G01 X-59.86572 Y52.32405
G01 X-66.08531 Y52.32405
G04 P0 ( dwell for no time -- G64 should not smooth over this point )
G00 Z5.00000 ( retract )

G00 X-54.53581 Y52.32405 ( rapid move to begin. )
G01 F50.00000
( Mill infeed pass 1/1 )
G01 Z-0.10000
G04 P0 ( dwell for no time -- G64 should not smooth over this point )
G01 F50.00000
G01 X-54.53581 Y52.32405
G01 X-54.53581 Y39.49758
G01 X-54.54614 Y39.49311
G01 X-54.53581 Y39.49758
G01 X-54.10479 Y39.10520
G01 X-53.24058 Y38.28588
G01 X-53.24404 Y38.27716
G01 X-53.24058 Y38.28588
G01 X-52.24572 Y38.28588
G01 X-52.20912 Y38.24928
G01 X-52.24572 Y38.28588
G01 X-52.24572 Y52.32405
G01 X-52.20912 Y52.36065
G01 X-52.24572 Y52.32405
G01 X-54.53581 Y52.32405
G01 X-54.57241 Y52.36065
G01 X-52.03241 Y52.36065
G01 X-51.99581 Y52.32405
G01 X-51.99581 Y38.28588
G01 X-52.03241 Y38.24928
G01 X-51.99581 Y38.28588
G01 X-49.70572 Y38.28588
G01 X-49.66912 Y38.24928
G01 X-49.70572 Y38.28588
G01 X-49.70572 Y52.32405
G01 X-49.66912 Y52.36065
G01 X-49.70572 Y52.32405
G01 X-51.99581 Y52.32405
G01 X-52.03241 Y52.36065
G01 X-49.49241 Y52.36065
G01 X-49.45581 Y52.32405
G01 X-49.45581 Y38.28588
G01 X-49.49241 Y38.24928
G01 X-49.45581 Y38.28588
G01 X-47.16572 Y38.28588
G01 X-47.12912 Y38.24928
G01 X-47.16572 Y38.28588
G01 X-47.16572 Y52.32405
G01 X-47.12912 Y52.36065
G01 X-47.16572 Y52.32405
G01 X-49.45581 Y52.32405
G01 X-46.95241 Y52.36065
G01 X-46.91581 Y52.32405
G01 X-46.91581 Y38.28588
G01 X-46.95241 Y38.24928
G01 X-46.91581 Y38.28588
G01 X-44.62572 Y38.28588
G01 X-44.58912 Y38.24928
G01 X-44.62572 Y38.28588
G01 X-44.62572 Y52.32405
G01 X-44.58912 Y52.36065
G01 X-44.62572 Y52.32405
G01 X-46.91581 Y52.32405
G01 X-44.41241 Y52.36065
G01 X-44.37581 Y52.32405
G01 X-44.37581 Y38.28588
G01 X-44.41241 Y38.24928
G01 X-44.37581 Y38.28588
G01 X-42.08572 Y38.28588
G01 X-42.04912 Y38.24928
G01 X-42.08572 Y38.28588
G01 X-42.08572 Y52.32405
G01 X-42.04912 Y52.36065
G01 X-42.08572 Y52.32405
G01 X-44.37581 Y52.32405
G01 X-41.87241 Y52.36065
G01 X-41.83581 Y52.32405
G01 X-41.83581 Y38.28588
G01 X-41.87241 Y38.24928
G01 X-41.83581 Y38.28588
G01 X-39.54572 Y38.28588
G01 X-39.50912 Y38.24928
G01 X-39.54572 Y38.28588
G01 X-39.54572 Y52.32405
G01 X-39.29581 Y52.32405
G01 X-39.33241 Y52.36065
G01 X-39.29581 Y52.32405
G01 X-39.29581 Y38.28588
G01 X-39.33241 Y38.24928
G01 X-39.29581 Y38.28588
G01 X-37.00572 Y38.28588
G01 X-36.96912 Y38.24928
G01 X-37.00572 Y38.28588
G01 X-37.00572 Y52.32405
G01 X-39.54572 Y52.32405
G01 X-39.50912 Y52.36065
G01 X-39.54572 Y52.32405
G01 X-41.83581 Y52.32405
G01 X-37.00572 Y52.32405
G01 X-36.96912 Y52.36065
G01 X-36.79241 Y52.36065
G01 X-36.75581 Y52.32405
G01 X-36.75581 Y38.28588
G01 X-36.79241 Y38.24928
G01 X-36.75581 Y38.28588
G01 X-34.46572 Y38.28588
G01 X-34.42912 Y38.24928
G01 X-34.46572 Y38.28588
G01 X-34.46572 Y52.32405
G01 X-34.42912 Y52.36065
G01 X-34.46572 Y52.32405
G01 X-36.75581 Y52.32405
G01 X-34.25241 Y52.36065
G01 X-34.21581 Y52.32405
G01 X-34.21581 Y38.28588
G01 X-34.25241 Y38.24928
G01 X-34.21581 Y38.28588
G01 X-31.92572 Y38.28588
G01 X-31.88912 Y38.24928
G01 X-31.92572 Y38.28588
G01 X-31.92572 Y52.32405
G01 X-31.88912 Y52.36065
G01 X-31.92572 Y52.32405
G01 X-34.21581 Y52.32405
G01 X-31.71241 Y52.36065
G01 X-31.67581 Y52.32405
G01 X-31.67581 Y38.28588
G01 X-31.71241 Y38.24928
G01 X-31.67581 Y38.28588
G01 X-29.38572 Y38.28588
G01 X-29.34912 Y38.24928
G01 X-29.38572 Y38.28588
G01 X-29.38572 Y52.32405
G01 X-29.34912 Y52.36065
G01 X-29.38572 Y52.32405
G01 X-31.67581 Y52.32405
G01 X-29.17241 Y52.36065
G01 X-29.13581 Y52.32405
G01 X-29.13581 Y38.28588
G01 X-29.17241 Y38.24928
G01 X-29.13581 Y38.28588
G01 X-26.84572 Y38.28588
G01 X-26.80912 Y38.24928
G01 X-26.84572 Y38.28588
G01 X-26.84572 Y52.32405
G01 X-26.59581 Y52.32405
G01 X-26.63238 Y52.36065
G01 X-26.59581 Y52.32405
G01 X-26.59581 Y38.28588
G01 X-26.63238 Y38.24928
G01 X-26.59581 Y38.28588
G01 X-24.30572 Y38.28588
G01 X-24.26912 Y38.24928
G01 X-24.30572 Y38.28588
G01 X-24.30572 Y52.32405
G01 X-24.26912 Y52.36065
G01 X-24.09241 Y52.36065
G01 X-24.05581 Y52.32405
G01 X-21.55241 Y52.36065
G01 X-21.51581 Y52.32405
G01 X-21.51581 Y38.28588
G01 X-21.55241 Y38.24928
G01 X-21.51581 Y38.28588
G01 X-19.22572 Y38.28588
G01 X-19.18912 Y38.24928
G01 X-19.22572 Y38.28588
G01 X-19.22572 Y52.32405
G01 X-18.97581 Y52.32405
G01 X-19.01241 Y52.36065
G01 X-18.97581 Y52.32405
G01 X-18.97581 Y38.28588
G01 X-19.01241 Y38.24928
G01 X-18.97581 Y38.28588
G01 X-16.68572 Y38.28588
G01 X-16.64912 Y38.24928
G01 X-16.68572 Y38.28588
G01 X-16.68572 Y52.32405
G01 X-16.64912 Y52.36065
G01 X-16.47241 Y52.36065
G01 X-16.43581 Y52.32405
G01 X-13.93241 Y52.36065
G01 X-13.89581 Y52.32405
G01 X-13.89581 Y38.28588
G01 X-13.93241 Y38.24928
G01 X-13.89581 Y38.28588
G01 X-11.60572 Y38.28588
G01 X-11.56912 Y38.24928
G01 X-11.60572 Y38.28588
G01 X-11.60572 Y52.32405
G01 X-11.35581 Y52.32405
G01 X-11.39241 Y52.36065
G01 X-11.35581 Y52.32405
G01 X-11.35581 Y38.28588
G01 X-11.39241 Y38.24928
G01 X-11.35581 Y38.28588
G01 X-9.06572 Y38.28588
G01 X-9.02912 Y38.24928
G01 X-9.06572 Y38.28588
G01 X-9.06572 Y52.32405
G01 X-9.02912 Y52.36065
G01 X-9.06572 Y52.32405
G01 X-11.60572 Y52.32405
G01 X-11.56912 Y52.36065
G01 X-11.60572 Y52.32405
G01 X-13.89581 Y52.32405
G01 X-13.93241 Y52.36065
G01 X-16.43581 Y52.32405
G01 X-16.43581 Y38.28588
G01 X-16.47241 Y38.24928
G01 X-16.43581 Y38.28588
G01 X-14.14572 Y38.28588
G01 X-14.10912 Y38.24928
G01 X-14.14572 Y38.28588
G01 X-14.14572 Y52.32405
G01 X-14.10912 Y52.36065
G01 X-14.14572 Y52.32405
G01 X-16.43581 Y52.32405
G01 X-16.47241 Y52.36065
G01 X-16.64912 Y52.36065
G01 X-16.68572 Y52.32405
G01 X-19.22572 Y52.32405
G01 X-19.18912 Y52.36065
G01 X-19.22572 Y52.32405
G01 X-21.51581 Y52.32405
G01 X-21.55241 Y52.36065
G01 X-24.05581 Y52.32405
G01 X-24.05581 Y38.28588
G01 X-24.09241 Y38.24928
G01 X-24.05581 Y38.28588
G01 X-21.76572 Y38.28588
G01 X-21.72912 Y38.24928
G01 X-21.76572 Y38.28588
G01 X-21.76572 Y52.32405
G01 X-21.72912 Y52.36065
G01 X-21.76572 Y52.32405
G01 X-24.05581 Y52.32405
G01 X-24.09241 Y52.36065
G01 X-24.26912 Y52.36065
G01 X-24.30572 Y52.32405
G01 X-26.84572 Y52.32405
G01 X-26.80912 Y52.36065
G01 X-26.84572 Y52.32405
G01 X-29.13581 Y52.32405
G04 P0 ( dwell for no time -- G64 should not smooth over this point )
G00 Z5.00000 ( retract )

G00 X-1.87800 Y38.03599 ( rapid move to begin. )
G01 F50.00000
( Mill infeed pass 1/1 )
G01 Z-0.10000
G04 P0 ( dwell for no time -- G64 should not smooth over this point )
G01 F50.00000
G01 X-1.87800 Y38.03599
G01 X-1.87800 Y21.50257
G01 X-1.84274 Y21.46838
G01 X-1.87800 Y21.50257
G01 X-6.67283 Y21.35596
G01 X-6.87172 Y21.35292
G01 X-8.47029 Y21.35292
G01 X-8.81581 Y21.35739
G01 X-8.85238 Y21.32084
G01 X-8.81581 Y21.35739
G01 X-8.81581 Y38.03599
G01 X-8.85241 Y38.07259
G01 X-8.81581 Y38.03599
G01 X-1.87800 Y38.03599
G01 X-1.84140 Y38.07259
G04 P0 ( dwell for no time -- G64 should not smooth over this point )
G00 Z5.00000 ( retract )

G00 X-1.87800 Y52.32405 ( rapid move to begin. )
G01 F50.00000
( Mill infeed pass 1/1 )
G01 Z-0.10000
G04 P0 ( dwell for no time -- G64 should not smooth over this point )
G01 F50.00000
G01 X-1.87800 Y52.32405
G01 X-8.81581 Y52.32405
G01 X-8.85241 Y52.36065
G01 X-8.81581 Y52.32405
G01 X-8.81581 Y38.28588
G01 X-8.85241 Y38.24928
G01 X-8.81581 Y38.28588
G01 X-1.87800 Y38.28588
G01 X-1.84140 Y38.24928
G01 X-1.87800 Y38.28588
G01 X-1.87800 Y52.32405
G01 X-1.84140 Y52.36065

G04 P0 ( dwell for no time -- G64 should not smooth over this point )
G00 Z40.000000 ( retract )

M5 ( Spindle off. )
G04 P1.000000
M9 ( Coolant off. )
M2 ( Program end. )

