( pcb2gcode 2.5.0 )
( Software-independent Gcode )

G94 ( Millimeters per minute feed rate. )
G21 ( Units == Millimeters. )

G90 ( Absolute coordinates. )
G00 S1000 ( RPM spindle speed. )
G01 F50.00000 ( Feedrate. )


G00 Z40.00000 (Retract to tool change height)
T0
M5      (Spindle stop.)
G04 P1.00000 (Wait for spindle to stop)
(MSG, Change tool bit to cutter diameter 1.00000mm)
M0      (Temporary machine stop.)
M3 ( Spindle on clockwise. )
G04 P1.00000 (Wait for spindle to get up to speed)
G04 P0 ( dwell for no time -- G64 should not smooth over this point )
G00 Z5.00000 ( retract )

G00 X72.25281 Y2.44909 ( rapid move to begin. )
G01 Z-0.56667 F50.00000 ( plunge. )
G04 P0 ( dwell for no time -- G64 should not smooth over this point )
G01 F50.00000
G01 X72.25281 Y26.69906
G00 Z5.00000
G01 X72.25281 Y28.19906
G01 Z-0.56667 F50.00000
G01 F50.00000
G01 X72.25281 Y52.44902
G01 X72.24319 Y52.54655
G01 X72.21474 Y52.64036
G01 X72.16854 Y52.72679
G01 X72.10636 Y52.80256
G01 X72.03059 Y52.86474
G01 X71.94415 Y52.91094
G01 X71.85035 Y52.93939
G01 X71.75282 Y52.94902
G01 X37.50294 Y52.94902
G00 Z5.00000
G01 X36.00294 Y52.94902
G01 Z-0.56667 F50.00000
G01 F50.00000
G01 X1.75306 Y52.94902
G01 X1.65550 Y52.93939
G01 X1.56169 Y52.91094
G01 X1.47526 Y52.86474
G01 X1.39949 Y52.80256
G01 X1.33731 Y52.72679
G01 X1.29111 Y52.64036
G01 X1.26266 Y52.54655
G01 X1.25303 Y52.44902
G01 X1.25303 Y28.19906
G00 Z5.00000
G01 X1.25303 Y26.69906
G01 Z-0.56667 F50.00000
G01 F50.00000
G01 X1.25303 Y2.44909
G01 X1.26266 Y2.35153
G01 X1.29111 Y2.25773
G01 X1.33731 Y2.17129
G01 X1.39949 Y2.09553
G01 X1.47526 Y2.03335
G01 X1.56169 Y1.98714
G01 X1.65550 Y1.95870
G01 X1.75306 Y1.94907
G01 X36.00294 Y1.94907
G00 Z5.00000
G01 X37.50294 Y1.94907
G01 Z-0.56667 F50.00000
G01 F50.00000
G01 X71.75282 Y1.94907
G01 X71.85035 Y1.95870
G01 X71.94415 Y1.98714
G01 X72.03059 Y2.03335
G01 X72.10636 Y2.09553
G01 X72.16854 Y2.17129
G01 X72.21474 Y2.25773
G01 X72.24319 Y2.35153
G01 X72.25281 Y2.44909
G01 Z-1.13333 F50.00000 ( plunge. )
G04 P0 ( dwell for no time -- G64 should not smooth over this point )
G01 F50.00000
G01 X72.25281 Y26.69906
G00 Z5.00000
G01 X72.25281 Y28.19906
G01 Z-1.13333 F50.00000
G01 F50.00000
G01 X72.25281 Y52.44902
G01 X72.24319 Y52.54655
G01 X72.21474 Y52.64036
G01 X72.16854 Y52.72679
G01 X72.10636 Y52.80256
G01 X72.03059 Y52.86474
G01 X71.94415 Y52.91094
G01 X71.85035 Y52.93939
G01 X71.75282 Y52.94902
G01 X37.50294 Y52.94902
G00 Z5.00000
G01 X36.00294 Y52.94902
G01 Z-1.13333 F50.00000
G01 F50.00000
G01 X1.75306 Y52.94902
G01 X1.65550 Y52.93939
G01 X1.56169 Y52.91094
G01 X1.47526 Y52.86474
G01 X1.39949 Y52.80256
G01 X1.33731 Y52.72679
G01 X1.29111 Y52.64036
G01 X1.26266 Y52.54655
G01 X1.25303 Y52.44902
G01 X1.25303 Y28.19906
G00 Z5.00000
G01 X1.25303 Y26.69906
G01 Z-1.13333 F50.00000
G01 F50.00000
G01 X1.25303 Y2.44909
G01 X1.26266 Y2.35153
G01 X1.29111 Y2.25773
G01 X1.33731 Y2.17129
G01 X1.39949 Y2.09553
G01 X1.47526 Y2.03335
G01 X1.56169 Y1.98714
G01 X1.65550 Y1.95870
G01 X1.75306 Y1.94907
G01 X36.00294 Y1.94907
G00 Z5.00000
G01 X37.50294 Y1.94907
G01 Z-1.13333 F50.00000
G01 F50.00000
G01 X71.75282 Y1.94907
G01 X71.85035 Y1.95870
G01 X71.94415 Y1.98714
G01 X72.03059 Y2.03335
G01 X72.10636 Y2.09553
G01 X72.16854 Y2.17129
G01 X72.21474 Y2.25773
G01 X72.24319 Y2.35153
G01 X72.25281 Y2.44909
G01 Z-1.70000 F50.00000 ( plunge. )
G04 P0 ( dwell for no time -- G64 should not smooth over this point )
G01 F50.00000
G01 X72.25281 Y26.69906
G00 Z5.00000
G01 X72.25281 Y28.19906
G01 Z-1.70000 F50.00000
G01 F50.00000
G01 X72.25281 Y52.44902
G01 X72.24319 Y52.54655
G01 X72.21474 Y52.64036
G01 X72.16854 Y52.72679
G01 X72.10636 Y52.80256
G01 X72.03059 Y52.86474
G01 X71.94415 Y52.91094
G01 X71.85035 Y52.93939
G01 X71.75282 Y52.94902
G01 X37.50294 Y52.94902
G00 Z5.00000
G01 X36.00294 Y52.94902
G01 Z-1.70000 F50.00000
G01 F50.00000
G01 X1.75306 Y52.94902
G01 X1.65550 Y52.93939
G01 X1.56169 Y52.91094
G01 X1.47526 Y52.86474
G01 X1.39949 Y52.80256
G01 X1.33731 Y52.72679
G01 X1.29111 Y52.64036
G01 X1.26266 Y52.54655
G01 X1.25303 Y52.44902
G01 X1.25303 Y28.19906
G00 Z5.00000
G01 X1.25303 Y26.69906
G01 Z-1.70000 F50.00000
G01 F50.00000
G01 X1.25303 Y2.44909
G01 X1.26266 Y2.35153
G01 X1.29111 Y2.25773
G01 X1.33731 Y2.17129
G01 X1.39949 Y2.09553
G01 X1.47526 Y2.03335
G01 X1.56169 Y1.98714
G01 X1.65550 Y1.95870
G01 X1.75306 Y1.94907
G01 X36.00294 Y1.94907
G00 Z5.00000
G01 X37.50294 Y1.94907
G01 Z-1.70000 F50.00000
G01 F50.00000
G01 X71.75282 Y1.94907
G01 X71.85035 Y1.95870
G01 X71.94415 Y1.98714
G01 X72.03059 Y2.03335
G01 X72.10636 Y2.09553
G01 X72.16854 Y2.17129
G01 X72.21474 Y2.25773
G01 X72.24319 Y2.35153
G01 X72.25281 Y2.44909

G04 P0 ( dwell for no time -- G64 should not smooth over this point )
G00 Z40.000000 ( retract )

M5 ( Spindle off. )
G04 P1.000000
M9 ( Coolant off. )
M2 ( Program end. )

