(Back)
G90 G94
G17
G21
(When using Fusion for Personal Use, the feedrate of rapid)
(moves is reduced to match the feedrate of cutting moves,)
(which can increase machining time. Unrestricted rapid moves)
(are available with a Fusion Subscription.)
G28 G91 Z0
G90

(PowerConnectorPocket)
S10000 M3
G17 G90 G94
G54
G0 X72.4 Y10.656
Z15
G1 Z1 F200
Z-1.025
X66.59
X66.553 Y10.649
X66.522 Y10.628
X66.501 Y10.597
X66.494 Y10.56
Y10.54
X66.501 Y10.503
X66.522 Y10.472
X66.553 Y10.451
X66.59 Y10.444
X72.41
X72.447 Y10.451
X72.478 Y10.472
X72.499 Y10.503
X72.506 Y10.54
Y10.56
X72.499 Y10.597
X72.478 Y10.628
X72.447 Y10.649
X72.41 Y10.656
X72.4
G2 X72.033 Y10.901 I0 J0.397
G3 X71.667 Y11.145 I-0.367 J-0.153
G1 X66.324
G3 X66.005 Y10.826 I0 J-0.319
G1 Y10.274
G3 X66.324 Y9.955 I0.319 J0
G1 X72.676
G3 X72.995 Y10.274 I0 J0.319
G1 Y10.826
G3 X72.676 Y11.145 I-0.319 J0
G1 X71.667
G2 X71.326 Y11.373 I0 J0.37
G3 X70.984 Y11.6 I-0.341 J-0.142
G1 X66
G3 X65.55 Y11.15 I0 J-0.45
G1 Y9.95
G3 X66 Y9.5 I0.45 J0
G1 X73
G3 X73.45 Y9.95 I0 J0.45
G1 Y11.15
G3 X73 Y11.6 I-0.45 J0
G1 X70.984
G2 X70.609 Y11.85 I0 J0.406
G3 X70.234 Y12.1 I-0.375 J-0.156
G1 X66
G3 X65.08 Y11.222 I0 J-0.921
X65.05 Y9.95 I27.195 J-1.272
X66 Y9 I0.95 J0
G1 X73
G3 X73.92 Y9.878 I0 J0.921
X73.95 Y11.15 I-27.195 J1.272
X73 Y12.1 I-0.95 J0
G1 X70.234
G2 X69.859 Y12.35 I0 J0.406
G3 X69.484 Y12.6 I-0.375 J-0.156
G1 X66
G3 X64.55 Y11.15 I0 J-1.45
G1 Y9.95
G3 X66 Y8.5 I1.45 J0
G1 X73
G3 X74.45 Y9.95 I0 J1.45
G1 Y11.15
G3 X73 Y12.6 I-1.45 J0
G1 X69.484
G2 X69.109 Y12.85 I0 J0.406
G3 X68.734 Y13.1 I-0.375 J-0.156
G1 X66
G3 X64.05 Y11.15 I0 J-1.95
G1 Y9.95
G3 X66 Y8 I1.95 J0
G1 X73
G3 X74.95 Y9.95 I0 J1.95
G1 Y11.15
G3 X73 Y13.1 I-1.95 J0
G1 X68.734
G2 X68.359 Y13.35 I0 J0.406
G3 X67.984 Y13.6 I-0.375 J-0.156
G1 X66
G3 X63.55 Y11.15 I0 J-2.45
G1 Y9.95
G3 X66 Y7.5 I2.45 J0
G1 X73
G3 X75.45 Y9.95 I0 J2.45
G1 Y11.15
G3 X73 Y13.6 I-2.45 J0
G1 X67.984
G2 X67.572 Y13.875 I0 J0.447
G3 X67.159 Y14.15 I-0.412 J-0.172
G1 X66
G3 X63 Y11.15 I0 J-3
G1 Y9.95
G3 X66 Y6.95 I3 J0
G1 X73
G3 X76 Y9.95 I0 J3
G1 Y11.15
G3 X73 Y14.15 I-3 J0
G1 X67.159
G3 X67.069 Y13.771 I0 J-0.2
G1 X72.49 Y11.035
G2 X72.4 Y10.656 I-0.09 J-0.179
G1 Z-2.05
X66.59
X66.553 Y10.649
X66.522 Y10.628
X66.501 Y10.597
X66.494 Y10.56
Y10.54
X66.501 Y10.503
X66.522 Y10.472
X66.553 Y10.451
X66.59 Y10.444
X72.41
X72.447 Y10.451
X72.478 Y10.472
X72.499 Y10.503
X72.506 Y10.54
Y10.56
X72.499 Y10.597
X72.478 Y10.628
X72.447 Y10.649
X72.41 Y10.656
X72.4
G2 X72.033 Y10.901 I0 J0.397
G3 X71.667 Y11.145 I-0.367 J-0.153
G1 X66.324
G3 X66.005 Y10.826 I0 J-0.319
G1 Y10.274
G3 X66.324 Y9.955 I0.319 J0
G1 X72.676
G3 X72.995 Y10.274 I0 J0.319
G1 Y10.826
G3 X72.676 Y11.145 I-0.319 J0
G1 X71.667
G2 X71.326 Y11.373 I0 J0.37
G3 X70.984 Y11.6 I-0.341 J-0.142
G1 X66
G3 X65.55 Y11.15 I0 J-0.45
G1 Y9.95
G3 X66 Y9.5 I0.45 J0
G1 X73
G3 X73.45 Y9.95 I0 J0.45
G1 Y11.15
G3 X73 Y11.6 I-0.45 J0
G1 X70.984
G2 X70.609 Y11.85 I0 J0.406
G3 X70.234 Y12.1 I-0.375 J-0.156
G1 X66
G3 X65.08 Y11.222 I0 J-0.921
X65.05 Y9.95 I27.195 J-1.272
X66 Y9 I0.95 J0
G1 X73
G3 X73.92 Y9.878 I0 J0.921
X73.95 Y11.15 I-27.195 J1.272
X73 Y12.1 I-0.95 J0
G1 X70.234
G2 X69.859 Y12.35 I0 J0.406
G3 X69.484 Y12.6 I-0.375 J-0.156
G1 X66
G3 X64.55 Y11.15 I0 J-1.45
G1 Y9.95
G3 X66 Y8.5 I1.45 J0
G1 X73
G3 X74.45 Y9.95 I0 J1.45
G1 Y11.15
G3 X73 Y12.6 I-1.45 J0
G1 X69.484
G2 X69.109 Y12.85 I0 J0.406
G3 X68.734 Y13.1 I-0.375 J-0.156
G1 X66
G3 X64.05 Y11.15 I0 J-1.95
G1 Y9.95
G3 X66 Y8 I1.95 J0
G1 X73
G3 X74.95 Y9.95 I0 J1.95
G1 Y11.15
G3 X73 Y13.1 I-1.95 J0
G1 X68.734
G2 X68.359 Y13.35 I0 J0.406
G3 X67.984 Y13.6 I-0.375 J-0.156
G1 X66
G3 X63.55 Y11.15 I0 J-2.45
G1 Y9.95
G3 X66 Y7.5 I2.45 J0
G1 X73
G3 X75.45 Y9.95 I0 J2.45
G1 Y11.15
G3 X73 Y13.6 I-2.45 J0
G1 X67.984
G2 X67.572 Y13.875 I0 J0.447
G3 X67.159 Y14.15 I-0.412 J-0.172
G1 X66
G3 X63 Y11.15 I0 J-3
G1 Y9.95
G3 X66 Y6.95 I3 J0
G1 X73
G3 X76 Y9.95 I0 J3
G1 Y11.15
G3 X73 Y14.15 I-3 J0
G1 X67.159
Z15
(When using Fusion for Personal Use, the feedrate of rapid)
(moves is reduced to match the feedrate of cutting moves,)
(which can increase machining time. Unrestricted rapid moves)
(are available with a Fusion Subscription.)

(PowerConnectorHole)
G0 X66.6 Y12.15
G1 Z15 F200
Z2.95
Z-1.85
Z-3.1
X66
G3 X65 Y11.15 I0 J-1
G1 Y9.95
G3 X66 Y8.95 I1 J0
G1 X73
G3 X74 Y9.95 I0 J1
G1 Y11.15
G3 X73 Y12.15 I-1 J0
G1 X66.6
Z-4.1
X66
G3 X65 Y11.15 I0 J-1
G1 Y9.95
G3 X66 Y8.95 I1 J0
G1 X73
G3 X74 Y9.95 I0 J1
G1 Y11.15
G3 X73 Y12.15 I-1 J0
G1 X66.6
Z15
(When using Fusion for Personal Use, the feedrate of rapid)
(moves is reduced to match the feedrate of cutting moves,)
(which can increase machining time. Unrestricted rapid moves)
(are available with a Fusion Subscription.)

(LightSensorPocket)
G0 X69.952 Y63.831
G1 Z15 F200
Z2.05
Z-0.95
X69.944 Y63.842 Z-1
X69.916 Y63.865 Z-1.037
X69.893 Y63.874 Z-1.043
X69.868 Y63.877 Z-1.05
X69.116
X69.09 Y63.871
X69.069 Y63.854
X69.059 Y63.829
X69.056 Y63.81
Y63.79
X69.059 Y63.771
X69.069 Y63.746
X69.09 Y63.729
X69.116 Y63.723
X69.884
X69.91 Y63.729
X69.931 Y63.746
X69.941 Y63.771
X69.944 Y63.79
Y63.81
X69.941 Y63.829
X69.931 Y63.854
X69.91 Y63.871
X69.884 Y63.877
X69.868
G2 X69.463 Y64.147 I0 J0.439
G3 X69.058 Y64.417 I-0.405 J-0.169
G1 X68.966
G3 X68.607 Y64.206 I0 J-0.412
G1 X68.59 Y64.177
X68.567 Y64.125
X68.552 Y64.069
X68.523 Y63.902
X68.516 Y63.834
Y63.766
X68.523 Y63.698
X68.552 Y63.529
X68.567 Y63.473
X68.591 Y63.42
X68.606 Y63.394
G3 X68.966 Y63.183 I0.36 J0.202
G1 X70.034
G3 X70.393 Y63.394 I0 J0.412
G1 X70.41 Y63.423
X70.433 Y63.475
X70.448 Y63.531
X70.477 Y63.698
X70.484 Y63.766
Y63.834
X70.477 Y63.902
X70.448 Y64.069
X70.433 Y64.125
X70.41 Y64.177
X70.393 Y64.206
G3 X70.034 Y64.417 I-0.359 J-0.201
G1 X69.058
G2 X68.719 Y64.665 I0 J0.356
G3 X68.308 Y64.751 I-0.23 J-0.073
G1 X68.269 Y64.701
X68.235 Y64.648
X68.113 Y64.43
G3 X68.022 Y64.172 I0.704 J-0.394
G1 X67.989 Y63.982
G3 X67.989 Y63.618 I1.062 J-0.182
G1 X68.022 Y63.426
G3 X68.114 Y63.167 I0.795 J0.136
G1 X68.235 Y62.952
G3 X68.762 Y62.643 I0.527 J0.296
G1 X70.238
G3 X70.765 Y62.952 I0 J0.604
G1 X70.887 Y63.17
G3 X70.978 Y63.428 I-0.704 J0.394
G1 X71.011 Y63.618
G3 X71.011 Y63.982 I-1.062 J0.182
G1 X70.978 Y64.172
G3 X70.887 Y64.43 I-0.795 J-0.136
G1 X70.765 Y64.648
G3 X70.238 Y64.957 I-0.528 J-0.295
G1 X68.762
G3 X68.308 Y64.751 I0 J-0.604
G2 X67.881 Y64.618 I-0.322 J0.282
G3 X67.506 Y64.375 I-0.075 J-0.295
G1 X67.407 Y63.8
X67.526 Y63.106
X67.575 Y63.018
X67.872 Y62.488
X68.305 Y62.1
X70.695
X71.127 Y62.488
X71.474 Y63.107
X71.593 Y63.8
X71.474 Y64.493
X71.127 Y65.112
X70.695 Y65.5
X68.305
X67.873 Y65.112
X67.526 Y64.493
X67.506 Y64.375
X67.509 Y64.348
X67.525 Y64.326
X67.551 Y64.316
X67.955 Y64.281
X69.848 Y63.814
X69.933 Y63.802
X69.947 Y63.805
X69.955 Y63.817
X69.952 Y63.831
Z-1.95
X69.944 Y63.842 Z-2
X69.916 Y63.865 Z-2.037
X69.893 Y63.874 Z-2.043
X69.868 Y63.877 Z-2.05
X69.116
X69.09 Y63.871
X69.069 Y63.854
X69.059 Y63.829
X69.056 Y63.81
Y63.79
X69.059 Y63.771
X69.069 Y63.746
X69.09 Y63.729
X69.116 Y63.723
X69.884
X69.91 Y63.729
X69.931 Y63.746
X69.941 Y63.771
X69.944 Y63.79
Y63.81
X69.941 Y63.829
X69.931 Y63.854
X69.91 Y63.871
X69.884 Y63.877
X69.868
G2 X69.463 Y64.147 I0 J0.439
G3 X69.058 Y64.417 I-0.405 J-0.169
G1 X68.966
G3 X68.607 Y64.206 I0 J-0.412
G1 X68.59 Y64.177
X68.567 Y64.125
X68.552 Y64.069
X68.523 Y63.902
X68.516 Y63.834
Y63.766
X68.523 Y63.698
X68.552 Y63.529
X68.567 Y63.473
X68.591 Y63.42
X68.606 Y63.394
G3 X68.966 Y63.183 I0.36 J0.202
G1 X70.034
G3 X70.393 Y63.394 I0 J0.412
G1 X70.41 Y63.423
X70.433 Y63.475
X70.448 Y63.531
X70.477 Y63.698
X70.484 Y63.766
Y63.834
X70.477 Y63.902
X70.448 Y64.069
X70.433 Y64.125
X70.41 Y64.177
X70.393 Y64.206
G3 X70.034 Y64.417 I-0.359 J-0.201
G1 X69.058
G2 X68.719 Y64.665 I0 J0.356
G3 X68.308 Y64.751 I-0.23 J-0.073
G1 X68.269 Y64.701
X68.235 Y64.648
X68.113 Y64.43
G3 X68.022 Y64.172 I0.704 J-0.394
G1 X67.989 Y63.982
G3 X67.989 Y63.618 I1.062 J-0.182
G1 X68.022 Y63.426
G3 X68.114 Y63.167 I0.795 J0.136
G1 X68.235 Y62.952
G3 X68.762 Y62.643 I0.527 J0.296
G1 X70.238
G3 X70.765 Y62.952 I0 J0.604
G1 X70.887 Y63.17
G3 X70.978 Y63.428 I-0.704 J0.394
G1 X71.011 Y63.618
G3 X71.011 Y63.982 I-1.062 J0.182
G1 X70.978 Y64.172
G3 X70.887 Y64.43 I-0.795 J-0.136
G1 X70.765 Y64.648
G3 X70.238 Y64.957 I-0.528 J-0.295
G1 X68.762
G3 X68.308 Y64.751 I0 J-0.604
G2 X67.881 Y64.618 I-0.322 J0.282
G3 X67.506 Y64.375 I-0.075 J-0.295
G1 X67.407 Y63.8
X67.526 Y63.106
X67.575 Y63.018
X67.872 Y62.488
X68.305 Y62.1
X70.695
X71.127 Y62.488
X71.474 Y63.107
X71.593 Y63.8
X71.474 Y64.493
X71.127 Y65.112
X70.695 Y65.5
X68.305
X67.873 Y65.112
X67.526 Y64.493
X67.506 Y64.375
X67.507 Y64.353
X67.517 Y64.334
X67.534 Y64.321
X67.554 Y64.316
X67.942 Y64.312
X71.375 Y63.913
X71.474 Y63.865
X71.486 Y63.873
X71.492 Y63.886
X71.491 Y63.9
Z-3.1
X67.424
X67.407 Y63.8
X67.424 Y63.7
X71.576
X71.593 Y63.8
X71.576 Y63.9
X71.491
Z-4.1
X67.424
X67.407 Y63.8
X67.424 Y63.7
X71.576
X71.593 Y63.8
X71.576 Y63.9
X71.491
X71.467 Y63.897 Z-4.093
X71.443 Y63.888 Z-4.087
X71.415 Y63.865 Z-4.05
X71.407 Y63.854 Z-4
Z15
(When using Fusion for Personal Use, the feedrate of rapid)
(moves is reduced to match the feedrate of cutting moves,)
(which can increase machining time. Unrestricted rapid moves)
(are available with a Fusion Subscription.)

(LightSensorHole)
G0 X67.5 Y63.7
G1 Z15 F200
Z5
Z0.2
Z-1.05
X71.598
X71.6 Y63.8
X71.598 Y63.9
X67.402
X67.4 Y63.8
X67.402 Y63.7
X67.5
Z-2.1
X71.598
X71.6 Y63.8
X71.598 Y63.9
X67.402
X67.4 Y63.8
X67.402 Y63.7
X67.5
Z-3.15
X71.598
X71.6 Y63.8
X71.598 Y63.9
X67.402
X67.4 Y63.8
X67.402 Y63.7
X67.5
Z-4.1
X71.598
X71.6 Y63.8
X71.598 Y63.9
X67.402
X67.4 Y63.8
X67.402 Y63.7
X67.5
Z15
(When using Fusion for Personal Use, the feedrate of rapid)
(moves is reduced to match the feedrate of cutting moves,)
(which can increase machining time. Unrestricted rapid moves)
(are available with a Fusion Subscription.)

(ScrewHoles)
G0 X105 Y8.35
G1 Z15 F200
Z5
Z0.2
Z-1.05
G3 X104 Y8.35 I-0.5 J0
X105 Y8.35 I0.5 J0
G1 Z-2.1
G3 X104 Y8.35 I-0.5 J0
X105 Y8.35 I0.5 J0
G1 Z-3.15
G3 X104 Y8.35 I-0.5 J0
X105 Y8.35 I0.5 J0
G1 Z-4.1
G3 X104 Y8.35 I-0.5 J0
X105 Y8.35 I0.5 J0
G1 Z5
Y66.55
Z0.2
Z-1.05
G3 X104 Y66.55 I-0.5 J0
X105 Y66.55 I0.5 J0
G1 Z-2.1
G3 X104 Y66.55 I-0.5 J0
X105 Y66.55 I0.5 J0
G1 Z-3.15
G3 X104 Y66.55 I-0.5 J0
X105 Y66.55 I0.5 J0
G1 Z-4.1
G3 X104 Y66.55 I-0.5 J0
X105 Y66.55 I0.5 J0
G1 Z5
X35
Z0.2
Z-1.05
G3 X34 Y66.55 I-0.5 J0
X35 Y66.55 I0.5 J0
G1 Z-2.1
G3 X34 Y66.55 I-0.5 J0
X35 Y66.55 I0.5 J0
G1 Z-3.15
G3 X34 Y66.55 I-0.5 J0
X35 Y66.55 I0.5 J0
G1 Z-4.1
G3 X34 Y66.55 I-0.5 J0
X35 Y66.55 I0.5 J0
G1 Z5
Y8.35
Z0.2
Z-1.05
G3 X34 Y8.35 I-0.5 J0
X35 Y8.35 I0.5 J0
G1 Z-2.1
G3 X34 Y8.35 I-0.5 J0
X35 Y8.35 I0.5 J0
G1 Z-3.15
G3 X34 Y8.35 I-0.5 J0
X35 Y8.35 I0.5 J0
G1 Z-4.1
G3 X34 Y8.35 I-0.5 J0
X35 Y8.35 I0.5 J0
G1 Z15
(When using Fusion for Personal Use, the feedrate of rapid)
(moves is reduced to match the feedrate of cutting moves,)
(which can increase machining time. Unrestricted rapid moves)
(are available with a Fusion Subscription.)

(Outline)
G0 X115.9 Y0.5
G1 Z15 F200
Z5
Z0.2
Z-1.05
X96.7
Y4.6
X79.1
Y1
Y0.5
X59.9
Y4.6
X42.3
Y1
Y0.5
X23.1
Y4.6
X1
X0.5
Y27.133
X4.6
Y47.667
X1
X0.5
Y70.2
X23.1
Y73.8
Y74.3
X42.3
Y70.2
X59.9
Y73.8
Y74.3
X79.1
Y70.2
X96.7
Y73.8
Y74.3
X115.9
Y70.2
X138
X138.5
Y47.667
X134.4
Y27.133
X138
X138.5
Y4.6
X115.9
Y1
Y0.5
Z-2.1
X96.7
Y4.6
X79.1
Y0.5
X59.9
Y4.6
X42.3
Y0.5
X23.1
Y4.6
X0.5
Y27.133
X4.6
Y47.667
X0.5
Y70.2
X23.1
Y74.3
X42.3
Y70.2
X59.9
Y74.3
X79.1
Y70.2
X96.7
Y74.3
X115.9
Y70.2
X138.5
Y47.667
X134.4
Y27.133
X138.5
Y4.6
X115.9
Y0.5
Z-3.15
X107.27
Z-2.1
X105.27
Z-3.15
X96.7
Y4.6
X79.1
Y0.5
X59.9
Y4.6
X42.3
Y0.5
X33.783
Z-2.1
X31.783
Z-3.15
X23.1
Y4.6
X0.5
Y14.514
Z-2.1
Y16.514
Z-3.15
Y27.133
X4.6
Y47.667
X0.5
Y57.891
Z-2.1
Y59.891
Z-3.15
Y70.2
X23.1
Y74.3
X32.122
Z-2.1
X34.122
Z-3.15
X42.3
Y70.2
X59.9
Y74.3
X79.1
Y70.2
X96.7
Y74.3
X105.958
Z-2.1
X107.958
Z-3.15
X115.9
Y70.2
X138.5
Y58.58
Z-2.1
Y56.58
Z-3.15
Y47.667
X134.4
Y27.133
X138.5
Y16.944
Z-2.1
Y14.943
Z-3.15
Y4.6
X115.9
Y0.5
Z-4.1
X107.27
Z-2.1
X105.27
Z-4.1
X96.7
Y4.6
X79.1
Y0.5
X59.9
Y4.6
X42.3
Y0.5
X33.783
Z-2.1
X31.783
Z-4.1
X23.1
Y4.6
X0.5
Y14.514
Z-2.1
Y16.514
Z-4.1
Y27.133
X4.6
Y47.667
X0.5
Y57.891
Z-2.1
Y59.891
Z-4.1
Y70.2
X23.1
Y74.3
X32.122
Z-2.1
X34.122
Z-4.1
X42.3
Y70.2
X59.9
Y74.3
X79.1
Y70.2
X96.7
Y74.3
X105.958
Z-2.1
X107.958
Z-4.1
X115.9
Y70.2
X138.5
Y58.58
Z-2.1
Y56.58
Z-4.1
Y47.667
X134.4
Y27.133
X138.5
Y16.944
Z-2.1
Y14.943
Z-4.1
Y4.6
X115.9
Y0.5
Z15

G28 G91 Z0
G90
G28 G91 X0 Y0
G90
M5
M30
