(FrontGlass)
G90 G94
G17
G21
(When using Fusion for Personal Use, the feedrate of rapid)
(moves is reduced to match the feedrate of cutting moves,)
(which can increase machining time. Unrestricted rapid moves)
(are available with a Fusion Subscription.)
G28 G91 Z0
G90

(2D Contour3)
S10000 M3
G17 G90 G94
G54
G0 X1.3 Y67.8
Z10
G1 Z5 F200
Z0.2 F100
Z-0.55
X130.1 F200
G2 X131.4 Y66.5 I0 J-1.3
G1 Y1.3
G2 X130.1 Y0 I-1.3 J0
G1 X1.3
G2 X0 Y1.3 I0 J1.3
G1 Y66.5
G2 X1.3 Y67.8 I1.3 J0
G1 Z-1.1 F100
X130.1 F200
G2 X131.4 Y66.5 I0 J-1.3
G1 Y1.3
G2 X130.1 Y0 I-1.3 J0
G1 X1.3
G2 X0 Y1.3 I0 J1.3
G1 Y66.5
G2 X1.3 Y67.8 I1.3 J0
G1 Z-1.65 F100
X30.843 F200
Z-1.4
X32.843
Z-1.65 F100
X96.348 F200
Z-1.4
X98.348
Z-1.65 F100
X130.1 F200
G2 X131.4 Y66.5 I0 J-1.3
G1 Y36.004
Z-1.4
Y34.004
Z-1.65 F100
Y1.3 F200
G2 X130.1 Y0 I-1.3 J0
G1 X100.557
Z-1.4
X98.557
Z-1.65 F100
X35.052 F200
Z-1.4
X33.052
Z-1.65 F100
X1.3 F200
G2 X0 Y1.3 I0 J1.3
G1 Y31.796
Z-1.4
Y33.796
Z-1.65 F100
Y66.5 F200
G2 X1.3 Y67.8 I1.3 J0
G1 Z-2.2 F100
X30.843 F200
Z-1.4
X32.843
Z-2.2 F100
X96.348 F200
Z-1.4
X98.348
Z-2.2 F100
X130.1 F200
G2 X131.4 Y66.5 I0 J-1.3
G1 Y36.004
Z-1.4
Y34.004
Z-2.2 F100
Y1.3 F200
G2 X130.1 Y0 I-1.3 J0
G1 X100.557
Z-1.4
X98.557
Z-2.2 F100
X35.052 F200
Z-1.4
X33.052
Z-2.2 F100
X1.3 F200
G2 X0 Y1.3 I0 J1.3
G1 Y31.796
Z-1.4
Y33.796
Z-2.2 F100
Y66.5 F200
G2 X1.3 Y67.8 I1.3 J0
G1 Z-2.4 F100
X30.843 F200
Z-1.4
X32.843
Z-2.4 F100
X96.348 F200
Z-1.4
X98.348
Z-2.4 F100
X130.1 F200
G2 X131.4 Y66.5 I0 J-1.3
G1 Y36.004
Z-1.4
Y34.004
Z-2.4 F100
Y1.3 F200
G2 X130.1 Y0 I-1.3 J0
G1 X100.557
Z-1.4
X98.557
Z-2.4 F100
X35.052 F200
Z-1.4
X33.052
Z-2.4 F100
X1.3 F200
G2 X0 Y1.3 I0 J1.3
G1 Y31.796
Z-1.4
Y33.796
Z-2.4 F100
Y66.5 F200
G2 X1.3 Y67.8 I1.3 J0
G1 Z10

G28 G91 Z0
G90
G28 G91 X0 Y0
G90
M5
M30
