(EnclosureLeftRight)
G90 G94
G17
G21
(When using Fusion for Personal Use, the feedrate of rapid)
(moves is reduced to match the feedrate of cutting moves,)
(which can increase machining time. Unrestricted rapid moves)
(are available with a Fusion Subscription.)
G28 G91 Z0
G90

(2D Pocket4)
S10000 M3
G17 G90 G94
G54
G0 X38.645 Y28.7
Z15
G1 Z5 F200
Z2.5
Z-0.55
Y29.761
X38.639 Y29.807
X38.622 Y29.849
X38.594 Y29.885
X38.557 Y29.913
X38.515 Y29.93
X38.47 Y29.936
X38.43
X38.385 Y29.93
X38.343 Y29.913
X38.306 Y29.885
X38.278 Y29.849
X38.261 Y29.807
X38.255 Y29.761
Y28.68
X38.261 Y28.635
X38.278 Y28.593
X38.306 Y28.556
X38.343 Y28.528
X38.385 Y28.511
X38.43 Y28.505
X38.47
X38.515 Y28.511
X38.557 Y28.528
X38.594 Y28.556
X38.622 Y28.593
X38.639 Y28.635
X38.645 Y28.68
Y28.7
G2 X38.895 Y29.075 I0.406 J0
G3 X39.145 Y29.45 I-0.156 J0.375
G1 Y30.117
G3 X38.826 Y30.436 I-0.319 J0
G1 X38.074
G3 X37.755 Y30.117 I0 J-0.319
G1 Y28.324
G3 X38.074 Y28.005 I0.319 J0
G1 X38.826
G3 X39.145 Y28.324 I0 J0.319
G1 Y29.45
G2 X39.395 Y29.825 I0.406 J0
G3 X39.645 Y30.2 I-0.156 J0.375
G1 Y30.617
G3 X39.326 Y30.936 I-0.319 J0
G1 X37.574
G3 X37.255 Y30.617 I0 J-0.319
G1 Y27.824
G3 X37.574 Y27.505 I0.319 J0
G1 X39.326
G3 X39.645 Y27.824 I0 J0.319
G1 Y30.2
G2 X39.897 Y30.579 I0.41 J0
G3 X40.15 Y30.958 I-0.158 J0.379
G1 Y31.441
X36.75
Y27
X40.15
Y30.958
G3 X39.759 Y31.016 I-0.2 J0
G1 X39.036 Y28.642
G2 X38.645 Y28.7 I-0.191 J0.058
G1 Z-1.1
Y29.761
X38.639 Y29.807
X38.622 Y29.849
X38.594 Y29.885
X38.557 Y29.913
X38.515 Y29.93
X38.47 Y29.936
X38.43
X38.385 Y29.93
X38.343 Y29.913
X38.306 Y29.885
X38.278 Y29.849
X38.261 Y29.807
X38.255 Y29.761
Y28.68
X38.261 Y28.635
X38.278 Y28.593
X38.306 Y28.556
X38.343 Y28.528
X38.385 Y28.511
X38.43 Y28.505
X38.47
X38.515 Y28.511
X38.557 Y28.528
X38.594 Y28.556
X38.622 Y28.593
X38.639 Y28.635
X38.645 Y28.68
Y28.7
G2 X38.895 Y29.075 I0.406 J0
G3 X39.145 Y29.45 I-0.156 J0.375
G1 Y30.117
G3 X38.826 Y30.436 I-0.319 J0
G1 X38.074
G3 X37.755 Y30.117 I0 J-0.319
G1 Y28.324
G3 X38.074 Y28.005 I0.319 J0
G1 X38.826
G3 X39.145 Y28.324 I0 J0.319
G1 Y29.45
G2 X39.395 Y29.825 I0.406 J0
G3 X39.645 Y30.2 I-0.156 J0.375
G1 Y30.617
G3 X39.326 Y30.936 I-0.319 J0
G1 X37.574
G3 X37.255 Y30.617 I0 J-0.319
G1 Y27.824
G3 X37.574 Y27.505 I0.319 J0
G1 X39.326
G3 X39.645 Y27.824 I0 J0.319
G1 Y30.2
G2 X39.897 Y30.579 I0.41 J0
G3 X40.15 Y30.958 I-0.158 J0.379
G1 Y31.441
X36.75
Y27
X40.15
Y30.958
Z5
X106.95 Y29.936
Z2.5
Z-0.55
X106.93
X106.885 Y29.93
X106.843 Y29.913
X106.806 Y29.885
X106.778 Y29.849
X106.761 Y29.807
X106.755 Y29.761
Y28.765
G3 X107.145 Y28.765 I0.195 J0
G1 Y29.761
X107.139 Y29.807
X107.122 Y29.849
X107.094 Y29.885
X107.057 Y29.913
X107.015 Y29.93
X106.97 Y29.936
X106.95
G2 X106.661 Y30.19 I0 J0.292
G3 X106.28 Y30.241 I-0.197 J-0.026
G1 X106.261 Y30.18
X106.255 Y30.117
Y28.324
G3 X106.574 Y28.005 I0.319 J0
G1 X107.326
G3 X107.645 Y28.324 I0 J0.319
G1 Y30.117
G3 X107.326 Y30.436 I-0.319 J0
G1 X106.574
G3 X106.28 Y30.241 I0 J-0.319
G2 X105.986 Y29.951 I-0.497 J0.209
G3 X105.755 Y29.608 I0.139 J-0.343
G1 Y27.824
G3 X106.074 Y27.505 I0.319 J0
G1 X107.826
G3 X108.145 Y27.824 I0 J0.319
G1 Y30.617
G3 X107.826 Y30.936 I-0.319 J0
G1 X106.074
G3 X105.755 Y30.617 I0 J-0.319
G1 Y29.608
G2 X105.503 Y29.229 I-0.41 J0
G3 X105.25 Y28.85 I0.158 J-0.379
G1 Y27
X108.65
Y31.441
X105.25
Y28.85
G3 X105.674 Y28.648 I0.26 J0
G1 X106.59 Y29.393
X106.81 Y29.606
X107 Y29.829
X107.013 Y29.855
X107.014 Y29.885
X107.001 Y29.911
X106.979 Y29.93
X106.95 Y29.936
Z-1.1
X106.93
X106.885 Y29.93
X106.843 Y29.913
X106.806 Y29.885
X106.778 Y29.849
X106.761 Y29.807
X106.755 Y29.761
Y28.765
G3 X107.145 Y28.765 I0.195 J0
G1 Y29.761
X107.139 Y29.807
X107.122 Y29.849
X107.094 Y29.885
X107.057 Y29.913
X107.015 Y29.93
X106.97 Y29.936
X106.95
G2 X106.661 Y30.19 I0 J0.292
G3 X106.28 Y30.241 I-0.197 J-0.026
G1 X106.261 Y30.18
X106.255 Y30.117
Y28.324
G3 X106.574 Y28.005 I0.319 J0
G1 X107.326
G3 X107.645 Y28.324 I0 J0.319
G1 Y30.117
G3 X107.326 Y30.436 I-0.319 J0
G1 X106.574
G3 X106.28 Y30.241 I0 J-0.319
G2 X105.986 Y29.951 I-0.497 J0.209
G3 X105.755 Y29.608 I0.139 J-0.343
G1 Y27.824
G3 X106.074 Y27.505 I0.319 J0
G1 X107.826
G3 X108.145 Y27.824 I0 J0.319
G1 Y30.617
G3 X107.826 Y30.936 I-0.319 J0
G1 X106.074
G3 X105.755 Y30.617 I0 J-0.319
G1 Y29.608
G2 X105.503 Y29.229 I-0.41 J0
G3 X105.25 Y28.85 I0.158 J-0.379
G1 Y27
X108.65
Y31.441
X105.25
Y28.85
Z15
(When using Fusion for Personal Use, the feedrate of rapid)
(moves is reduced to match the feedrate of cutting moves,)
(which can increase machining time. Unrestricted rapid moves)
(are available with a Fusion Subscription.)

(2D Pocket5)
G0 X72.594 Y59.8
G1 Z15 F200
Z5
Z0.2
Z-0.8
Y59.796
Y57.294
X72.6 Y57.257
X72.619 Y57.226
X72.647 Y57.202
X72.682 Y57.189
X72.718
X72.753 Y57.202
X72.781 Y57.226
X72.8 Y57.257
X72.806 Y57.294
Y59.794
G3 X72.605 Y59.994 I-0.2 J0
G1 X72.299 Y59.992
G3 X72.1 Y59.792 I0.001 J-0.2
G1 Y56.6
X73.3
Y58.4
Y59.791
G3 X73.106 Y59.991 I-0.2 J0
G1 X72.8 Y60
G3 X72.594 Y59.8 I-0.006 J-0.2
G1 Z-1.6
Y59.796
Y57.294
X72.6 Y57.257
X72.619 Y57.226
X72.647 Y57.202
X72.682 Y57.189
X72.718
X72.753 Y57.202
X72.781 Y57.226
X72.8 Y57.257
X72.806 Y57.294
Y59.794
G3 X72.605 Y59.994 I-0.2 J0
G1 X72.299 Y59.992
G3 X72.1 Y59.792 I0.001 J-0.2
G1 Y56.6
X73.3
Y58.4
Y59.791
Z5
X127.894 Y59.8
Z0.2
Z-0.8
Y59.796
Y57.294
X127.9 Y57.257
X127.919 Y57.226
X127.947 Y57.202
X127.982 Y57.189
X128.018
X128.053 Y57.202
X128.081 Y57.226
X128.1 Y57.257
X128.106 Y57.294
Y59.794
G3 X127.905 Y59.994 I-0.2 J0
G1 X127.599 Y59.992
G3 X127.4 Y59.792 I0.001 J-0.2
G1 Y56.6
X128.6
Y58.4
Y59.791
G3 X128.406 Y59.991 I-0.2 J0
G1 X128.1 Y60
G3 X127.894 Y59.8 I-0.006 J-0.2
G1 Z-1.6
Y59.796
Y57.294
X127.9 Y57.257
X127.919 Y57.226
X127.947 Y57.202
X127.982 Y57.189
X128.018
X128.053 Y57.202
X128.081 Y57.226
X128.1 Y57.257
X128.106 Y57.294
Y59.794
G3 X127.905 Y59.994 I-0.2 J0
G1 X127.599 Y59.992
G3 X127.4 Y59.792 I0.001 J-0.2
G1 Y56.6
X128.6
Y58.4
Y59.791
Z5
X17.294 Y59.8
Z0.2
Z-0.8
Y59.796
Y57.294
X17.3 Y57.257
X17.319 Y57.226
X17.347 Y57.202
X17.382 Y57.189
X17.418
X17.453 Y57.202
X17.481 Y57.226
X17.5 Y57.257
X17.506 Y57.294
Y59.794
G3 X17.305 Y59.994 I-0.2 J0
G1 X16.999 Y59.992
G3 X16.8 Y59.792 I0.001 J-0.2
G1 Y56.6
X18
Y58.4
Y59.791
G3 X17.806 Y59.991 I-0.2 J0
G1 X17.5 Y60
G3 X17.294 Y59.8 I-0.006 J-0.2
G1 Z-1.6
Y59.796
Y57.294
X17.3 Y57.257
X17.319 Y57.226
X17.347 Y57.202
X17.382 Y57.189
X17.418
X17.453 Y57.202
X17.481 Y57.226
X17.5 Y57.257
X17.506 Y57.294
Y59.794
G3 X17.305 Y59.994 I-0.2 J0
G1 X16.999 Y59.992
G3 X16.8 Y59.792 I0.001 J-0.2
G1 Y56.6
X18
Y58.4
Y59.791
Z15
(When using Fusion for Personal Use, the feedrate of rapid)
(moves is reduced to match the feedrate of cutting moves,)
(which can increase machining time. Unrestricted rapid moves)
(are available with a Fusion Subscription.)

(2D Contour10)
G0 X1 Y58.9
G1 Z15 F200
Z5
Z0.2
Z-1.05
X144.4
G2 X144.9 Y58.4 I0 J-0.5
G1 Y39.267
G2 X144.4 Y38.767 I-0.5 J0
G1 X141.7
Y20.633
X144.4
G2 X144.9 Y20.133 I0 J-0.5
G1 Y1
G2 X144.4 Y0.5 I-0.5 J0
G1 X115.72
G2 X115.22 Y1 I0 J0.5
G1 Y3.7
X87.54
Y1
G2 X87.04 Y0.5 I-0.5 J0
G1 X58.36
G2 X57.86 Y1 I0 J0.5
G1 Y3.7
X30.18
Y1
G2 X29.68 Y0.5 I-0.5 J0
G1 X1
G2 X0.5 Y1 I0 J0.5
G1 Y20.133
G2 X1 Y20.633 I0.5 J0
G1 X3.7
Y38.767
X1
G2 X0.5 Y39.267 I0 J0.5
G1 Y58.4
G2 X1 Y58.9 I0.5 J0
G1 Z-2.1
X42.77
Z-1.6
X44.77
Z-2.1
X101.469
Z-1.6
X103.469
Z-2.1
X144.4
G2 X144.9 Y58.4 I0 J-0.5
G1 Y39.267
G2 X144.4 Y38.767 I-0.5 J0
G1 X141.7
Y30.912
Z-1.6
Y28.912
Z-2.1
Y20.633
X144.4
G2 X144.9 Y20.133 I0 J-0.5
G1 Y1
G2 X144.4 Y0.5 I-0.5 J0
G1 X115.72
G2 X115.22 Y1 I0 J0.5
G1 Y3.7
X104.078
Z-1.6
X102.078
Z-2.1
X87.54
Y1
G2 X87.04 Y0.5 I-0.5 J0
G1 X58.36
G2 X57.86 Y1 I0 J0.5
G1 Y3.7
X45.748
Z-1.6
X43.748
Z-2.1
X30.18
Y1
G2 X29.68 Y0.5 I-0.5 J0
G1 X1
G2 X0.5 Y1 I0 J0.5
G1 Y20.133
G2 X1 Y20.633 I0.5 J0
G1 X3.7
Y29.463
Z-1.6
Y31.463
Z-2.1
Y38.767
X1
G2 X0.5 Y39.267 I0 J0.5
G1 Y58.4
G2 X1 Y58.9 I0.5 J0
G1 Z-2.65
X42.77
Z-1.6
X44.77
Z-2.65
X101.469
Z-1.6
X103.469
Z-2.65
X144.4
G2 X144.9 Y58.4 I0 J-0.5
G1 Y39.267
G2 X144.4 Y38.767 I-0.5 J0
G1 X141.7
Y30.912
Z-1.6
Y28.912
Z-2.65
Y20.633
X144.4
G2 X144.9 Y20.133 I0 J-0.5
G1 Y1
G2 X144.4 Y0.5 I-0.5 J0
G1 X115.72
G2 X115.22 Y1 I0 J0.5
G1 Y3.7
X104.078
Z-1.6
X102.078
Z-2.65
X87.54
Y1
G2 X87.04 Y0.5 I-0.5 J0
G1 X58.36
G2 X57.86 Y1 I0 J0.5
G1 Y3.7
X45.748
Z-1.6
X43.748
Z-2.65
X30.18
Y1
G2 X29.68 Y0.5 I-0.5 J0
G1 X1
G2 X0.5 Y1 I0 J0.5
G1 Y20.133
G2 X1 Y20.633 I0.5 J0
G1 X3.7
Y29.463
Z-1.6
Y31.463
Z-2.65
Y38.767
X1
G2 X0.5 Y39.267 I0 J0.5
G1 Y58.4
G2 X1 Y58.9 I0.5 J0
G1 Z-3.2
X42.77
Z-1.6
X44.77
Z-3.2
X101.469
Z-1.6
X103.469
Z-3.2
X144.4
G2 X144.9 Y58.4 I0 J-0.5
G1 Y39.267
G2 X144.4 Y38.767 I-0.5 J0
G1 X141.7
Y30.912
Z-1.6
Y28.912
Z-3.2
Y20.633
X144.4
G2 X144.9 Y20.133 I0 J-0.5
G1 Y1
G2 X144.4 Y0.5 I-0.5 J0
G1 X115.72
G2 X115.22 Y1 I0 J0.5
G1 Y3.7
X104.078
Z-1.6
X102.078
Z-3.2
X87.54
Y1
G2 X87.04 Y0.5 I-0.5 J0
G1 X58.36
G2 X57.86 Y1 I0 J0.5
G1 Y3.7
X45.748
Z-1.6
X43.748
Z-3.2
X30.18
Y1
G2 X29.68 Y0.5 I-0.5 J0
G1 X1
G2 X0.5 Y1 I0 J0.5
G1 Y20.133
G2 X1 Y20.633 I0.5 J0
G1 X3.7
Y29.463
Z-1.6
Y31.463
Z-3.2
Y38.767
X1
G2 X0.5 Y39.267 I0 J0.5
G1 Y58.4
G2 X1 Y58.9 I0.5 J0
G1 Z15

G28 G91 Z0
G90
G28 G91 X0 Y0
G90
M5
M30
