(EnclosureTopBottom)
G90 G94
G17
G21
(When using Fusion for Personal Use, the feedrate of rapid)
(moves is reduced to match the feedrate of cutting moves,)
(which can increase machining time. Unrestricted rapid moves)
(are available with a Fusion Subscription.)
G28 G91 Z0
G90

(2D Pocket6)
S10000 M3
G17 G90 G94
G54
G0 X103.395 Y29.659
Z15
G1 Z5 F200
Z2.5
Z-0.55
Y30.72
X103.389 Y30.765
X103.372 Y30.807
X103.344 Y30.844
X103.307 Y30.872
X103.265 Y30.889
X103.22 Y30.895
X103.18
X103.135 Y30.889
X103.093 Y30.872
X103.056 Y30.844
X103.028 Y30.807
X103.011 Y30.765
X103.005 Y30.72
Y29.639
X103.011 Y29.593
X103.028 Y29.551
X103.056 Y29.515
X103.093 Y29.487
X103.135 Y29.47
X103.18 Y29.464
X103.22
X103.265 Y29.47
X103.307 Y29.487
X103.344 Y29.515
X103.372 Y29.551
X103.389 Y29.593
X103.395 Y29.639
Y29.659
G2 X103.645 Y30.034 I0.406 J0
G3 X103.895 Y30.409 I-0.156 J0.375
G1 Y31.076
G3 X103.576 Y31.395 I-0.319 J0
G1 X102.824
G3 X102.505 Y31.076 I0 J-0.319
G1 Y29.283
G3 X102.824 Y28.964 I0.319 J0
G1 X103.576
G3 X103.895 Y29.283 I0 J0.319
G1 Y30.409
G2 X104.145 Y30.784 I0.406 J0
G3 X104.395 Y31.159 I-0.156 J0.375
G1 Y31.576
G3 X104.076 Y31.895 I-0.319 J0
G1 X102.324
G3 X102.005 Y31.576 I0 J-0.319
G1 Y28.783
G3 X102.324 Y28.464 I0.319 J0
G1 X104.076
G3 X104.395 Y28.783 I0 J0.319
G1 Y31.159
G2 X104.647 Y31.537 I0.41 J0
G3 X104.9 Y31.916 I-0.158 J0.379
G1 Y32.4
X101.5
Y27.959
X104.9
Y31.916
G3 X104.509 Y31.974 I-0.2 J0
G1 X103.786 Y29.6
G2 X103.395 Y29.659 I-0.191 J0.058
G1 Z-1.1
Y30.72
X103.389 Y30.765
X103.372 Y30.807
X103.344 Y30.844
X103.307 Y30.872
X103.265 Y30.889
X103.22 Y30.895
X103.18
X103.135 Y30.889
X103.093 Y30.872
X103.056 Y30.844
X103.028 Y30.807
X103.011 Y30.765
X103.005 Y30.72
Y29.639
X103.011 Y29.593
X103.028 Y29.551
X103.056 Y29.515
X103.093 Y29.487
X103.135 Y29.47
X103.18 Y29.464
X103.22
X103.265 Y29.47
X103.307 Y29.487
X103.344 Y29.515
X103.372 Y29.551
X103.389 Y29.593
X103.395 Y29.639
Y29.659
G2 X103.645 Y30.034 I0.406 J0
G3 X103.895 Y30.409 I-0.156 J0.375
G1 Y31.076
G3 X103.576 Y31.395 I-0.319 J0
G1 X102.824
G3 X102.505 Y31.076 I0 J-0.319
G1 Y29.283
G3 X102.824 Y28.964 I0.319 J0
G1 X103.576
G3 X103.895 Y29.283 I0 J0.319
G1 Y30.409
G2 X104.145 Y30.784 I0.406 J0
G3 X104.395 Y31.159 I-0.156 J0.375
G1 Y31.576
G3 X104.076 Y31.895 I-0.319 J0
G1 X102.324
G3 X102.005 Y31.576 I0 J-0.319
G1 Y28.783
G3 X102.324 Y28.464 I0.319 J0
G1 X104.076
G3 X104.395 Y28.783 I0 J0.319
G1 Y31.159
G2 X104.647 Y31.537 I0.41 J0
G3 X104.9 Y31.916 I-0.158 J0.379
G1 Y32.4
X101.5
Y27.959
X104.9
Y31.916
Z5
X169.2 Y30.895
Z2.5
Z-0.55
X169.18
X169.135 Y30.889
X169.093 Y30.872
X169.056 Y30.844
X169.028 Y30.807
X169.011 Y30.765
X169.005 Y30.72
Y29.724
G3 X169.395 Y29.724 I0.195 J0
G1 Y30.72
X169.389 Y30.765
X169.372 Y30.807
X169.344 Y30.844
X169.307 Y30.872
X169.265 Y30.889
X169.22 Y30.895
X169.2
G2 X168.911 Y31.148 I0 J0.292
G3 X168.53 Y31.2 I-0.197 J-0.026
G1 X168.511 Y31.139
X168.505 Y31.076
Y29.283
G3 X168.824 Y28.964 I0.319 J0
G1 X169.576
G3 X169.895 Y29.283 I0 J0.319
G1 Y31.076
G3 X169.576 Y31.395 I-0.319 J0
G1 X168.824
G3 X168.53 Y31.2 I0 J-0.319
G2 X168.236 Y30.909 I-0.497 J0.209
G3 X168.005 Y30.566 I0.139 J-0.343
G1 Y28.783
G3 X168.324 Y28.464 I0.319 J0
G1 X170.076
G3 X170.395 Y28.783 I0 J0.319
G1 Y31.576
G3 X170.076 Y31.895 I-0.319 J0
G1 X168.324
G3 X168.005 Y31.576 I0 J-0.319
G1 Y30.566
G2 X167.753 Y30.187 I-0.41 J0
G3 X167.5 Y29.809 I0.158 J-0.379
G1 Y27.959
X170.9
Y32.4
X167.5
Y29.809
G3 X167.924 Y29.607 I0.26 J0
G1 X168.84 Y30.351
X169.06 Y30.564
X169.25 Y30.788
X169.263 Y30.814
X169.264 Y30.843
X169.251 Y30.87
X169.229 Y30.888
X169.2 Y30.895
Z-1.1
X169.18
X169.135 Y30.889
X169.093 Y30.872
X169.056 Y30.844
X169.028 Y30.807
X169.011 Y30.765
X169.005 Y30.72
Y29.724
G3 X169.395 Y29.724 I0.195 J0
G1 Y30.72
X169.389 Y30.765
X169.372 Y30.807
X169.344 Y30.844
X169.307 Y30.872
X169.265 Y30.889
X169.22 Y30.895
X169.2
G2 X168.911 Y31.148 I0 J0.292
G3 X168.53 Y31.2 I-0.197 J-0.026
G1 X168.511 Y31.139
X168.505 Y31.076
Y29.283
G3 X168.824 Y28.964 I0.319 J0
G1 X169.576
G3 X169.895 Y29.283 I0 J0.319
G1 Y31.076
G3 X169.576 Y31.395 I-0.319 J0
G1 X168.824
G3 X168.53 Y31.2 I0 J-0.319
G2 X168.236 Y30.909 I-0.497 J0.209
G3 X168.005 Y30.566 I0.139 J-0.343
G1 Y28.783
G3 X168.324 Y28.464 I0.319 J0
G1 X170.076
G3 X170.395 Y28.783 I0 J0.319
G1 Y31.576
G3 X170.076 Y31.895 I-0.319 J0
G1 X168.324
G3 X168.005 Y31.576 I0 J-0.319
G1 Y30.566
G2 X167.753 Y30.187 I-0.41 J0
G3 X167.5 Y29.809 I0.158 J-0.379
G1 Y27.959
X170.9
Y32.4
X167.5
Y29.809
Z5
X235.2 Y30.895
Z2.5
Z-0.55
X235.18
X235.135 Y30.889
X235.093 Y30.872
X235.056 Y30.844
X235.028 Y30.807
X235.011 Y30.765
X235.005 Y30.72
Y29.724
G3 X235.395 Y29.724 I0.195 J0
G1 Y30.72
X235.389 Y30.765
X235.372 Y30.807
X235.344 Y30.844
X235.307 Y30.872
X235.265 Y30.889
X235.22 Y30.895
X235.2
G2 X234.911 Y31.148 I0 J0.292
G3 X234.53 Y31.2 I-0.197 J-0.026
G1 X234.511 Y31.139
X234.505 Y31.076
Y29.283
G3 X234.824 Y28.964 I0.319 J0
G1 X235.576
G3 X235.895 Y29.283 I0 J0.319
G1 Y31.076
G3 X235.576 Y31.395 I-0.319 J0
G1 X234.824
G3 X234.53 Y31.2 I0 J-0.319
G2 X234.236 Y30.909 I-0.497 J0.209
G3 X234.005 Y30.566 I0.139 J-0.343
G1 Y28.783
G3 X234.324 Y28.464 I0.319 J0
G1 X236.076
G3 X236.395 Y28.783 I0 J0.319
G1 Y31.576
G3 X236.076 Y31.895 I-0.319 J0
G1 X234.324
G3 X234.005 Y31.576 I0 J-0.319
G1 Y30.566
G2 X233.753 Y30.187 I-0.41 J0
G3 X233.5 Y29.809 I0.158 J-0.379
G1 Y27.959
X236.9
Y32.4
X233.5
Y29.809
G3 X233.924 Y29.607 I0.26 J0
G1 X234.84 Y30.351
X235.06 Y30.564
X235.25 Y30.788
X235.263 Y30.814
X235.264 Y30.843
X235.251 Y30.87
X235.229 Y30.888
X235.2 Y30.895
Z-1.1
X235.18
X235.135 Y30.889
X235.093 Y30.872
X235.056 Y30.844
X235.028 Y30.807
X235.011 Y30.765
X235.005 Y30.72
Y29.724
G3 X235.395 Y29.724 I0.195 J0
G1 Y30.72
X235.389 Y30.765
X235.372 Y30.807
X235.344 Y30.844
X235.307 Y30.872
X235.265 Y30.889
X235.22 Y30.895
X235.2
G2 X234.911 Y31.148 I0 J0.292
G3 X234.53 Y31.2 I-0.197 J-0.026
G1 X234.511 Y31.139
X234.505 Y31.076
Y29.283
G3 X234.824 Y28.964 I0.319 J0
G1 X235.576
G3 X235.895 Y29.283 I0 J0.319
G1 Y31.076
G3 X235.576 Y31.395 I-0.319 J0
G1 X234.824
G3 X234.53 Y31.2 I0 J-0.319
G2 X234.236 Y30.909 I-0.497 J0.209
G3 X234.005 Y30.566 I0.139 J-0.343
G1 Y28.783
G3 X234.324 Y28.464 I0.319 J0
G1 X236.076
G3 X236.395 Y28.783 I0 J0.319
G1 Y31.576
G3 X236.076 Y31.895 I-0.319 J0
G1 X234.324
G3 X234.005 Y31.576 I0 J-0.319
G1 Y30.566
G2 X233.753 Y30.187 I-0.41 J0
G3 X233.5 Y29.809 I0.158 J-0.379
G1 Y27.959
X236.9
Y32.4
X233.5
Y29.809
Z5
X37.2 Y30.895
Z2.5
Z-0.55
X37.18
X37.135 Y30.889
X37.093 Y30.872
X37.056 Y30.844
X37.028 Y30.807
X37.011 Y30.765
X37.005 Y30.72
Y29.724
G3 X37.395 Y29.724 I0.195 J0
G1 Y30.72
X37.389 Y30.765
X37.372 Y30.807
X37.344 Y30.844
X37.307 Y30.872
X37.265 Y30.889
X37.22 Y30.895
X37.2
G2 X36.911 Y31.148 I0 J0.292
G3 X36.53 Y31.2 I-0.197 J-0.026
G1 X36.511 Y31.139
X36.505 Y31.076
Y29.283
G3 X36.824 Y28.964 I0.319 J0
G1 X37.576
G3 X37.895 Y29.283 I0 J0.319
G1 Y31.076
G3 X37.576 Y31.395 I-0.319 J0
G1 X36.824
G3 X36.53 Y31.2 I0 J-0.319
G2 X36.236 Y30.909 I-0.497 J0.209
G3 X36.005 Y30.566 I0.139 J-0.343
G1 Y28.783
G3 X36.324 Y28.464 I0.319 J0
G1 X38.076
G3 X38.395 Y28.783 I0 J0.319
G1 Y31.576
G3 X38.076 Y31.895 I-0.319 J0
G1 X36.324
G3 X36.005 Y31.576 I0 J-0.319
G1 Y30.566
G2 X35.752 Y30.187 I-0.41 J0
G3 X35.5 Y29.809 I0.158 J-0.379
G1 Y27.959
X38.9
Y32.4
X35.5
Y29.809
G3 X35.924 Y29.607 I0.26 J0
G1 X36.84 Y30.351
X37.06 Y30.564
X37.25 Y30.788
X37.263 Y30.814
X37.264 Y30.843
X37.251 Y30.87
X37.229 Y30.888
X37.2 Y30.895
Z-1.1
X37.18
X37.135 Y30.889
X37.093 Y30.872
X37.056 Y30.844
X37.028 Y30.807
X37.011 Y30.765
X37.005 Y30.72
Y29.724
G3 X37.395 Y29.724 I0.195 J0
G1 Y30.72
X37.389 Y30.765
X37.372 Y30.807
X37.344 Y30.844
X37.307 Y30.872
X37.265 Y30.889
X37.22 Y30.895
X37.2
G2 X36.911 Y31.148 I0 J0.292
G3 X36.53 Y31.2 I-0.197 J-0.026
G1 X36.511 Y31.139
X36.505 Y31.076
Y29.283
G3 X36.824 Y28.964 I0.319 J0
G1 X37.576
G3 X37.895 Y29.283 I0 J0.319
G1 Y31.076
G3 X37.576 Y31.395 I-0.319 J0
G1 X36.824
G3 X36.53 Y31.2 I0 J-0.319
G2 X36.236 Y30.909 I-0.497 J0.209
G3 X36.005 Y30.566 I0.139 J-0.343
G1 Y28.783
G3 X36.324 Y28.464 I0.319 J0
G1 X38.076
G3 X38.395 Y28.783 I0 J0.319
G1 Y31.576
G3 X38.076 Y31.895 I-0.319 J0
G1 X36.324
G3 X36.005 Y31.576 I0 J-0.319
G1 Y30.566
G2 X35.752 Y30.187 I-0.41 J0
G3 X35.5 Y29.809 I0.158 J-0.379
G1 Y27.959
X38.9
Y32.4
X35.5
Y29.809
Z15
(When using Fusion for Personal Use, the feedrate of rapid)
(moves is reduced to match the feedrate of cutting moves,)
(which can increase machining time. Unrestricted rapid moves)
(are available with a Fusion Subscription.)

(2D Pocket7)
G0 X96.706 Y-0.404
G1 Z15 F200
Z5
Z0.2
Z-0.8
Y-0.4
Y2.21
X96.699 Y2.247
X96.678 Y2.278
X96.647 Y2.299
X96.61 Y2.306
X96.59
X96.553 Y2.299
X96.522 Y2.278
X96.501 Y2.247
X96.494 Y2.21
Y-0.399
G3 X96.696 Y-0.599 I0.2 J0
G1 X97.002 Y-0.596
G3 X97.2 Y-0.396 I-0.002 J0.2
G1 Y2.8
X96
Y1
Y-0.391
G3 X96.191 Y-0.59 I0.2 J0
G1 X96.497 Y-0.604
G3 X96.706 Y-0.404 I0.009 J0.2
G1 Z-1.6
Y-0.4
Y2.21
X96.699 Y2.247
X96.678 Y2.278
X96.647 Y2.299
X96.61 Y2.306
X96.59
X96.553 Y2.299
X96.522 Y2.278
X96.501 Y2.247
X96.494 Y2.21
Y-0.399
G3 X96.696 Y-0.599 I0.2 J0
G1 X97.002 Y-0.596
G3 X97.2 Y-0.396 I-0.002 J0.2
G1 Y2.8
X96
Y1
Y-0.391
Z5
X17.506 Y-0.404
Z0.2
Z-0.8
Y-0.4
Y2.21
X17.499 Y2.247
X17.478 Y2.278
X17.447 Y2.299
X17.41 Y2.306
X17.39
X17.353 Y2.299
X17.322 Y2.278
X17.301 Y2.247
X17.294 Y2.21
Y-0.399
G3 X17.496 Y-0.599 I0.2 J0
G1 X17.802 Y-0.596
G3 X18 Y-0.396 I-0.002 J0.2
G1 Y2.8
X16.8
Y1
Y-0.391
G3 X16.991 Y-0.59 I0.2 J0
G1 X17.297 Y-0.604
G3 X17.506 Y-0.404 I0.009 J0.2
G1 Z-1.6
Y-0.4
Y2.21
X17.499 Y2.247
X17.478 Y2.278
X17.447 Y2.299
X17.41 Y2.306
X17.39
X17.353 Y2.299
X17.322 Y2.278
X17.301 Y2.247
X17.294 Y2.21
Y-0.399
G3 X17.496 Y-0.599 I0.2 J0
G1 X17.802 Y-0.596
G3 X18 Y-0.396 I-0.002 J0.2
G1 Y2.8
X16.8
Y1
Y-0.391
Z5
X175.906 Y-0.404
Z0.2
Z-0.8
Y-0.4
Y2.21
X175.899 Y2.247
X175.878 Y2.278
X175.847 Y2.299
X175.81 Y2.306
X175.79
X175.753 Y2.299
X175.722 Y2.278
X175.701 Y2.247
X175.694 Y2.21
Y-0.399
G3 X175.896 Y-0.599 I0.2 J0
G1 X176.202 Y-0.596
G3 X176.4 Y-0.396 I-0.002 J0.2
G1 Y2.8
X175.2
Y1
Y-0.391
G3 X175.391 Y-0.59 I0.2 J0
G1 X175.697 Y-0.604
G3 X175.906 Y-0.404 I0.009 J0.2
G1 Z-1.6
Y-0.4
Y2.21
X175.899 Y2.247
X175.878 Y2.278
X175.847 Y2.299
X175.81 Y2.306
X175.79
X175.753 Y2.299
X175.722 Y2.278
X175.701 Y2.247
X175.694 Y2.21
Y-0.399
G3 X175.896 Y-0.599 I0.2 J0
G1 X176.202 Y-0.596
G3 X176.4 Y-0.396 I-0.002 J0.2
G1 Y2.8
X175.2
Y1
Y-0.391
Z5
X255.106 Y-0.404
Z0.2
Z-0.8
Y-0.4
Y2.21
X255.099 Y2.247
X255.078 Y2.278
X255.047 Y2.299
X255.01 Y2.306
X254.99
X254.953 Y2.299
X254.922 Y2.278
X254.901 Y2.247
X254.894 Y2.21
Y-0.399
G3 X255.096 Y-0.599 I0.2 J0
G1 X255.402 Y-0.596
G3 X255.6 Y-0.396 I-0.002 J0.2
G1 Y2.8
X254.4
Y1
Y-0.391
G3 X254.591 Y-0.59 I0.2 J0
G1 X254.897 Y-0.604
G3 X255.106 Y-0.404 I0.009 J0.2
G1 Z-1.6
Y-0.4
Y2.21
X255.099 Y2.247
X255.078 Y2.278
X255.047 Y2.299
X255.01 Y2.306
X254.99
X254.953 Y2.299
X254.922 Y2.278
X254.901 Y2.247
X254.894 Y2.21
Y-0.399
G3 X255.096 Y-0.599 I0.2 J0
G1 X255.402 Y-0.596
G3 X255.6 Y-0.396 I-0.002 J0.2
G1 Y2.8
X254.4
Y1
Y-0.391
Z15
(When using Fusion for Personal Use, the feedrate of rapid)
(moves is reduced to match the feedrate of cutting moves,)
(which can increase machining time. Unrestricted rapid moves)
(are available with a Fusion Subscription.)

(2D Contour9)
G0 X268.2 Y0.5
G1 Z15 F200
Z5
Z0.2
Z-1.05
X4.2
G2 X3.7 Y1 I0 J0.5
G1 Y19.733
X1
G2 X0.5 Y20.233 I0 J0.5
G1 Y39.167
G2 X1 Y39.667 I0.5 J0
G1 X3.7
Y58.4
G2 X4.2 Y58.9 I0.5 J0
G1 X41.914
G2 X42.414 Y58.4 I0 J-0.5
G1 Y55.7
X79.129
Y58.4
G2 X79.629 Y58.9 I0.5 J0
G1 X117.343
G2 X117.843 Y58.4 I0 J-0.5
G1 Y55.7
X154.557
Y58.4
G2 X155.057 Y58.9 I0.5 J0
G1 X192.771
G2 X193.271 Y58.4 I0 J-0.5
G1 Y55.7
X229.986
Y58.4
G2 X230.486 Y58.9 I0.5 J0
G1 X268.2
G2 X268.7 Y58.4 I0 J-0.5
G1 Y39.667
X271.4
G2 X271.9 Y39.167 I0 J-0.5
G1 Y20.233
G2 X271.4 Y19.733 I-0.5 J0
G1 X268.7
Y1
G2 X268.2 Y0.5 I-0.5 J0
G1 Z-2.1
X226.218
Z-1.6
X224.218
Z-2.1
X42.964
Z-1.6
X40.964
Z-2.1
X4.2
G2 X3.7 Y1 I0 J0.5
G1 Y10.503
Z-1.6
Y12.503
Z-2.1
Y19.733
X1
G2 X0.5 Y20.233 I0 J0.5
G1 Y39.167
G2 X1 Y39.667 I0.5 J0
G1 X3.7
Y47.992
Z-1.6
Y49.992
Z-2.1
Y58.4
G2 X4.2 Y58.9 I0.5 J0
G1 X41.914
G2 X42.414 Y58.4 I0 J-0.5
G1 Y55.7
X59.731
Z-1.6
X61.731
Z-2.1
X79.129
Y58.4
G2 X79.629 Y58.9 I0.5 J0
G1 X117.343
G2 X117.843 Y58.4 I0 J-0.5
G1 Y55.7
X154.557
Y58.4
G2 X155.057 Y58.9 I0.5 J0
G1 X192.771
G2 X193.271 Y58.4 I0 J-0.5
G1 Y55.7
X211.168
Z-1.6
X213.168
Z-2.1
X229.986
Y58.4
G2 X230.486 Y58.9 I0.5 J0
G1 X268.2
G2 X268.7 Y58.4 I0 J-0.5
G1 Y49.21
Z-1.6
Y47.21
Z-2.1
Y39.667
X271.4
G2 X271.9 Y39.167 I0 J-0.5
G1 Y20.233
G2 X271.4 Y19.733 I-0.5 J0
G1 X268.7
Y11.155
Z-1.6
Y9.155
Z-2.1
Y1
G2 X268.2 Y0.5 I-0.5 J0
G1 Z-2.65
X226.218
Z-1.6
X224.218
Z-2.65
X42.964
Z-1.6
X40.964
Z-2.65
X4.2
G2 X3.7 Y1 I0 J0.5
G1 Y10.503
Z-1.6
Y12.503
Z-2.65
Y19.733
X1
G2 X0.5 Y20.233 I0 J0.5
G1 Y39.167
G2 X1 Y39.667 I0.5 J0
G1 X3.7
Y47.992
Z-1.6
Y49.992
Z-2.65
Y58.4
G2 X4.2 Y58.9 I0.5 J0
G1 X41.914
G2 X42.414 Y58.4 I0 J-0.5
G1 Y55.7
X59.731
Z-1.6
X61.731
Z-2.65
X79.129
Y58.4
G2 X79.629 Y58.9 I0.5 J0
G1 X117.343
G2 X117.843 Y58.4 I0 J-0.5
G1 Y55.7
X154.557
Y58.4
G2 X155.057 Y58.9 I0.5 J0
G1 X192.771
G2 X193.271 Y58.4 I0 J-0.5
G1 Y55.7
X211.168
Z-1.6
X213.168
Z-2.65
X229.986
Y58.4
G2 X230.486 Y58.9 I0.5 J0
G1 X268.2
G2 X268.7 Y58.4 I0 J-0.5
G1 Y49.21
Z-1.6
Y47.21
Z-2.65
Y39.667
X271.4
G2 X271.9 Y39.167 I0 J-0.5
G1 Y20.233
G2 X271.4 Y19.733 I-0.5 J0
G1 X268.7
Y11.155
Z-1.6
Y9.155
Z-2.65
Y1
G2 X268.2 Y0.5 I-0.5 J0
G1 Z-3.2
X226.218
Z-1.6
X224.218
Z-3.2
X42.964
Z-1.6
X40.964
Z-3.2
X4.2
G2 X3.7 Y1 I0 J0.5
G1 Y10.503
Z-1.6
Y12.503
Z-3.2
Y19.733
X1
G2 X0.5 Y20.233 I0 J0.5
G1 Y39.167
G2 X1 Y39.667 I0.5 J0
G1 X3.7
Y47.992
Z-1.6
Y49.992
Z-3.2
Y58.4
G2 X4.2 Y58.9 I0.5 J0
G1 X41.914
G2 X42.414 Y58.4 I0 J-0.5
G1 Y55.7
X59.731
Z-1.6
X61.731
Z-3.2
X79.129
Y58.4
G2 X79.629 Y58.9 I0.5 J0
G1 X117.343
G2 X117.843 Y58.4 I0 J-0.5
G1 Y55.7
X154.557
Y58.4
G2 X155.057 Y58.9 I0.5 J0
G1 X192.771
G2 X193.271 Y58.4 I0 J-0.5
G1 Y55.7
X211.168
Z-1.6
X213.168
Z-3.2
X229.986
Y58.4
G2 X230.486 Y58.9 I0.5 J0
G1 X268.2
G2 X268.7 Y58.4 I0 J-0.5
G1 Y49.21
Z-1.6
Y47.21
Z-3.2
Y39.667
X271.4
G2 X271.9 Y39.167 I0 J-0.5
G1 Y20.233
G2 X271.4 Y19.733 I-0.5 J0
G1 X268.7
Y11.155
Z-1.6
Y9.155
Z-3.2
Y1
G2 X268.2 Y0.5 I-0.5 J0
G1 Z15

G28 G91 Z0
G90
G28 G91 X0 Y0
G90
M5
M30
