(EnclosureBackNoLightSensor)
G90 G94
G17
G21
(When using Fusion for Personal Use, the feedrate of rapid)
(moves is reduced to match the feedrate of cutting moves,)
(which can increase machining time. Unrestricted rapid moves)
(are available with a Fusion Subscription.)
G28 G91 Z0
G90

(Mount holes)
S10000 M3
G17 G90 G94
G54
G0 X37.8 Y7.2
Z10
G1 Z1 F200
Z0.2
Z-1.05
G3 X36.6 Y7.2 I-0.6 J0
X37.8 Y7.2 I0.6 J0
G1 Z-2.1
G3 X36.6 Y7.2 I-0.6 J0
X37.8 Y7.2 I0.6 J0
G1 Z-2.65
G3 X36.6 Y7.2 I-0.6 J0
X37.8 Y7.2 I0.6 J0
G1 Z-3.2
G3 X36.6 Y7.2 I-0.6 J0
X37.8 Y7.2 I0.6 J0
G1 Z5
X103.8
Z1
Z0.2
Z-1.05
G3 X102.6 Y7.2 I-0.6 J0
X103.8 Y7.2 I0.6 J0
G1 Z-2.1
G3 X102.6 Y7.2 I-0.6 J0
X103.8 Y7.2 I0.6 J0
G1 Z-2.65
G3 X102.6 Y7.2 I-0.6 J0
X103.8 Y7.2 I0.6 J0
G1 Z-3.2
G3 X102.6 Y7.2 I-0.6 J0
X103.8 Y7.2 I0.6 J0
G1 Z5
X169.8
Z1
Z0.2
Z-1.05
G3 X168.6 Y7.2 I-0.6 J0
X169.8 Y7.2 I0.6 J0
G1 Z-2.1
G3 X168.6 Y7.2 I-0.6 J0
X169.8 Y7.2 I0.6 J0
G1 Z-2.65
G3 X168.6 Y7.2 I-0.6 J0
X169.8 Y7.2 I0.6 J0
G1 Z-3.2
G3 X168.6 Y7.2 I-0.6 J0
X169.8 Y7.2 I0.6 J0
G1 Z5
X235.767 Y7.395
Z1
Z0.2
Z-1.05
G3 X234.633 Y7.005 I-0.567 J-0.195
X235.767 Y7.395 I0.567 J0.195
G1 Z-2.1
G3 X234.633 Y7.005 I-0.567 J-0.195
X235.767 Y7.395 I0.567 J0.195
G1 Z-2.65
G3 X234.633 Y7.005 I-0.567 J-0.195
X235.767 Y7.395 I0.567 J0.195
G1 Z-3.2
G3 X234.633 Y7.005 I-0.567 J-0.195
X235.767 Y7.395 I0.567 J0.195
G1 Z5
X265.8 Y38.45
Z1
Z0.2
Z-1.05
G3 X264.6 Y38.45 I-0.6 J0
X265.8 Y38.45 I0.6 J0
G1 Z-2.1
G3 X264.6 Y38.45 I-0.6 J0
X265.8 Y38.45 I0.6 J0
G1 Z-2.65
G3 X264.6 Y38.45 I-0.6 J0
X265.8 Y38.45 I0.6 J0
G1 Z-3.2
G3 X264.6 Y38.45 I-0.6 J0
X265.8 Y38.45 I0.6 J0
G1 Z5
Y106.95
Z1
Z0.2
Z-1.05
G3 X264.6 Y106.95 I-0.6 J0
X265.8 Y106.95 I0.6 J0
G1 Z-2.1
G3 X264.6 Y106.95 I-0.6 J0
X265.8 Y106.95 I0.6 J0
G1 Z-2.65
G3 X264.6 Y106.95 I-0.6 J0
X265.8 Y106.95 I0.6 J0
G1 Z-3.2
G3 X264.6 Y106.95 I-0.6 J0
X265.8 Y106.95 I0.6 J0
G1 Z5
X235.8 Y138.2
Z1
Z0.2
Z-1.05
G3 X234.6 Y138.2 I-0.6 J0
X235.8 Y138.2 I0.6 J0
G1 Z-2.1
G3 X234.6 Y138.2 I-0.6 J0
X235.8 Y138.2 I0.6 J0
G1 Z-2.65
G3 X234.6 Y138.2 I-0.6 J0
X235.8 Y138.2 I0.6 J0
G1 Z-3.2
G3 X234.6 Y138.2 I-0.6 J0
X235.8 Y138.2 I0.6 J0
G1 Z5
X169.8
Z1
Z0.2
Z-1.05
G3 X168.6 Y138.2 I-0.6 J0
X169.8 Y138.2 I0.6 J0
G1 Z-2.1
G3 X168.6 Y138.2 I-0.6 J0
X169.8 Y138.2 I0.6 J0
G1 Z-2.65
G3 X168.6 Y138.2 I-0.6 J0
X169.8 Y138.2 I0.6 J0
G1 Z-3.2
G3 X168.6 Y138.2 I-0.6 J0
X169.8 Y138.2 I0.6 J0
G1 Z5
X103.8
Z1
Z0.2
Z-1.05
G3 X102.6 Y138.2 I-0.6 J0
X103.8 Y138.2 I0.6 J0
G1 Z-2.1
G3 X102.6 Y138.2 I-0.6 J0
X103.8 Y138.2 I0.6 J0
G1 Z-2.65
G3 X102.6 Y138.2 I-0.6 J0
X103.8 Y138.2 I0.6 J0
G1 Z-3.2
G3 X102.6 Y138.2 I-0.6 J0
X103.8 Y138.2 I0.6 J0
G1 Z5
X37.767 Y138.395
Z1
Z0.2
Z-1.05
G3 X36.633 Y138.005 I-0.567 J-0.195
X37.767 Y138.395 I0.567 J0.195
G1 Z-2.1
G3 X36.633 Y138.005 I-0.567 J-0.195
X37.767 Y138.395 I0.567 J0.195
G1 Z-2.65
G3 X36.633 Y138.005 I-0.567 J-0.195
X37.767 Y138.395 I0.567 J0.195
G1 Z-3.2
G3 X36.633 Y138.005 I-0.567 J-0.195
X37.767 Y138.395 I0.567 J0.195
G1 Z5
X7.7 Y106.95
Z1
Z0.2
Z-1.05
G3 X6.7 Y106.95 I-0.5 J0
X7.7 Y106.95 I0.5 J0
G1 Z-2.1
G3 X6.7 Y106.95 I-0.5 J0
X7.7 Y106.95 I0.5 J0
G1 Z-2.65
G3 X6.7 Y106.95 I-0.5 J0
X7.7 Y106.95 I0.5 J0
G1 Z-3.2
G3 X6.7 Y106.95 I-0.5 J0
X7.7 Y106.95 I0.5 J0
G1 Z5
X7.8 Y38.45
Z1
Z0.2
Z-1.05
G3 X6.6 Y38.45 I-0.6 J0
X7.8 Y38.45 I0.6 J0
G1 Z-2.1
G3 X6.6 Y38.45 I-0.6 J0
X7.8 Y38.45 I0.6 J0
G1 Z-2.65
G3 X6.6 Y38.45 I-0.6 J0
X7.8 Y38.45 I0.6 J0
G1 Z-3.2
G3 X6.6 Y38.45 I-0.6 J0
X7.8 Y38.45 I0.6 J0
G1 Z10
(When using Fusion for Personal Use, the feedrate of rapid)
(moves is reduced to match the feedrate of cutting moves,)
(which can increase machining time. Unrestricted rapid moves)
(are available with a Fusion Subscription.)

(Ventilation)
G0 X88.7 Y106.5
G1 Z10 F200
Z1
Z0.2
Z-1.05
Y106.533
X31.7
Y106.467
X88.7
Y106.5
Z-2.1
Y106.533
X31.7
Y106.467
X88.7
Y106.5
Z-2.65
Y106.533
X31.7
Y106.467
X88.7
Y106.5
Z-3.2
Y106.533
X31.7
Y106.467
X88.7
Y106.5
Z5
Y99.417
Z1
Z0.2
Z-1.05
Y99.45
X31.7
Y99.383
X88.7
Y99.417
Z-2.1
Y99.45
X31.7
Y99.383
X88.7
Y99.417
Z-2.65
Y99.45
X31.7
Y99.383
X88.7
Y99.417
Z-3.2
Y99.45
X31.7
Y99.383
X88.7
Y99.417
Z5
Y92.333
Z1
Z0.2
Z-1.05
Y92.367
X31.7
Y92.3
X88.7
Y92.333
Z-2.1
Y92.367
X31.7
Y92.3
X88.7
Y92.333
Z-2.65
Y92.367
X31.7
Y92.3
X88.7
Y92.333
Z-3.2
Y92.367
X31.7
Y92.3
X88.7
Y92.333
Z5
Y85.25
Z1
Z0.2
Z-1.05
Y85.283
X31.7
Y85.217
X88.7
Y85.25
Z-2.1
Y85.283
X31.7
Y85.217
X88.7
Y85.25
Z-2.65
Y85.283
X31.7
Y85.217
X88.7
Y85.25
Z-3.2
Y85.283
X31.7
Y85.217
X88.7
Y85.25
Z5
Y78.167
Z1
Z0.2
Z-1.05
Y78.2
X31.7
Y78.133
X88.7
Y78.167
Z-2.1
Y78.2
X31.7
Y78.133
X88.7
Y78.167
Z-2.65
Y78.2
X31.7
Y78.133
X88.7
Y78.167
Z-3.2
Y78.2
X31.7
Y78.133
X88.7
Y78.167
Z5
X31.733 Y71.05
Z1
Z0.2
Z-1.05
X88.7
Y71.117
X31.7
Y71.05
X31.733
Z-2.1
X88.7
Y71.117
X31.7
Y71.05
X31.733
Z-2.65
X88.7
Y71.117
X31.7
Y71.05
X31.733
Z-3.2
X88.7
Y71.117
X31.7
Y71.05
X31.733
Z5
Y63.967
Z1
Z0.2
Z-1.05
X88.7
Y64.033
X31.7
Y63.967
X31.733
Z-2.1
X88.7
Y64.033
X31.7
Y63.967
X31.733
Z-2.65
X88.7
Y64.033
X31.7
Y63.967
X31.733
Z-3.2
X88.7
Y64.033
X31.7
Y63.967
X31.733
Z5
Y56.95
Z1
Z0.2
Z-1.05
X31.7
Y56.883
X88.7
Y56.95
X31.733
Z-2.1
X31.7
Y56.883
X88.7
Y56.95
X31.733
Z-2.65
X31.7
Y56.883
X88.7
Y56.95
X31.733
Z-3.2
X31.7
Y56.883
X88.7
Y56.95
X31.733
Z5
X88.7 Y49.833
Z1
Z0.2
Z-1.05
Y49.867
X31.7
Y49.8
X88.7
Y49.833
Z-2.1
Y49.867
X31.7
Y49.8
X88.7
Y49.833
Z-2.65
Y49.867
X31.7
Y49.8
X88.7
Y49.833
Z-3.2
Y49.867
X31.7
Y49.8
X88.7
Y49.833
Z10
(When using Fusion for Personal Use, the feedrate of rapid)
(moves is reduced to match the feedrate of cutting moves,)
(which can increase machining time. Unrestricted rapid moves)
(are available with a Fusion Subscription.)

(Power socket)
G0 X53.65 Y7.7
G1 Z10 F200
Z1
Z0.2
Z-1.05
X72.2
Y18.6
X48.2
Y7.7
X53.65
Z-2.1
X59.626
Z-1.2
X61.626
Z-2.1
X72.2
Y18.6
X61.024
Z-1.2
X59.024
Z-2.1
X48.2
Y7.7
X53.65
Z-2.65
X59.626
Z-1.2
X61.626
Z-2.65
X72.2
Y18.6
X61.024
Z-1.2
X59.024
Z-2.65
X48.2
Y7.7
X53.65
Z-3.2
X59.626
Z-1.2
X61.626
Z-3.2
X72.2
Y18.6
X61.024
Z-1.2
X59.024
Z-3.2
X48.2
Y7.7
X53.65
Z10
(When using Fusion for Personal Use, the feedrate of rapid)
(moves is reduced to match the feedrate of cutting moves,)
(which can increase machining time. Unrestricted rapid moves)
(are available with a Fusion Subscription.)

(Outline)
G0 X230.886 Y0.5
G1 Z10 F200
Z1
Z0.2
Z-1.05
X192.371
Y3.7
X155.457
Y1
Y0.5
X116.943
Y3.7
X80.029
Y1
Y0.5
X41.514
Y3.7
X4.2
X3.7
Y29.28
X1
X0.5
Y58.76
X3.7
Y86.64
X1
X0.5
Y116.12
X3.7
Y141.2
Y141.7
X41.514
Y144.4
Y144.9
X80.029
Y141.7
X116.943
Y144.4
Y144.9
X155.457
Y141.7
X192.371
Y144.4
Y144.9
X230.886
Y141.7
X268.2
X268.7
Y116.12
X271.4
X271.9
Y86.64
X268.7
Y58.76
X271.4
X271.9
Y29.28
X268.7
Y4.2
Y3.7
X230.886
Y1
Y0.5
Z-2.1
X192.371
Y3.7
X176.243
Z-1.6
X173.243
Z-2.1
X155.457
Y0.5
X116.943
Y3.7
X101.511
Z-1.6
X98.511
Z-2.1
X80.029
Y0.5
X41.514
Y3.7
X3.7
Y15.508
Z-1.6
Y18.508
Z-2.1
Y29.28
X0.5
Y58.76
X3.7
Y71.146
Z-1.6
Y74.146
Z-2.1
Y86.64
X0.5
Y116.12
X3.7
Y126.275
Z-1.6
Y129.275
Z-2.1
Y141.7
X41.514
Y144.9
X80.029
Y141.7
X99.367
Z-1.6
X102.367
Z-2.1
X116.943
Y144.9
X155.457
Y141.7
X174.195
Z-1.6
X177.195
Z-2.1
X192.371
Y144.9
X230.886
Y141.7
X268.7
Y129.328
Z-1.6
Y126.328
Z-2.1
Y116.12
X271.9
Y86.64
X268.7
Y73.069
Z-1.6
Y70.069
Z-2.1
Y58.76
X271.9
Y29.28
X268.7
Y18.923
Z-1.6
Y15.923
Z-2.1
Y3.7
X230.886
Y0.5
Z-2.65
X192.371
Y3.7
X176.243
Z-1.6
X173.243
Z-2.65
X155.457
Y0.5
X116.943
Y3.7
X101.511
Z-1.6
X98.511
Z-2.65
X80.029
Y0.5
X41.514
Y3.7
X3.7
Y15.508
Z-1.6
Y18.508
Z-2.65
Y29.28
X0.5
Y58.76
X3.7
Y71.146
Z-1.6
Y74.146
Z-2.65
Y86.64
X0.5
Y116.12
X3.7
Y126.275
Z-1.6
Y129.275
Z-2.65
Y141.7
X41.514
Y144.9
X80.029
Y141.7
X99.367
Z-1.6
X102.367
Z-2.65
X116.943
Y144.9
X155.457
Y141.7
X174.195
Z-1.6
X177.195
Z-2.65
X192.371
Y144.9
X230.886
Y141.7
X268.7
Y129.328
Z-1.6
Y126.328
Z-2.65
Y116.12
X271.9
Y86.64
X268.7
Y73.069
Z-1.6
Y70.069
Z-2.65
Y58.76
X271.9
Y29.28
X268.7
Y18.923
Z-1.6
Y15.923
Z-2.65
Y3.7
X230.886
Y0.5
Z-3.2
X192.371
Y3.7
X176.243
Z-1.6
X173.243
Z-3.2
X155.457
Y0.5
X116.943
Y3.7
X101.511
Z-1.6
X98.511
Z-3.2
X80.029
Y0.5
X41.514
Y3.7
X3.7
Y15.508
Z-1.6
Y18.508
Z-3.2
Y29.28
X0.5
Y58.76
X3.7
Y71.146
Z-1.6
Y74.146
Z-3.2
Y86.64
X0.5
Y116.12
X3.7
Y126.275
Z-1.6
Y129.275
Z-3.2
Y141.7
X41.514
Y144.9
X80.029
Y141.7
X99.367
Z-1.6
X102.367
Z-3.2
X116.943
Y144.9
X155.457
Y141.7
X174.195
Z-1.6
X177.195
Z-3.2
X192.371
Y144.9
X230.886
Y141.7
X268.7
Y129.328
Z-1.6
Y126.328
Z-3.2
Y116.12
X271.9
Y86.64
X268.7
Y73.069
Z-1.6
Y70.069
Z-3.2
Y58.76
X271.9
Y29.28
X268.7
Y18.923
Z-1.6
Y15.923
Z-3.2
Y3.7
X230.886
Y0.5
Z10

G28 G91 Z0
G90
G28 G91 X0 Y0
G90
M5
M30
