(EnclosureTopBottom)
G90 G94
G17
G21
(When using Fusion for Personal Use, the feedrate of rapid)
(moves is reduced to match the feedrate of cutting moves,)
(which can increase machining time. Unrestricted rapid moves)
(are available with a Fusion Subscription.)
G28 G91 Z0
G90

(2D Pocket6)
S10000 M3
G17 G90 G94
G54
G0 X103.395 Y28.7
Z15
G1 Z5 F200
Z2.5
Z-0.55
Y29.761
X103.389 Y29.807
X103.372 Y29.849
X103.344 Y29.885
X103.307 Y29.913
X103.265 Y29.93
X103.22 Y29.936
X103.18
X103.135 Y29.93
X103.093 Y29.913
X103.056 Y29.885
X103.028 Y29.849
X103.011 Y29.807
X103.005 Y29.761
Y28.68
X103.011 Y28.635
X103.028 Y28.593
X103.056 Y28.556
X103.093 Y28.528
X103.135 Y28.511
X103.18 Y28.505
X103.22
X103.265 Y28.511
X103.307 Y28.528
X103.344 Y28.556
X103.372 Y28.593
X103.389 Y28.635
X103.395 Y28.68
Y28.7
G2 X103.645 Y29.075 I0.406 J0
G3 X103.895 Y29.45 I-0.156 J0.375
G1 Y30.117
G3 X103.576 Y30.436 I-0.319 J0
G1 X102.824
G3 X102.505 Y30.117 I0 J-0.319
G1 Y28.324
G3 X102.824 Y28.005 I0.319 J0
G1 X103.576
G3 X103.895 Y28.324 I0 J0.319
G1 Y29.45
G2 X104.145 Y29.825 I0.406 J0
G3 X104.395 Y30.2 I-0.156 J0.375
G1 Y30.617
G3 X104.076 Y30.936 I-0.319 J0
G1 X102.324
G3 X102.005 Y30.617 I0 J-0.319
G1 Y27.824
G3 X102.324 Y27.505 I0.319 J0
G1 X104.076
G3 X104.395 Y27.824 I0 J0.319
G1 Y30.2
G2 X104.647 Y30.579 I0.41 J0
G3 X104.9 Y30.958 I-0.158 J0.379
G1 Y31.441
X101.5
Y27
X104.9
Y30.958
G3 X104.614 Y31.059 I-0.161 J0
G1 X104.187 Y30.531
X103.292 Y28.872
X103.266 Y28.709
X103.268 Y28.679
X103.285 Y28.653
X103.311 Y28.638
X103.341 Y28.636
X103.368 Y28.648
X103.388 Y28.671
X103.395 Y28.7
Z-1.1
Y29.761
X103.389 Y29.807
X103.372 Y29.849
X103.344 Y29.885
X103.307 Y29.913
X103.265 Y29.93
X103.22 Y29.936
X103.18
X103.135 Y29.93
X103.093 Y29.913
X103.056 Y29.885
X103.028 Y29.849
X103.011 Y29.807
X103.005 Y29.761
Y28.68
X103.011 Y28.635
X103.028 Y28.593
X103.056 Y28.556
X103.093 Y28.528
X103.135 Y28.511
X103.18 Y28.505
X103.22
X103.265 Y28.511
X103.307 Y28.528
X103.344 Y28.556
X103.372 Y28.593
X103.389 Y28.635
X103.395 Y28.68
Y28.7
G2 X103.645 Y29.075 I0.406 J0
G3 X103.895 Y29.45 I-0.156 J0.375
G1 Y30.117
G3 X103.576 Y30.436 I-0.319 J0
G1 X102.824
G3 X102.505 Y30.117 I0 J-0.319
G1 Y28.324
G3 X102.824 Y28.005 I0.319 J0
G1 X103.576
G3 X103.895 Y28.324 I0 J0.319
G1 Y29.45
G2 X104.145 Y29.825 I0.406 J0
G3 X104.395 Y30.2 I-0.156 J0.375
G1 Y30.617
G3 X104.076 Y30.936 I-0.319 J0
G1 X102.324
G3 X102.005 Y30.617 I0 J-0.319
G1 Y27.824
G3 X102.324 Y27.505 I0.319 J0
G1 X104.076
G3 X104.395 Y27.824 I0 J0.319
G1 Y30.2
G2 X104.647 Y30.579 I0.41 J0
G3 X104.9 Y30.958 I-0.158 J0.379
G1 Y31.441
X101.5
Y27
X104.9
Y30.958
Z5
X169.2 Y29.936
Z2.5
Z-0.55
X169.18
X169.135 Y29.93
X169.093 Y29.913
X169.056 Y29.885
X169.028 Y29.849
X169.011 Y29.807
X169.005 Y29.761
Y28.765
G3 X169.395 Y28.765 I0.195 J0
G1 Y29.761
X169.389 Y29.807
X169.372 Y29.849
X169.344 Y29.885
X169.307 Y29.913
X169.265 Y29.93
X169.22 Y29.936
X169.2
G2 X168.911 Y30.19 I0 J0.292
G3 X168.53 Y30.241 I-0.197 J-0.026
G1 X168.511 Y30.18
X168.505 Y30.117
Y28.324
G3 X168.824 Y28.005 I0.319 J0
G1 X169.576
G3 X169.895 Y28.324 I0 J0.319
G1 Y30.117
G3 X169.576 Y30.436 I-0.319 J0
G1 X168.824
G3 X168.53 Y30.241 I0 J-0.319
G2 X168.236 Y29.951 I-0.497 J0.209
G3 X168.005 Y29.608 I0.139 J-0.343
G1 Y27.824
G3 X168.324 Y27.505 I0.319 J0
G1 X170.076
G3 X170.395 Y27.824 I0 J0.319
G1 Y30.617
G3 X170.076 Y30.936 I-0.319 J0
G1 X168.324
G3 X168.005 Y30.617 I0 J-0.319
G1 Y29.608
G2 X167.753 Y29.229 I-0.41 J0
G3 X167.5 Y28.85 I0.158 J-0.379
G1 Y27
X170.9
Y31.441
X167.5
Y28.85
G3 X167.924 Y28.648 I0.26 J0
G1 X168.84 Y29.393
X169.06 Y29.606
X169.25 Y29.829
X169.263 Y29.855
X169.264 Y29.885
X169.251 Y29.911
X169.229 Y29.93
X169.2 Y29.936
Z-1.1
X169.18
X169.135 Y29.93
X169.093 Y29.913
X169.056 Y29.885
X169.028 Y29.849
X169.011 Y29.807
X169.005 Y29.761
Y28.765
G3 X169.395 Y28.765 I0.195 J0
G1 Y29.761
X169.389 Y29.807
X169.372 Y29.849
X169.344 Y29.885
X169.307 Y29.913
X169.265 Y29.93
X169.22 Y29.936
X169.2
G2 X168.911 Y30.19 I0 J0.292
G3 X168.53 Y30.241 I-0.197 J-0.026
G1 X168.511 Y30.18
X168.505 Y30.117
Y28.324
G3 X168.824 Y28.005 I0.319 J0
G1 X169.576
G3 X169.895 Y28.324 I0 J0.319
G1 Y30.117
G3 X169.576 Y30.436 I-0.319 J0
G1 X168.824
G3 X168.53 Y30.241 I0 J-0.319
G2 X168.236 Y29.951 I-0.497 J0.209
G3 X168.005 Y29.608 I0.139 J-0.343
G1 Y27.824
G3 X168.324 Y27.505 I0.319 J0
G1 X170.076
G3 X170.395 Y27.824 I0 J0.319
G1 Y30.617
G3 X170.076 Y30.936 I-0.319 J0
G1 X168.324
G3 X168.005 Y30.617 I0 J-0.319
G1 Y29.608
G2 X167.753 Y29.229 I-0.41 J0
G3 X167.5 Y28.85 I0.158 J-0.379
G1 Y27
X170.9
Y31.441
X167.5
Y28.85
Z5
X235.2 Y29.936
Z2.5
Z-0.55
X235.18
X235.135 Y29.93
X235.093 Y29.913
X235.056 Y29.885
X235.028 Y29.849
X235.011 Y29.807
X235.005 Y29.761
Y28.765
G3 X235.395 Y28.765 I0.195 J0
G1 Y29.761
X235.389 Y29.807
X235.372 Y29.849
X235.344 Y29.885
X235.307 Y29.913
X235.265 Y29.93
X235.22 Y29.936
X235.2
G2 X234.911 Y30.19 I0 J0.292
G3 X234.53 Y30.241 I-0.197 J-0.026
G1 X234.511 Y30.18
X234.505 Y30.117
Y28.324
G3 X234.824 Y28.005 I0.319 J0
G1 X235.576
G3 X235.895 Y28.324 I0 J0.319
G1 Y30.117
G3 X235.576 Y30.436 I-0.319 J0
G1 X234.824
G3 X234.53 Y30.241 I0 J-0.319
G2 X234.236 Y29.951 I-0.497 J0.209
G3 X234.005 Y29.608 I0.139 J-0.343
G1 Y27.824
G3 X234.324 Y27.505 I0.319 J0
G1 X236.076
G3 X236.395 Y27.824 I0 J0.319
G1 Y30.617
G3 X236.076 Y30.936 I-0.319 J0
G1 X234.324
G3 X234.005 Y30.617 I0 J-0.319
G1 Y29.608
G2 X233.753 Y29.229 I-0.41 J0
G3 X233.5 Y28.85 I0.158 J-0.379
G1 Y27
X236.9
Y31.441
X233.5
Y28.85
G3 X233.924 Y28.648 I0.26 J0
G1 X234.84 Y29.393
X235.06 Y29.606
X235.25 Y29.829
X235.263 Y29.855
X235.264 Y29.885
X235.251 Y29.911
X235.229 Y29.93
X235.2 Y29.936
Z-1.1
X235.18
X235.135 Y29.93
X235.093 Y29.913
X235.056 Y29.885
X235.028 Y29.849
X235.011 Y29.807
X235.005 Y29.761
Y28.765
G3 X235.395 Y28.765 I0.195 J0
G1 Y29.761
X235.389 Y29.807
X235.372 Y29.849
X235.344 Y29.885
X235.307 Y29.913
X235.265 Y29.93
X235.22 Y29.936
X235.2
G2 X234.911 Y30.19 I0 J0.292
G3 X234.53 Y30.241 I-0.197 J-0.026
G1 X234.511 Y30.18
X234.505 Y30.117
Y28.324
G3 X234.824 Y28.005 I0.319 J0
G1 X235.576
G3 X235.895 Y28.324 I0 J0.319
G1 Y30.117
G3 X235.576 Y30.436 I-0.319 J0
G1 X234.824
G3 X234.53 Y30.241 I0 J-0.319
G2 X234.236 Y29.951 I-0.497 J0.209
G3 X234.005 Y29.608 I0.139 J-0.343
G1 Y27.824
G3 X234.324 Y27.505 I0.319 J0
G1 X236.076
G3 X236.395 Y27.824 I0 J0.319
G1 Y30.617
G3 X236.076 Y30.936 I-0.319 J0
G1 X234.324
G3 X234.005 Y30.617 I0 J-0.319
G1 Y29.608
G2 X233.753 Y29.229 I-0.41 J0
G3 X233.5 Y28.85 I0.158 J-0.379
G1 Y27
X236.9
Y31.441
X233.5
Y28.85
Z5
X37.2 Y29.936
Z2.5
Z-0.55
X37.18
X37.135 Y29.93
X37.093 Y29.913
X37.056 Y29.885
X37.028 Y29.849
X37.011 Y29.807
X37.005 Y29.761
Y28.765
G3 X37.395 Y28.765 I0.195 J0
G1 Y29.761
X37.389 Y29.807
X37.372 Y29.849
X37.344 Y29.885
X37.307 Y29.913
X37.265 Y29.93
X37.22 Y29.936
X37.2
G2 X36.911 Y30.19 I0 J0.292
G3 X36.53 Y30.241 I-0.197 J-0.026
G1 X36.511 Y30.18
X36.505 Y30.117
Y28.324
G3 X36.824 Y28.005 I0.319 J0
G1 X37.576
G3 X37.895 Y28.324 I0 J0.319
G1 Y30.117
G3 X37.576 Y30.436 I-0.319 J0
G1 X36.824
G3 X36.53 Y30.241 I0 J-0.319
G2 X36.236 Y29.951 I-0.497 J0.209
G3 X36.005 Y29.608 I0.139 J-0.343
G1 Y27.824
G3 X36.324 Y27.505 I0.319 J0
G1 X38.076
G3 X38.395 Y27.824 I0 J0.319
G1 Y30.617
G3 X38.076 Y30.936 I-0.319 J0
G1 X36.324
G3 X36.005 Y30.617 I0 J-0.319
G1 Y29.608
G2 X35.752 Y29.229 I-0.41 J0
G3 X35.5 Y28.85 I0.158 J-0.379
G1 Y27
X38.9
Y31.441
X35.5
Y28.85
G3 X35.924 Y28.648 I0.26 J0
G1 X36.84 Y29.393
X37.06 Y29.606
X37.25 Y29.829
X37.263 Y29.855
X37.264 Y29.885
X37.251 Y29.911
X37.229 Y29.93
X37.2 Y29.936
Z-1.1
X37.18
X37.135 Y29.93
X37.093 Y29.913
X37.056 Y29.885
X37.028 Y29.849
X37.011 Y29.807
X37.005 Y29.761
Y28.765
G3 X37.395 Y28.765 I0.195 J0
G1 Y29.761
X37.389 Y29.807
X37.372 Y29.849
X37.344 Y29.885
X37.307 Y29.913
X37.265 Y29.93
X37.22 Y29.936
X37.2
G2 X36.911 Y30.19 I0 J0.292
G3 X36.53 Y30.241 I-0.197 J-0.026
G1 X36.511 Y30.18
X36.505 Y30.117
Y28.324
G3 X36.824 Y28.005 I0.319 J0
G1 X37.576
G3 X37.895 Y28.324 I0 J0.319
G1 Y30.117
G3 X37.576 Y30.436 I-0.319 J0
G1 X36.824
G3 X36.53 Y30.241 I0 J-0.319
G2 X36.236 Y29.951 I-0.497 J0.209
G3 X36.005 Y29.608 I0.139 J-0.343
G1 Y27.824
G3 X36.324 Y27.505 I0.319 J0
G1 X38.076
G3 X38.395 Y27.824 I0 J0.319
G1 Y30.617
G3 X38.076 Y30.936 I-0.319 J0
G1 X36.324
G3 X36.005 Y30.617 I0 J-0.319
G1 Y29.608
G2 X35.752 Y29.229 I-0.41 J0
G3 X35.5 Y28.85 I0.158 J-0.379
G1 Y27
X38.9
Y31.441
X35.5
Y28.85
Z15
(When using Fusion for Personal Use, the feedrate of rapid)
(moves is reduced to match the feedrate of cutting moves,)
(which can increase machining time. Unrestricted rapid moves)
(are available with a Fusion Subscription.)

(2D Pocket7)
G0 X175.694 Y59.804
G1 Z15 F200
Z5
Z0.2
Z-0.8
Y59.8
Y57.294
X175.7 Y57.257
X175.719 Y57.226
X175.747 Y57.202
X175.782 Y57.189
X175.818
X175.853 Y57.202
X175.881 Y57.226
X175.9 Y57.257
X175.906 Y57.294
Y59.794
G3 X175.708 Y59.994 I-0.2 J0
G1 X175.402 Y59.996
G3 X175.2 Y59.796 I-0.002 J-0.2
G1 Y56.6
X176.4
Y58.4
Y59.791
G3 X176.209 Y59.99 I-0.2 J0
G1 X175.903 Y60.004
G3 X175.694 Y59.804 I-0.009 J-0.2
G1 Z-1.6
Y59.8
Y57.294
X175.7 Y57.257
X175.719 Y57.226
X175.747 Y57.202
X175.782 Y57.189
X175.818
X175.853 Y57.202
X175.881 Y57.226
X175.9 Y57.257
X175.906 Y57.294
Y59.794
G3 X175.708 Y59.994 I-0.2 J0
G1 X175.402 Y59.996
G3 X175.2 Y59.796 I-0.002 J-0.2
G1 Y56.6
X176.4
Y58.4
Y59.791
Z5
X254.894 Y59.804
Z0.2
Z-0.8
Y59.8
Y57.294
X254.9 Y57.257
X254.919 Y57.226
X254.947 Y57.202
X254.982 Y57.189
X255.018
X255.053 Y57.202
X255.081 Y57.226
X255.1 Y57.257
X255.106 Y57.294
Y59.794
G3 X254.908 Y59.994 I-0.2 J0
G1 X254.602 Y59.996
G3 X254.4 Y59.796 I-0.002 J-0.2
G1 Y56.6
X255.6
Y58.4
Y59.791
G3 X255.409 Y59.99 I-0.2 J0
G1 X255.103 Y60.004
G3 X254.894 Y59.804 I-0.009 J-0.2
G1 Z-1.6
Y59.8
Y57.294
X254.9 Y57.257
X254.919 Y57.226
X254.947 Y57.202
X254.982 Y57.189
X255.018
X255.053 Y57.202
X255.081 Y57.226
X255.1 Y57.257
X255.106 Y57.294
Y59.794
G3 X254.908 Y59.994 I-0.2 J0
G1 X254.602 Y59.996
G3 X254.4 Y59.796 I-0.002 J-0.2
G1 Y56.6
X255.6
Y58.4
Y59.791
Z5
X96.494 Y59.804
Z0.2
Z-0.8
Y59.8
Y57.294
X96.5 Y57.257
X96.519 Y57.226
X96.547 Y57.202
X96.582 Y57.189
X96.618
X96.653 Y57.202
X96.681 Y57.226
X96.7 Y57.257
X96.706 Y57.294
Y59.794
G3 X96.508 Y59.994 I-0.2 J0
G1 X96.202 Y59.996
G3 X96 Y59.796 I-0.002 J-0.2
G1 Y56.6
X97.2
Y58.4
Y59.791
G3 X97.009 Y59.99 I-0.2 J0
G1 X96.703 Y60.004
G3 X96.494 Y59.804 I-0.009 J-0.2
G1 Z-1.6
Y59.8
Y57.294
X96.5 Y57.257
X96.519 Y57.226
X96.547 Y57.202
X96.582 Y57.189
X96.618
X96.653 Y57.202
X96.681 Y57.226
X96.7 Y57.257
X96.706 Y57.294
Y59.794
G3 X96.508 Y59.994 I-0.2 J0
G1 X96.202 Y59.996
G3 X96 Y59.796 I-0.002 J-0.2
G1 Y56.6
X97.2
Y58.4
Y59.791
Z5
X17.294 Y59.804
Z0.2
Z-0.8
Y59.8
Y57.294
X17.3 Y57.257
X17.319 Y57.226
X17.347 Y57.202
X17.382 Y57.189
X17.418
X17.453 Y57.202
X17.481 Y57.226
X17.5 Y57.257
X17.506 Y57.294
Y59.794
G3 X17.308 Y59.994 I-0.2 J0
G1 X17.002 Y59.996
G3 X16.8 Y59.796 I-0.002 J-0.2
G1 Y56.6
X18
Y58.4
Y59.791
G3 X17.809 Y59.99 I-0.2 J0
G1 X17.503 Y60.004
G3 X17.294 Y59.804 I-0.009 J-0.2
G1 Z-1.6
Y59.8
Y57.294
X17.3 Y57.257
X17.319 Y57.226
X17.347 Y57.202
X17.382 Y57.189
X17.418
X17.453 Y57.202
X17.481 Y57.226
X17.5 Y57.257
X17.506 Y57.294
Y59.794
G3 X17.308 Y59.994 I-0.2 J0
G1 X17.002 Y59.996
G3 X16.8 Y59.796 I-0.002 J-0.2
G1 Y56.6
X18
Y58.4
Y59.791
Z15
(When using Fusion for Personal Use, the feedrate of rapid)
(moves is reduced to match the feedrate of cutting moves,)
(which can increase machining time. Unrestricted rapid moves)
(are available with a Fusion Subscription.)

(2D Contour9)
G0 X268.2 Y0.5
G1 Z15 F200
Z5
Z0.2
Z-1.05
X230.486
G2 X229.986 Y1 I0 J0.5
G1 Y3.7
X193.271
Y1
G2 X192.771 Y0.5 I-0.5 J0
G1 X155.057
G2 X154.557 Y1 I0 J0.5
G1 Y3.7
X117.843
Y1
G2 X117.343 Y0.5 I-0.5 J0
G1 X79.629
G2 X79.129 Y1 I0 J0.5
G1 Y3.7
X42.414
Y1
G2 X41.914 Y0.5 I-0.5 J0
G1 X4.2
G2 X3.7 Y1 I0 J0.5
G1 Y19.733
X1
G2 X0.5 Y20.233 I0 J0.5
G1 Y39.167
G2 X1 Y39.667 I0.5 J0
G1 X3.7
Y58.4
G2 X4.2 Y58.9 I0.5 J0
G1 X268.2
G2 X268.7 Y58.4 I0 J-0.5
G1 Y39.667
X271.4
G2 X271.9 Y39.167 I0 J-0.5
G1 Y20.233
G2 X271.4 Y19.733 I-0.5 J0
G1 X268.7
Y1
G2 X268.2 Y0.5 I-0.5 J0
G1 Z-2.1
X230.486
G2 X229.986 Y1 I0 J0.5
G1 Y3.7
X212.669
Z-1.6
X210.669
Z-2.1
X193.271
Y1
G2 X192.771 Y0.5 I-0.5 J0
G1 X155.057
G2 X154.557 Y1 I0 J0.5
G1 Y3.7
X117.843
Y1
G2 X117.343 Y0.5 I-0.5 J0
G1 X79.629
G2 X79.129 Y1 I0 J0.5
G1 Y3.7
X61.232
Z-1.6
X59.232
Z-2.1
X42.414
Y1
G2 X41.914 Y0.5 I-0.5 J0
G1 X4.2
G2 X3.7 Y1 I0 J0.5
G1 Y10.19
Z-1.6
Y12.19
Z-2.1
Y19.733
X1
G2 X0.5 Y20.233 I0 J0.5
G1 Y39.167
G2 X1 Y39.667 I0.5 J0
G1 X3.7
Y48.245
Z-1.6
Y50.245
Z-2.1
Y58.4
G2 X4.2 Y58.9 I0.5 J0
G1 X46.182
Z-1.6
X48.182
Z-2.1
X229.436
Z-1.6
X231.436
Z-2.1
X268.2
G2 X268.7 Y58.4 I0 J-0.5
G1 Y48.897
Z-1.6
Y46.897
Z-2.1
Y39.667
X271.4
G2 X271.9 Y39.167 I0 J-0.5
G1 Y20.233
G2 X271.4 Y19.733 I-0.5 J0
G1 X268.7
Y11.408
Z-1.6
Y9.408
Z-2.1
Y1
G2 X268.2 Y0.5 I-0.5 J0
G1 Z-2.65
X230.486
G2 X229.986 Y1 I0 J0.5
G1 Y3.7
X212.669
Z-1.6
X210.669
Z-2.65
X193.271
Y1
G2 X192.771 Y0.5 I-0.5 J0
G1 X155.057
G2 X154.557 Y1 I0 J0.5
G1 Y3.7
X117.843
Y1
G2 X117.343 Y0.5 I-0.5 J0
G1 X79.629
G2 X79.129 Y1 I0 J0.5
G1 Y3.7
X61.232
Z-1.6
X59.232
Z-2.65
X42.414
Y1
G2 X41.914 Y0.5 I-0.5 J0
G1 X4.2
G2 X3.7 Y1 I0 J0.5
G1 Y10.19
Z-1.6
Y12.19
Z-2.65
Y19.733
X1
G2 X0.5 Y20.233 I0 J0.5
G1 Y39.167
G2 X1 Y39.667 I0.5 J0
G1 X3.7
Y48.245
Z-1.6
Y50.245
Z-2.65
Y58.4
G2 X4.2 Y58.9 I0.5 J0
G1 X46.182
Z-1.6
X48.182
Z-2.65
X229.436
Z-1.6
X231.436
Z-2.65
X268.2
G2 X268.7 Y58.4 I0 J-0.5
G1 Y48.897
Z-1.6
Y46.897
Z-2.65
Y39.667
X271.4
G2 X271.9 Y39.167 I0 J-0.5
G1 Y20.233
G2 X271.4 Y19.733 I-0.5 J0
G1 X268.7
Y11.408
Z-1.6
Y9.408
Z-2.65
Y1
G2 X268.2 Y0.5 I-0.5 J0
G1 Z-3.2
X230.486
G2 X229.986 Y1 I0 J0.5
G1 Y3.7
X212.669
Z-1.6
X210.669
Z-3.2
X193.271
Y1
G2 X192.771 Y0.5 I-0.5 J0
G1 X155.057
G2 X154.557 Y1 I0 J0.5
G1 Y3.7
X117.843
Y1
G2 X117.343 Y0.5 I-0.5 J0
G1 X79.629
G2 X79.129 Y1 I0 J0.5
G1 Y3.7
X61.232
Z-1.6
X59.232
Z-3.2
X42.414
Y1
G2 X41.914 Y0.5 I-0.5 J0
G1 X4.2
G2 X3.7 Y1 I0 J0.5
G1 Y10.19
Z-1.6
Y12.19
Z-3.2
Y19.733
X1
G2 X0.5 Y20.233 I0 J0.5
G1 Y39.167
G2 X1 Y39.667 I0.5 J0
G1 X3.7
Y48.245
Z-1.6
Y50.245
Z-3.2
Y58.4
G2 X4.2 Y58.9 I0.5 J0
G1 X46.182
Z-1.6
X48.182
Z-3.2
X229.436
Z-1.6
X231.436
Z-3.2
X268.2
G2 X268.7 Y58.4 I0 J-0.5
G1 Y48.897
Z-1.6
Y46.897
Z-3.2
Y39.667
X271.4
G2 X271.9 Y39.167 I0 J-0.5
G1 Y20.233
G2 X271.4 Y19.733 I-0.5 J0
G1 X268.7
Y11.408
Z-1.6
Y9.408
Z-3.2
Y1
G2 X268.2 Y0.5 I-0.5 J0
G1 Z15

G28 G91 Z0
G90
G28 G91 X0 Y0
G90
M5
M30
