(EnclosureBackWithLightSensor)
G90 G94
G17
G21
(When using Fusion for Personal Use, the feedrate of rapid)
(moves is reduced to match the feedrate of cutting moves,)
(which can increase machining time. Unrestricted rapid moves)
(are available with a Fusion Subscription.)
G28 G91 Z0
G90

(Mount holes)
S10000 M3
G17 G90 G94
G54
G0 X37.8 Y7.2
Z10
G1 Z1 F200
Z0.2
Z-1.05
G3 X36.6 Y7.2 I-0.6 J0
X37.8 Y7.2 I0.6 J0
G1 Z-2.1
G3 X36.6 Y7.2 I-0.6 J0
X37.8 Y7.2 I0.6 J0
G1 Z-2.65
G3 X36.6 Y7.2 I-0.6 J0
X37.8 Y7.2 I0.6 J0
G1 Z-3.2
G3 X36.6 Y7.2 I-0.6 J0
X37.8 Y7.2 I0.6 J0
G1 Z5
X103.8
Z1
Z0.2
Z-1.05
G3 X102.6 Y7.2 I-0.6 J0
X103.8 Y7.2 I0.6 J0
G1 Z-2.1
G3 X102.6 Y7.2 I-0.6 J0
X103.8 Y7.2 I0.6 J0
G1 Z-2.65
G3 X102.6 Y7.2 I-0.6 J0
X103.8 Y7.2 I0.6 J0
G1 Z-3.2
G3 X102.6 Y7.2 I-0.6 J0
X103.8 Y7.2 I0.6 J0
G1 Z5
X169.8
Z1
Z0.2
Z-1.05
G3 X168.6 Y7.2 I-0.6 J0
X169.8 Y7.2 I0.6 J0
G1 Z-2.1
G3 X168.6 Y7.2 I-0.6 J0
X169.8 Y7.2 I0.6 J0
G1 Z-2.65
G3 X168.6 Y7.2 I-0.6 J0
X169.8 Y7.2 I0.6 J0
G1 Z-3.2
G3 X168.6 Y7.2 I-0.6 J0
X169.8 Y7.2 I0.6 J0
G1 Z5
X235.767 Y7.395
Z1
Z0.2
Z-1.05
G3 X234.633 Y7.005 I-0.567 J-0.195
X235.767 Y7.395 I0.567 J0.195
G1 Z-2.1
G3 X234.633 Y7.005 I-0.567 J-0.195
X235.767 Y7.395 I0.567 J0.195
G1 Z-2.65
G3 X234.633 Y7.005 I-0.567 J-0.195
X235.767 Y7.395 I0.567 J0.195
G1 Z-3.2
G3 X234.633 Y7.005 I-0.567 J-0.195
X235.767 Y7.395 I0.567 J0.195
G1 Z5
X265.8 Y38.45
Z1
Z0.2
Z-1.05
G3 X264.6 Y38.45 I-0.6 J0
X265.8 Y38.45 I0.6 J0
G1 Z-2.1
G3 X264.6 Y38.45 I-0.6 J0
X265.8 Y38.45 I0.6 J0
G1 Z-2.65
G3 X264.6 Y38.45 I-0.6 J0
X265.8 Y38.45 I0.6 J0
G1 Z-3.2
G3 X264.6 Y38.45 I-0.6 J0
X265.8 Y38.45 I0.6 J0
G1 Z5
Y106.95
Z1
Z0.2
Z-1.05
G3 X264.6 Y106.95 I-0.6 J0
X265.8 Y106.95 I0.6 J0
G1 Z-2.1
G3 X264.6 Y106.95 I-0.6 J0
X265.8 Y106.95 I0.6 J0
G1 Z-2.65
G3 X264.6 Y106.95 I-0.6 J0
X265.8 Y106.95 I0.6 J0
G1 Z-3.2
G3 X264.6 Y106.95 I-0.6 J0
X265.8 Y106.95 I0.6 J0
G1 Z5
X235.8 Y138.2
Z1
Z0.2
Z-1.05
G3 X234.6 Y138.2 I-0.6 J0
X235.8 Y138.2 I0.6 J0
G1 Z-2.1
G3 X234.6 Y138.2 I-0.6 J0
X235.8 Y138.2 I0.6 J0
G1 Z-2.65
G3 X234.6 Y138.2 I-0.6 J0
X235.8 Y138.2 I0.6 J0
G1 Z-3.2
G3 X234.6 Y138.2 I-0.6 J0
X235.8 Y138.2 I0.6 J0
G1 Z5
X169.8
Z1
Z0.2
Z-1.05
G3 X168.6 Y138.2 I-0.6 J0
X169.8 Y138.2 I0.6 J0
G1 Z-2.1
G3 X168.6 Y138.2 I-0.6 J0
X169.8 Y138.2 I0.6 J0
G1 Z-2.65
G3 X168.6 Y138.2 I-0.6 J0
X169.8 Y138.2 I0.6 J0
G1 Z-3.2
G3 X168.6 Y138.2 I-0.6 J0
X169.8 Y138.2 I0.6 J0
G1 Z5
X103.8
Z1
Z0.2
Z-1.05
G3 X102.6 Y138.2 I-0.6 J0
X103.8 Y138.2 I0.6 J0
G1 Z-2.1
G3 X102.6 Y138.2 I-0.6 J0
X103.8 Y138.2 I0.6 J0
G1 Z-2.65
G3 X102.6 Y138.2 I-0.6 J0
X103.8 Y138.2 I0.6 J0
G1 Z-3.2
G3 X102.6 Y138.2 I-0.6 J0
X103.8 Y138.2 I0.6 J0
G1 Z5
X37.767 Y138.395
Z1
Z0.2
Z-1.05
G3 X36.633 Y138.005 I-0.567 J-0.195
X37.767 Y138.395 I0.567 J0.195
G1 Z-2.1
G3 X36.633 Y138.005 I-0.567 J-0.195
X37.767 Y138.395 I0.567 J0.195
G1 Z-2.65
G3 X36.633 Y138.005 I-0.567 J-0.195
X37.767 Y138.395 I0.567 J0.195
G1 Z-3.2
G3 X36.633 Y138.005 I-0.567 J-0.195
X37.767 Y138.395 I0.567 J0.195
G1 Z5
X7.7 Y106.95
Z1
Z0.2
Z-1.05
G3 X6.7 Y106.95 I-0.5 J0
X7.7 Y106.95 I0.5 J0
G1 Z-2.1
G3 X6.7 Y106.95 I-0.5 J0
X7.7 Y106.95 I0.5 J0
G1 Z-2.65
G3 X6.7 Y106.95 I-0.5 J0
X7.7 Y106.95 I0.5 J0
G1 Z-3.2
G3 X6.7 Y106.95 I-0.5 J0
X7.7 Y106.95 I0.5 J0
G1 Z5
X7.8 Y38.45
Z1
Z0.2
Z-1.05
G3 X6.6 Y38.45 I-0.6 J0
X7.8 Y38.45 I0.6 J0
G1 Z-2.1
G3 X6.6 Y38.45 I-0.6 J0
X7.8 Y38.45 I0.6 J0
G1 Z-2.65
G3 X6.6 Y38.45 I-0.6 J0
X7.8 Y38.45 I0.6 J0
G1 Z-3.2
G3 X6.6 Y38.45 I-0.6 J0
X7.8 Y38.45 I0.6 J0
G1 Z10
(When using Fusion for Personal Use, the feedrate of rapid)
(moves is reduced to match the feedrate of cutting moves,)
(which can increase machining time. Unrestricted rapid moves)
(are available with a Fusion Subscription.)

(Ventilation)
G0 X88.7 Y106.5
G1 Z10 F200
Z1
Z0.2
Z-1.05
Y106.533
X31.7
Y106.467
X88.7
Y106.5
Z-2.1
Y106.533
X31.7
Y106.467
X88.7
Y106.5
Z-2.65
Y106.533
X31.7
Y106.467
X88.7
Y106.5
Z-3.2
Y106.533
X31.7
Y106.467
X88.7
Y106.5
Z5
Y99.417
Z1
Z0.2
Z-1.05
Y99.45
X31.7
Y99.383
X88.7
Y99.417
Z-2.1
Y99.45
X31.7
Y99.383
X88.7
Y99.417
Z-2.65
Y99.45
X31.7
Y99.383
X88.7
Y99.417
Z-3.2
Y99.45
X31.7
Y99.383
X88.7
Y99.417
Z5
Y92.333
Z1
Z0.2
Z-1.05
Y92.367
X31.7
Y92.3
X88.7
Y92.333
Z-2.1
Y92.367
X31.7
Y92.3
X88.7
Y92.333
Z-2.65
Y92.367
X31.7
Y92.3
X88.7
Y92.333
Z-3.2
Y92.367
X31.7
Y92.3
X88.7
Y92.333
Z5
Y85.25
Z1
Z0.2
Z-1.05
Y85.283
X31.7
Y85.217
X88.7
Y85.25
Z-2.1
Y85.283
X31.7
Y85.217
X88.7
Y85.25
Z-2.65
Y85.283
X31.7
Y85.217
X88.7
Y85.25
Z-3.2
Y85.283
X31.7
Y85.217
X88.7
Y85.25
Z5
Y78.167
Z1
Z0.2
Z-1.05
Y78.2
X31.7
Y78.133
X88.7
Y78.167
Z-2.1
Y78.2
X31.7
Y78.133
X88.7
Y78.167
Z-2.65
Y78.2
X31.7
Y78.133
X88.7
Y78.167
Z-3.2
Y78.2
X31.7
Y78.133
X88.7
Y78.167
Z5
X31.733 Y71.05
Z1
Z0.2
Z-1.05
X88.7
Y71.117
X31.7
Y71.05
X31.733
Z-2.1
X88.7
Y71.117
X31.7
Y71.05
X31.733
Z-2.65
X88.7
Y71.117
X31.7
Y71.05
X31.733
Z-3.2
X88.7
Y71.117
X31.7
Y71.05
X31.733
Z5
Y63.967
Z1
Z0.2
Z-1.05
X88.7
Y64.033
X31.7
Y63.967
X31.733
Z-2.1
X88.7
Y64.033
X31.7
Y63.967
X31.733
Z-2.65
X88.7
Y64.033
X31.7
Y63.967
X31.733
Z-3.2
X88.7
Y64.033
X31.7
Y63.967
X31.733
Z5
Y56.95
Z1
Z0.2
Z-1.05
X31.7
Y56.883
X88.7
Y56.95
X31.733
Z-2.1
X31.7
Y56.883
X88.7
Y56.95
X31.733
Z-2.65
X31.7
Y56.883
X88.7
Y56.95
X31.733
Z-3.2
X31.7
Y56.883
X88.7
Y56.95
X31.733
Z5
X88.7 Y49.833
Z1
Z0.2
Z-1.05
Y49.867
X31.7
Y49.8
X88.7
Y49.833
Z-2.1
Y49.867
X31.7
Y49.8
X88.7
Y49.833
Z-2.65
Y49.867
X31.7
Y49.8
X88.7
Y49.833
Z-3.2
Y49.867
X31.7
Y49.8
X88.7
Y49.833
Z10
(When using Fusion for Personal Use, the feedrate of rapid)
(moves is reduced to match the feedrate of cutting moves,)
(which can increase machining time. Unrestricted rapid moves)
(are available with a Fusion Subscription.)

(Power socket)
G0 X53.65 Y7.7
G1 Z10 F200
Z1
Z0.2
Z-1.05
X72.2
Y18.6
X48.2
Y7.7
X53.65
Z-2.1
X59.626
Z-1.2
X61.626
Z-2.1
X72.2
Y18.6
X61.024
Z-1.2
X59.024
Z-2.1
X48.2
Y7.7
X53.65
Z-2.65
X59.626
Z-1.2
X61.626
Z-2.65
X72.2
Y18.6
X61.024
Z-1.2
X59.024
Z-2.65
X48.2
Y7.7
X53.65
Z-3.2
X59.626
Z-1.2
X61.626
Z-3.2
X72.2
Y18.6
X61.024
Z-1.2
X59.024
Z-3.2
X48.2
Y7.7
X53.65
Z10
(When using Fusion for Personal Use, the feedrate of rapid)
(moves is reduced to match the feedrate of cutting moves,)
(which can increase machining time. Unrestricted rapid moves)
(are available with a Fusion Subscription.)

(LightSensor1)
G0 Z15
X135.884 Y134.549
G1 Z15 F200
Z5
Z2.5
Z-0.95
X135.865 Y134.571 Z-1.021
X135.834 Y134.589 Z-1.035
X135.8 Y134.595 Z-1.05
X135.78
X135.736 Y134.589
X135.695 Y134.573
X135.66 Y134.547
X135.632 Y134.512
X135.613 Y134.472
X135.605 Y134.428
Y134.372
X135.613 Y134.328
X135.632 Y134.288
X135.66 Y134.253
X135.695 Y134.227
X135.736 Y134.211
X135.78 Y134.205
X136.62
X136.664 Y134.211
X136.705 Y134.227
X136.74 Y134.253
X136.768 Y134.288
X136.787 Y134.328
X136.795 Y134.372
Y134.428
X136.787 Y134.472
X136.768 Y134.512
X136.74 Y134.547
X136.705 Y134.573
X136.664 Y134.589
X136.62 Y134.595
X135.8
G2 X135.514 Y134.774 I0 J0.318
G3 X135.176 Y134.773 I-0.169 J-0.082
G1 X135.155 Y134.722
X135.138 Y134.669
G3 X135.138 Y134.131 I1.062 J-0.269
X135.686 Y133.705 I0.547 J0.139
G1 X136.714
G3 X137.262 Y134.131 I0 J0.565
X137.262 Y134.669 I-1.062 J0.269
X136.714 Y135.095 I-0.547 J-0.139
G1 X135.686
G3 X135.176 Y134.773 I0 J-0.565
G2 X134.858 Y134.548 I-0.361 J0.172
G3 X134.612 Y134.246 I0.03 J-0.275
X134.841 Y133.564 I1.588 J0.154
X135.484 Y133.205 I0.643 J0.395
G1 X136.916
G3 X137.559 Y133.564 I0 J0.754
X137.559 Y135.236 I-1.359 J0.836
X136.916 Y135.595 I-0.642 J-0.395
G1 X135.484
G3 X134.841 Y135.236 I0 J-0.754
X134.612 Y134.246 I1.359 J-0.836
G2 X134.429 Y133.872 I-0.394 J-0.038
G3 X134.316 Y133.472 I0.165 J-0.263
X134.967 Y132.7 I1.884 J0.928
G1 X137.433
G3 X137.433 Y136.1 I-1.233 J1.7
G1 X134.967
G3 X134.316 Y133.472 I1.233 J-1.7
G1 X134.329 Y133.455
X134.349 Y133.446
X134.37 Y133.445
X134.39 Y133.454
X135.421 Y134.19
X135.617 Y134.353
X135.864 Y134.477
X135.885 Y134.496
X135.892 Y134.523
X135.884 Y134.549
Z-2
X135.865 Y134.571 Z-2.071
X135.834 Y134.589 Z-2.085
X135.8 Y134.595 Z-2.1
X135.78
X135.736 Y134.589
X135.695 Y134.573
X135.66 Y134.547
X135.632 Y134.512
X135.613 Y134.472
X135.605 Y134.428
Y134.372
X135.613 Y134.328
X135.632 Y134.288
X135.66 Y134.253
X135.695 Y134.227
X135.736 Y134.211
X135.78 Y134.205
X136.62
X136.664 Y134.211
X136.705 Y134.227
X136.74 Y134.253
X136.768 Y134.288
X136.787 Y134.328
X136.795 Y134.372
Y134.428
X136.787 Y134.472
X136.768 Y134.512
X136.74 Y134.547
X136.705 Y134.573
X136.664 Y134.589
X136.62 Y134.595
X135.8
G2 X135.514 Y134.774 I0 J0.318
G3 X135.176 Y134.773 I-0.169 J-0.082
G1 X135.155 Y134.722
X135.138 Y134.669
G3 X135.138 Y134.131 I1.062 J-0.269
X135.686 Y133.705 I0.547 J0.139
G1 X136.714
G3 X137.262 Y134.131 I0 J0.565
X137.262 Y134.669 I-1.062 J0.269
X136.714 Y135.095 I-0.547 J-0.139
G1 X135.686
G3 X135.176 Y134.773 I0 J-0.565
G2 X134.858 Y134.548 I-0.361 J0.172
G3 X134.612 Y134.246 I0.03 J-0.275
X134.841 Y133.564 I1.588 J0.154
X135.484 Y133.205 I0.643 J0.395
G1 X136.916
G3 X137.559 Y133.564 I0 J0.754
X137.559 Y135.236 I-1.359 J0.836
X136.916 Y135.595 I-0.642 J-0.395
G1 X135.484
G3 X134.841 Y135.236 I0 J-0.754
X134.612 Y134.246 I1.359 J-0.836
G2 X134.429 Y133.872 I-0.394 J-0.038
G3 X134.316 Y133.472 I0.165 J-0.263
X134.967 Y132.7 I1.884 J0.928
G1 X137.433
G3 X137.433 Y136.1 I-1.233 J1.7
G1 X134.967
G3 X134.316 Y133.472 I1.233 J-1.7
G1 X134.348 Y133.409 Z-2.071
X134.362 Y133.384 Z-2
Z15
(When using Fusion for Personal Use, the feedrate of rapid)
(moves is reduced to match the feedrate of cutting moves,)
(which can increase machining time. Unrestricted rapid moves)
(are available with a Fusion Subscription.)

(LightSensor2)
G0 X134.2 Y134.5
G1 Z15 F200
Z2.9
Z0.4
Z-2.65
X134.102
X134.1 Y134.4
X134.102 Y134.3
X138.298
X138.3 Y134.4
X138.298 Y134.5
X134.2
Z-3.2
X134.102
X134.1 Y134.4
X134.102 Y134.3
X138.298
X138.3 Y134.4
X138.298 Y134.5
X134.2
Z15
(When using Fusion for Personal Use, the feedrate of rapid)
(moves is reduced to match the feedrate of cutting moves,)
(which can increase machining time. Unrestricted rapid moves)
(are available with a Fusion Subscription.)

(Outline)
G0 X230.886 Y0.5
G1 Z10 F200
Z1
Z0.2
Z-1.05
X192.371
Y3.7
X155.457
Y1
Y0.5
X116.943
Y3.7
X80.029
Y1
Y0.5
X41.514
Y3.7
X4.2
X3.7
Y29.28
X1
X0.5
Y58.76
X3.7
Y86.64
X1
X0.5
Y116.12
X3.7
Y141.2
Y141.7
X41.514
Y144.4
Y144.9
X80.029
Y141.7
X116.943
Y144.4
Y144.9
X155.457
Y141.7
X192.371
Y144.4
Y144.9
X230.886
Y141.7
X268.2
X268.7
Y116.12
X271.4
X271.9
Y86.64
X268.7
Y58.76
X271.4
X271.9
Y29.28
X268.7
Y4.2
Y3.7
X230.886
Y1
Y0.5
Z-2.1
X192.371
Y3.7
X176.243
Z-1.6
X173.243
Z-2.1
X155.457
Y0.5
X116.943
Y3.7
X101.511
Z-1.6
X98.511
Z-2.1
X80.029
Y0.5
X41.514
Y3.7
X3.7
Y15.508
Z-1.6
Y18.508
Z-2.1
Y29.28
X0.5
Y58.76
X3.7
Y71.146
Z-1.6
Y74.146
Z-2.1
Y86.64
X0.5
Y116.12
X3.7
Y126.275
Z-1.6
Y129.275
Z-2.1
Y141.7
X41.514
Y144.9
X80.029
Y141.7
X99.367
Z-1.6
X102.367
Z-2.1
X116.943
Y144.9
X155.457
Y141.7
X174.195
Z-1.6
X177.195
Z-2.1
X192.371
Y144.9
X230.886
Y141.7
X268.7
Y129.328
Z-1.6
Y126.328
Z-2.1
Y116.12
X271.9
Y86.64
X268.7
Y73.069
Z-1.6
Y70.069
Z-2.1
Y58.76
X271.9
Y29.28
X268.7
Y18.923
Z-1.6
Y15.923
Z-2.1
Y3.7
X230.886
Y0.5
Z-2.65
X192.371
Y3.7
X176.243
Z-1.6
X173.243
Z-2.65
X155.457
Y0.5
X116.943
Y3.7
X101.511
Z-1.6
X98.511
Z-2.65
X80.029
Y0.5
X41.514
Y3.7
X3.7
Y15.508
Z-1.6
Y18.508
Z-2.65
Y29.28
X0.5
Y58.76
X3.7
Y71.146
Z-1.6
Y74.146
Z-2.65
Y86.64
X0.5
Y116.12
X3.7
Y126.275
Z-1.6
Y129.275
Z-2.65
Y141.7
X41.514
Y144.9
X80.029
Y141.7
X99.367
Z-1.6
X102.367
Z-2.65
X116.943
Y144.9
X155.457
Y141.7
X174.195
Z-1.6
X177.195
Z-2.65
X192.371
Y144.9
X230.886
Y141.7
X268.7
Y129.328
Z-1.6
Y126.328
Z-2.65
Y116.12
X271.9
Y86.64
X268.7
Y73.069
Z-1.6
Y70.069
Z-2.65
Y58.76
X271.9
Y29.28
X268.7
Y18.923
Z-1.6
Y15.923
Z-2.65
Y3.7
X230.886
Y0.5
Z-3.2
X192.371
Y3.7
X176.243
Z-1.6
X173.243
Z-3.2
X155.457
Y0.5
X116.943
Y3.7
X101.511
Z-1.6
X98.511
Z-3.2
X80.029
Y0.5
X41.514
Y3.7
X3.7
Y15.508
Z-1.6
Y18.508
Z-3.2
Y29.28
X0.5
Y58.76
X3.7
Y71.146
Z-1.6
Y74.146
Z-3.2
Y86.64
X0.5
Y116.12
X3.7
Y126.275
Z-1.6
Y129.275
Z-3.2
Y141.7
X41.514
Y144.9
X80.029
Y141.7
X99.367
Z-1.6
X102.367
Z-3.2
X116.943
Y144.9
X155.457
Y141.7
X174.195
Z-1.6
X177.195
Z-3.2
X192.371
Y144.9
X230.886
Y141.7
X268.7
Y129.328
Z-1.6
Y126.328
Z-3.2
Y116.12
X271.9
Y86.64
X268.7
Y73.069
Z-1.6
Y70.069
Z-3.2
Y58.76
X271.9
Y29.28
X268.7
Y18.923
Z-1.6
Y15.923
Z-3.2
Y3.7
X230.886
Y0.5
Z10

G28 G91 Z0
G90
G28 G91 X0 Y0
G90
M5
M30
