(EnclosureBackWithLightSensor)
G90 G94
G17
G21
(When using Fusion for Personal Use, the feedrate of rapid)
(moves is reduced to match the feedrate of cutting moves,)
(which can increase machining time. Unrestricted rapid moves)
(are available with a Fusion Subscription.)
G28 G91 Z0
G90

(Mount holes)
S10000 M3
G17 G90 G94
G54
G0 X38.6 Y8
Z10
G1 Z1 F200
Z0.2
Z-1.05
G3 X37.4 Y8 I-0.6 J0
X38.6 Y8 I0.6 J0
G1 Z-2.1
G3 X37.4 Y8 I-0.6 J0
X38.6 Y8 I0.6 J0
G1 Z-3.15
G3 X37.4 Y8 I-0.6 J0
X38.6 Y8 I0.6 J0
G1 Z-4
G3 X37.4 Y8 I-0.6 J0
X38.6 Y8 I0.6 J0
G1 Z5
X104.6
Z1
Z0.2
Z-1.05
G3 X103.4 Y8 I-0.6 J0
X104.6 Y8 I0.6 J0
G1 Z-2.1
G3 X103.4 Y8 I-0.6 J0
X104.6 Y8 I0.6 J0
G1 Z-3.15
G3 X103.4 Y8 I-0.6 J0
X104.6 Y8 I0.6 J0
G1 Z-4
G3 X103.4 Y8 I-0.6 J0
X104.6 Y8 I0.6 J0
G1 Z5
X170.6
Z1
Z0.2
Z-1.05
G3 X169.4 Y8 I-0.6 J0
X170.6 Y8 I0.6 J0
G1 Z-2.1
G3 X169.4 Y8 I-0.6 J0
X170.6 Y8 I0.6 J0
G1 Z-3.15
G3 X169.4 Y8 I-0.6 J0
X170.6 Y8 I0.6 J0
G1 Z-4
G3 X169.4 Y8 I-0.6 J0
X170.6 Y8 I0.6 J0
G1 Z5
X236.567 Y8.195
Z1
Z0.2
Z-1.05
G3 X235.433 Y7.805 I-0.567 J-0.195
X236.567 Y8.195 I0.567 J0.195
G1 Z-2.1
G3 X235.433 Y7.805 I-0.567 J-0.195
X236.567 Y8.195 I0.567 J0.195
G1 Z-3.15
G3 X235.433 Y7.805 I-0.567 J-0.195
X236.567 Y8.195 I0.567 J0.195
G1 Z-4
G3 X235.433 Y7.805 I-0.567 J-0.195
X236.567 Y8.195 I0.567 J0.195
G1 Z5
X266.6 Y39.25
Z1
Z0.2
Z-1.05
G3 X265.4 Y39.25 I-0.6 J0
X266.6 Y39.25 I0.6 J0
G1 Z-2.1
G3 X265.4 Y39.25 I-0.6 J0
X266.6 Y39.25 I0.6 J0
G1 Z-3.15
G3 X265.4 Y39.25 I-0.6 J0
X266.6 Y39.25 I0.6 J0
G1 Z-4
G3 X265.4 Y39.25 I-0.6 J0
X266.6 Y39.25 I0.6 J0
G1 Z5
Y107.75
Z1
Z0.2
Z-1.05
G3 X265.4 Y107.75 I-0.6 J0
X266.6 Y107.75 I0.6 J0
G1 Z-2.1
G3 X265.4 Y107.75 I-0.6 J0
X266.6 Y107.75 I0.6 J0
G1 Z-3.15
G3 X265.4 Y107.75 I-0.6 J0
X266.6 Y107.75 I0.6 J0
G1 Z-4
G3 X265.4 Y107.75 I-0.6 J0
X266.6 Y107.75 I0.6 J0
G1 Z5
X236.6 Y139
Z1
Z0.2
Z-1.05
G3 X235.4 Y139 I-0.6 J0
X236.6 Y139 I0.6 J0
G1 Z-2.1
G3 X235.4 Y139 I-0.6 J0
X236.6 Y139 I0.6 J0
G1 Z-3.15
G3 X235.4 Y139 I-0.6 J0
X236.6 Y139 I0.6 J0
G1 Z-4
G3 X235.4 Y139 I-0.6 J0
X236.6 Y139 I0.6 J0
G1 Z5
X170.6
Z1
Z0.2
Z-1.05
G3 X169.4 Y139 I-0.6 J0
X170.6 Y139 I0.6 J0
G1 Z-2.1
G3 X169.4 Y139 I-0.6 J0
X170.6 Y139 I0.6 J0
G1 Z-3.15
G3 X169.4 Y139 I-0.6 J0
X170.6 Y139 I0.6 J0
G1 Z-4
G3 X169.4 Y139 I-0.6 J0
X170.6 Y139 I0.6 J0
G1 Z5
X104.6
Z1
Z0.2
Z-1.05
G3 X103.4 Y139 I-0.6 J0
X104.6 Y139 I0.6 J0
G1 Z-2.1
G3 X103.4 Y139 I-0.6 J0
X104.6 Y139 I0.6 J0
G1 Z-3.15
G3 X103.4 Y139 I-0.6 J0
X104.6 Y139 I0.6 J0
G1 Z-4
G3 X103.4 Y139 I-0.6 J0
X104.6 Y139 I0.6 J0
G1 Z5
X38.6
Z1
Z0.2
Z-1.05
G3 X37.4 Y139 I-0.6 J0
X38.6 Y139 I0.6 J0
G1 Z-2.1
G3 X37.4 Y139 I-0.6 J0
X38.6 Y139 I0.6 J0
G1 Z-3.15
G3 X37.4 Y139 I-0.6 J0
X38.6 Y139 I0.6 J0
G1 Z-4
G3 X37.4 Y139 I-0.6 J0
X38.6 Y139 I0.6 J0
G1 Z5
X8.5 Y107.75
Z1
Z0.2
Z-1.05
G3 X7.5 Y107.75 I-0.5 J0
X8.5 Y107.75 I0.5 J0
G1 Z-2.1
G3 X7.5 Y107.75 I-0.5 J0
X8.5 Y107.75 I0.5 J0
G1 Z-3.15
G3 X7.5 Y107.75 I-0.5 J0
X8.5 Y107.75 I0.5 J0
G1 Z-4
G3 X7.5 Y107.75 I-0.5 J0
X8.5 Y107.75 I0.5 J0
G1 Z5
X8.6 Y39.25
Z1
Z0.2
Z-1.05
G3 X7.4 Y39.25 I-0.6 J0
X8.6 Y39.25 I0.6 J0
G1 Z-2.1
G3 X7.4 Y39.25 I-0.6 J0
X8.6 Y39.25 I0.6 J0
G1 Z-3.15
G3 X7.4 Y39.25 I-0.6 J0
X8.6 Y39.25 I0.6 J0
G1 Z-4
G3 X7.4 Y39.25 I-0.6 J0
X8.6 Y39.25 I0.6 J0
G1 Z10
(When using Fusion for Personal Use, the feedrate of rapid)
(moves is reduced to match the feedrate of cutting moves,)
(which can increase machining time. Unrestricted rapid moves)
(are available with a Fusion Subscription.)

(Ventilation)
G0 X89.5 Y107.166
G1 Z10 F200
Z1
Z0.2
Z-1.05
Y107.333
X32.5
Y107
X89.5
Y107.166
Z-2.1
Y107.333
X32.5
Y107
X89.5
Y107.166
Z-3.15
Y107.333
X32.5
Y107
X89.5
Y107.166
Z-4
Y107.333
X32.5
Y107
X89.5
Y107.166
Z5
Y100.083
Z1
Z0.2
Z-1.05
Y100.25
X32.5
Y99.917
X89.5
Y100.083
Z-2.1
Y100.25
X32.5
Y99.917
X89.5
Y100.083
Z-3.15
Y100.25
X32.5
Y99.917
X89.5
Y100.083
Z-4
Y100.25
X32.5
Y99.917
X89.5
Y100.083
Z5
Y93
Z1
Z0.2
Z-1.05
Y93.167
X32.5
Y92.833
X89.5
Y93
Z-2.1
Y93.167
X32.5
Y92.833
X89.5
Y93
Z-3.15
Y93.167
X32.5
Y92.833
X89.5
Y93
Z-4
Y93.167
X32.5
Y92.833
X89.5
Y93
Z5
Y85.917
Z1
Z0.2
Z-1.05
Y86.083
X32.5
Y85.75
X89.5
Y85.917
Z-2.1
Y86.083
X32.5
Y85.75
X89.5
Y85.917
Z-3.15
Y86.083
X32.5
Y85.75
X89.5
Y85.917
Z-4
Y86.083
X32.5
Y85.75
X89.5
Y85.917
Z5
Y78.833
Z1
Z0.2
Z-1.05
Y79
X32.5
Y78.667
X89.5
Y78.833
Z-2.1
Y79
X32.5
Y78.667
X89.5
Y78.833
Z-3.15
Y79
X32.5
Y78.667
X89.5
Y78.833
Z-4
Y79
X32.5
Y78.667
X89.5
Y78.833
Z5
X32.667 Y71.583
Z1
Z0.2
Z-1.05
X89.5
Y71.917
X32.5
Y71.583
X32.667
Z-2.1
X89.5
Y71.917
X32.5
Y71.583
X32.667
Z-3.15
X89.5
Y71.917
X32.5
Y71.583
X32.667
Z-4
X89.5
Y71.917
X32.5
Y71.583
X32.667
Z5
X89.5 Y64.667
Z1
Z0.2
Z-1.05
Y64.833
X32.5
Y64.5
X89.5
Y64.667
Z-2.1
Y64.833
X32.5
Y64.5
X89.5
Y64.667
Z-3.15
Y64.833
X32.5
Y64.5
X89.5
Y64.667
Z-4
Y64.833
X32.5
Y64.5
X89.5
Y64.667
Z5
X32.667 Y57.417
Z1
Z0.2
Z-1.05
X89.5
Y57.75
X32.5
Y57.417
X32.667
Z-2.1
X89.5
Y57.75
X32.5
Y57.417
X32.667
Z-3.15
X89.5
Y57.75
X32.5
Y57.417
X32.667
Z-4
X89.5
Y57.75
X32.5
Y57.417
X32.667
Z5
X89.5 Y50.5
Z1
Z0.2
Z-1.05
Y50.667
X32.5
Y50.333
X89.5
Y50.5
Z-2.1
Y50.667
X32.5
Y50.333
X89.5
Y50.5
Z-3.15
Y50.667
X32.5
Y50.333
X89.5
Y50.5
Z-4
Y50.667
X32.5
Y50.333
X89.5
Y50.5
Z10
(When using Fusion for Personal Use, the feedrate of rapid)
(moves is reduced to match the feedrate of cutting moves,)
(which can increase machining time. Unrestricted rapid moves)
(are available with a Fusion Subscription.)

(Power socket)
G0 X54.45 Y8.5
G1 Z10 F200
Z1
Z0.2
Z-1.05
X73
Y19.4
X49
Y8.5
X54.45
Z-2.1
X60.426
Z-2
X62.426
Z-2.1
X73
Y19.4
X61.824
Z-2
X59.824
Z-2.1
X49
Y8.5
X54.45
Z-3.15
X60.426
Z-2
X62.426
Z-3.15
X73
Y19.4
X61.824
Z-2
X59.824
Z-3.15
X49
Y8.5
X54.45
Z-4
X60.426
Z-2
X62.426
Z-4
X73
Y19.4
X61.824
Z-2
X59.824
Z-4
X49
Y8.5
X54.45
Z10
(When using Fusion for Personal Use, the feedrate of rapid)
(moves is reduced to match the feedrate of cutting moves,)
(which can increase machining time. Unrestricted rapid moves)
(are available with a Fusion Subscription.)

(LightSensor1)
G0 Z15
X136.684 Y136.149
G1 Z15 F200
Z5
Z2.5
Z-0.95
X136.665 Y136.171 Z-1.021
X136.634 Y136.189 Z-1.035
X136.6 Y136.195 Z-1.05
X136.58
X136.536 Y136.189
X136.495 Y136.173
X136.46 Y136.147
X136.432 Y136.112
X136.413 Y136.072
X136.405 Y136.028
Y135.972
X136.413 Y135.928
X136.432 Y135.888
X136.46 Y135.853
X136.495 Y135.827
X136.536 Y135.811
X136.58 Y135.805
X137.42
X137.464 Y135.811
X137.505 Y135.827
X137.54 Y135.853
X137.568 Y135.888
X137.587 Y135.928
X137.595 Y135.972
Y136.028
X137.587 Y136.072
X137.568 Y136.112
X137.54 Y136.147
X137.505 Y136.173
X137.464 Y136.189
X137.42 Y136.195
X136.6
G2 X136.314 Y136.374 I0 J0.318
G3 X135.976 Y136.373 I-0.169 J-0.082
G1 X135.955 Y136.322
X135.938 Y136.269
G3 X135.938 Y135.731 I1.062 J-0.269
X136.486 Y135.305 I0.547 J0.139
G1 X137.514
G3 X138.062 Y135.731 I0 J0.565
X138.062 Y136.269 I-1.062 J0.269
X137.514 Y136.695 I-0.547 J-0.139
G1 X136.486
G3 X135.976 Y136.373 I0 J-0.565
G2 X135.658 Y136.148 I-0.361 J0.172
G3 X135.412 Y135.846 I0.03 J-0.275
X135.641 Y135.164 I1.588 J0.154
X136.284 Y134.805 I0.643 J0.395
G1 X137.716
G3 X138.359 Y135.164 I0 J0.754
X138.359 Y136.836 I-1.359 J0.836
X137.716 Y137.195 I-0.643 J-0.395
G1 X136.284
G3 X135.641 Y136.836 I0 J-0.754
X135.412 Y135.846 I1.359 J-0.836
G2 X135.229 Y135.472 I-0.394 J-0.038
G3 X135.116 Y135.072 I0.165 J-0.263
X135.767 Y134.3 I1.884 J0.928
G1 X138.233
G3 X138.233 Y137.7 I-1.233 J1.7
G1 X135.767
G3 X135.116 Y135.072 I1.233 J-1.7
G1 X135.129 Y135.055
X135.149 Y135.046
X135.17 Y135.045
X135.19 Y135.054
X136.221 Y135.79
X136.417 Y135.953
X136.664 Y136.077
X136.685 Y136.096
X136.692 Y136.123
X136.684 Y136.149
Z-2
X136.665 Y136.171 Z-2.071
X136.634 Y136.189 Z-2.085
X136.6 Y136.195 Z-2.1
X136.58
X136.536 Y136.189
X136.495 Y136.173
X136.46 Y136.147
X136.432 Y136.112
X136.413 Y136.072
X136.405 Y136.028
Y135.972
X136.413 Y135.928
X136.432 Y135.888
X136.46 Y135.853
X136.495 Y135.827
X136.536 Y135.811
X136.58 Y135.805
X137.42
X137.464 Y135.811
X137.505 Y135.827
X137.54 Y135.853
X137.568 Y135.888
X137.587 Y135.928
X137.595 Y135.972
Y136.028
X137.587 Y136.072
X137.568 Y136.112
X137.54 Y136.147
X137.505 Y136.173
X137.464 Y136.189
X137.42 Y136.195
X136.6
G2 X136.314 Y136.374 I0 J0.318
G3 X135.976 Y136.373 I-0.169 J-0.082
G1 X135.955 Y136.322
X135.938 Y136.269
G3 X135.938 Y135.731 I1.062 J-0.269
X136.486 Y135.305 I0.547 J0.139
G1 X137.514
G3 X138.062 Y135.731 I0 J0.565
X138.062 Y136.269 I-1.062 J0.269
X137.514 Y136.695 I-0.547 J-0.139
G1 X136.486
G3 X135.976 Y136.373 I0 J-0.565
G2 X135.658 Y136.148 I-0.361 J0.172
G3 X135.412 Y135.846 I0.03 J-0.275
X135.641 Y135.164 I1.588 J0.154
X136.284 Y134.805 I0.643 J0.395
G1 X137.716
G3 X138.359 Y135.164 I0 J0.754
X138.359 Y136.836 I-1.359 J0.836
X137.716 Y137.195 I-0.643 J-0.395
G1 X136.284
G3 X135.641 Y136.836 I0 J-0.754
X135.412 Y135.846 I1.359 J-0.836
G2 X135.229 Y135.472 I-0.394 J-0.038
G3 X135.116 Y135.072 I0.165 J-0.263
X135.767 Y134.3 I1.884 J0.928
G1 X138.233
G3 X138.233 Y137.7 I-1.233 J1.7
G1 X135.767
G3 X135.116 Y135.072 I1.233 J-1.7
G1 X135.148 Y135.009 Z-2.071
X135.162 Y134.984 Z-2
Z15
(When using Fusion for Personal Use, the feedrate of rapid)
(moves is reduced to match the feedrate of cutting moves,)
(which can increase machining time. Unrestricted rapid moves)
(are available with a Fusion Subscription.)

(LightSensor2)
G0 X135 Y136.1
G1 Z15 F200
Z2.9
Z0.4
Z-3.05
X134.902
X134.9 Y136
X134.902 Y135.9
X139.098
X139.1 Y136
X139.098 Y136.1
X135
Z-4
X134.902
X134.9 Y136
X134.902 Y135.9
X139.098
X139.1 Y136
X139.098 Y136.1
X135
Z15
(When using Fusion for Personal Use, the feedrate of rapid)
(moves is reduced to match the feedrate of cutting moves,)
(which can increase machining time. Unrestricted rapid moves)
(are available with a Fusion Subscription.)

(Outline)
G0 X231.686 Y0.5
G1 Z10 F200
Z1
Z0.2
Z-1.05
X193.171
Y4.5
X156.257
Y1
Y0.5
X117.743
Y4.5
X80.829
Y1
Y0.5
X42.314
Y4.5
X5
X4.5
Y29.6
X1
X0.5
Y59.4
X4.5
Y87.6
X1
X0.5
Y117.4
X4.5
Y142
Y142.5
X42.314
Y146
Y146.5
X80.829
Y142.5
X117.743
Y146
Y146.5
X156.257
Y142.5
X193.171
Y146
Y146.5
X231.686
Y142.5
X269
X269.5
Y117.4
X273
X273.5
Y87.6
X269.5
Y59.4
X273
X273.5
Y29.6
X269.5
Y5
Y4.5
X231.686
Y1
Y0.5
Z-2.1
X193.171
Y4.5
X177.043
Z-2
X174.043
Z-2.1
X156.257
Y0.5
X117.743
Y4.5
X102.311
Z-2
X99.311
Z-2.1
X80.829
Y0.5
X42.314
Y4.5
X4.5
Y16.068
Z-2
Y19.068
Z-2.1
Y29.6
X0.5
Y59.4
X4.5
Y71.945
Z-2
Y74.945
Z-2.1
Y87.6
X0.5
Y117.4
X4.5
Y127.327
Z-2
Y130.327
Z-2.1
Y142.5
X42.314
Y146.5
X80.829
Y142.5
X100.167
Z-2
X103.167
Z-2.1
X117.743
Y146.5
X156.257
Y142.5
X174.995
Z-2
X177.995
Z-2.1
X193.171
Y146.5
X231.686
Y142.5
X269.5
Y130.379
Z-2
Y127.379
Z-2.1
Y117.4
X273.5
Y87.6
X269.5
Y73.856
Z-2
Y70.856
Z-2.1
Y59.4
X273.5
Y29.6
X269.5
Y19.475
Z-2
Y16.475
Z-2.1
Y4.5
X231.686
Y0.5
Z-3.15
X193.171
Y4.5
X177.043
Z-2
X174.043
Z-3.15
X156.257
Y0.5
X117.743
Y4.5
X102.311
Z-2
X99.311
Z-3.15
X80.829
Y0.5
X42.314
Y4.5
X4.5
Y16.068
Z-2
Y19.068
Z-3.15
Y29.6
X0.5
Y59.4
X4.5
Y71.945
Z-2
Y74.945
Z-3.15
Y87.6
X0.5
Y117.4
X4.5
Y127.327
Z-2
Y130.327
Z-3.15
Y142.5
X42.314
Y146.5
X80.829
Y142.5
X100.167
Z-2
X103.167
Z-3.15
X117.743
Y146.5
X156.257
Y142.5
X174.995
Z-2
X177.995
Z-3.15
X193.171
Y146.5
X231.686
Y142.5
X269.5
Y130.379
Z-2
Y127.379
Z-3.15
Y117.4
X273.5
Y87.6
X269.5
Y73.856
Z-2
Y70.856
Z-3.15
Y59.4
X273.5
Y29.6
X269.5
Y19.475
Z-2
Y16.475
Z-3.15
Y4.5
X231.686
Y0.5
Z-4
X193.171
Y4.5
X177.043
Z-2
X174.043
Z-4
X156.257
Y0.5
X117.743
Y4.5
X102.311
Z-2
X99.311
Z-4
X80.829
Y0.5
X42.314
Y4.5
X4.5
Y16.068
Z-2
Y19.068
Z-4
Y29.6
X0.5
Y59.4
X4.5
Y71.945
Z-2
Y74.945
Z-4
Y87.6
X0.5
Y117.4
X4.5
Y127.327
Z-2
Y130.327
Z-4
Y142.5
X42.314
Y146.5
X80.829
Y142.5
X100.167
Z-2
X103.167
Z-4
X117.743
Y146.5
X156.257
Y142.5
X174.995
Z-2
X177.995
Z-4
X193.171
Y146.5
X231.686
Y142.5
X269.5
Y130.379
Z-2
Y127.379
Z-4
Y117.4
X273.5
Y87.6
X269.5
Y73.856
Z-2
Y70.856
Z-4
Y59.4
X273.5
Y29.6
X269.5
Y19.475
Z-2
Y16.475
Z-4
Y4.5
X231.686
Y0.5
Z10

G28 G91 Z0
G90
G28 G91 X0 Y0
G90
M5
M30
