(EnclosureLeftRight)
G90 G94
G17
G21
(When using Fusion for Personal Use, the feedrate of rapid)
(moves is reduced to match the feedrate of cutting moves,)
(which can increase machining time. Unrestricted rapid moves)
(are available with a Fusion Subscription.)
G28 G91 Z0
G90

(2D Pocket4)
S10000 M3
G17 G90 G94
G54
G0 X39.25 Y30.736
Z15
G1 Z5 F200
Z2.5
Z-0.55
X39.23
X39.185 Y30.73
X39.143 Y30.713
X39.106 Y30.685
X39.078 Y30.649
X39.061 Y30.607
X39.055 Y30.561
Y29.565
G3 X39.445 Y29.565 I0.195 J0
G1 Y30.561
X39.439 Y30.607
X39.422 Y30.649
X39.394 Y30.685
X39.357 Y30.713
X39.315 Y30.73
X39.27 Y30.736
X39.25
G2 X38.961 Y30.99 I0 J0.292
G3 X38.58 Y31.041 I-0.197 J-0.026
G1 X38.561 Y30.98
X38.555 Y30.917
Y29.124
G3 X38.874 Y28.805 I0.319 J0
G1 X39.626
G3 X39.945 Y29.124 I0 J0.319
G1 Y30.917
G3 X39.626 Y31.236 I-0.319 J0
G1 X38.874
G3 X38.58 Y31.041 I0 J-0.319
G2 X38.286 Y30.751 I-0.497 J0.209
G3 X38.055 Y30.408 I0.139 J-0.343
G1 Y28.624
G3 X38.374 Y28.305 I0.319 J0
G1 X40.126
G3 X40.445 Y28.624 I0 J0.319
G1 Y31.417
G3 X40.126 Y31.736 I-0.319 J0
G1 X38.374
G3 X38.055 Y31.417 I0 J-0.319
G1 Y30.408
G2 X37.803 Y30.029 I-0.41 J0
G3 X37.55 Y29.65 I0.158 J-0.379
G1 Y27.8
X40.95
Y32.241
X37.55
Y29.65
G3 X37.974 Y29.448 I0.26 J0
G1 X38.89 Y30.193
X39.11 Y30.406
X39.3 Y30.629
X39.313 Y30.655
X39.314 Y30.685
X39.301 Y30.711
X39.279 Y30.73
X39.25 Y30.736
Z-1.1
X39.23
X39.185 Y30.73
X39.143 Y30.713
X39.106 Y30.685
X39.078 Y30.649
X39.061 Y30.607
X39.055 Y30.561
Y29.565
G3 X39.445 Y29.565 I0.195 J0
G1 Y30.561
X39.439 Y30.607
X39.422 Y30.649
X39.394 Y30.685
X39.357 Y30.713
X39.315 Y30.73
X39.27 Y30.736
X39.25
G2 X38.961 Y30.99 I0 J0.292
G3 X38.58 Y31.041 I-0.197 J-0.026
G1 X38.561 Y30.98
X38.555 Y30.917
Y29.124
G3 X38.874 Y28.805 I0.319 J0
G1 X39.626
G3 X39.945 Y29.124 I0 J0.319
G1 Y30.917
G3 X39.626 Y31.236 I-0.319 J0
G1 X38.874
G3 X38.58 Y31.041 I0 J-0.319
G2 X38.286 Y30.751 I-0.497 J0.209
G3 X38.055 Y30.408 I0.139 J-0.343
G1 Y28.624
G3 X38.374 Y28.305 I0.319 J0
G1 X40.126
G3 X40.445 Y28.624 I0 J0.319
G1 Y31.417
G3 X40.126 Y31.736 I-0.319 J0
G1 X38.374
G3 X38.055 Y31.417 I0 J-0.319
G1 Y30.408
G2 X37.803 Y30.029 I-0.41 J0
G3 X37.55 Y29.65 I0.158 J-0.379
G1 Y27.8
X40.95
Y32.241
X37.55
Y29.65
Z5
X107.75 Y30.736
Z2.5
Z-0.55
X107.73
X107.685 Y30.73
X107.643 Y30.713
X107.606 Y30.685
X107.578 Y30.649
X107.561 Y30.607
X107.555 Y30.561
Y29.565
G3 X107.945 Y29.565 I0.195 J0
G1 Y30.561
X107.939 Y30.607
X107.922 Y30.649
X107.894 Y30.685
X107.857 Y30.713
X107.815 Y30.73
X107.77 Y30.736
X107.75
G2 X107.461 Y30.99 I0 J0.292
G3 X107.08 Y31.041 I-0.197 J-0.026
G1 X107.061 Y30.98
X107.055 Y30.917
Y29.124
G3 X107.374 Y28.805 I0.319 J0
G1 X108.126
G3 X108.445 Y29.124 I0 J0.319
G1 Y30.917
G3 X108.126 Y31.236 I-0.319 J0
G1 X107.374
G3 X107.08 Y31.041 I0 J-0.319
G2 X106.786 Y30.751 I-0.497 J0.209
G3 X106.555 Y30.408 I0.139 J-0.343
G1 Y28.624
G3 X106.874 Y28.305 I0.319 J0
G1 X108.626
G3 X108.945 Y28.624 I0 J0.319
G1 Y31.417
G3 X108.626 Y31.736 I-0.319 J0
G1 X106.874
G3 X106.555 Y31.417 I0 J-0.319
G1 Y30.408
G2 X106.302 Y30.029 I-0.41 J0
G3 X106.05 Y29.65 I0.158 J-0.379
G1 Y27.8
X109.45
Y32.241
X106.05
Y29.65
G3 X106.474 Y29.448 I0.26 J0
G1 X107.39 Y30.193
X107.61 Y30.406
X107.8 Y30.629
X107.813 Y30.655
X107.814 Y30.685
X107.801 Y30.711
X107.779 Y30.73
X107.75 Y30.736
Z-1.1
X107.73
X107.685 Y30.73
X107.643 Y30.713
X107.606 Y30.685
X107.578 Y30.649
X107.561 Y30.607
X107.555 Y30.561
Y29.565
G3 X107.945 Y29.565 I0.195 J0
G1 Y30.561
X107.939 Y30.607
X107.922 Y30.649
X107.894 Y30.685
X107.857 Y30.713
X107.815 Y30.73
X107.77 Y30.736
X107.75
G2 X107.461 Y30.99 I0 J0.292
G3 X107.08 Y31.041 I-0.197 J-0.026
G1 X107.061 Y30.98
X107.055 Y30.917
Y29.124
G3 X107.374 Y28.805 I0.319 J0
G1 X108.126
G3 X108.445 Y29.124 I0 J0.319
G1 Y30.917
G3 X108.126 Y31.236 I-0.319 J0
G1 X107.374
G3 X107.08 Y31.041 I0 J-0.319
G2 X106.786 Y30.751 I-0.497 J0.209
G3 X106.555 Y30.408 I0.139 J-0.343
G1 Y28.624
G3 X106.874 Y28.305 I0.319 J0
G1 X108.626
G3 X108.945 Y28.624 I0 J0.319
G1 Y31.417
G3 X108.626 Y31.736 I-0.319 J0
G1 X106.874
G3 X106.555 Y31.417 I0 J-0.319
G1 Y30.408
G2 X106.302 Y30.029 I-0.41 J0
G3 X106.05 Y29.65 I0.158 J-0.379
G1 Y27.8
X109.45
Y32.241
X106.05
Y29.65
Z15
(When using Fusion for Personal Use, the feedrate of rapid)
(moves is reduced to match the feedrate of cutting moves,)
(which can increase machining time. Unrestricted rapid moves)
(are available with a Fusion Subscription.)

(2D Pocket5)
G0 X73.394 Y60.604
G1 Z15 F200
Z5
Z0.2
Z-0.8
Y60.6
Y58.094
X73.4 Y58.057
X73.419 Y58.026
X73.447 Y58.002
X73.482 Y57.989
X73.518
X73.553 Y58.002
X73.581 Y58.026
X73.6 Y58.057
X73.606 Y58.094
Y60.594
G3 X73.408 Y60.794 I-0.2 J0
G1 X73.101 Y60.796
G3 X72.9 Y60.596 I-0.001 J-0.2
G1 Y57.4
X74.1
Y59.2
Y60.591
G3 X73.909 Y60.79 I-0.2 J0
G1 X73.603 Y60.804
G3 X73.394 Y60.604 I-0.009 J-0.2
G1 Z-1.6
Y60.6
Y58.094
X73.4 Y58.057
X73.419 Y58.026
X73.447 Y58.002
X73.482 Y57.989
X73.518
X73.553 Y58.002
X73.581 Y58.026
X73.6 Y58.057
X73.606 Y58.094
Y60.594
G3 X73.408 Y60.794 I-0.2 J0
G1 X73.101 Y60.796
G3 X72.9 Y60.596 I-0.001 J-0.2
G1 Y57.4
X74.1
Y59.2
Y60.591
Z5
X128.694 Y60.604
Z0.2
Z-0.8
Y60.6
Y58.094
X128.7 Y58.057
X128.719 Y58.026
X128.747 Y58.002
X128.782 Y57.989
X128.818
X128.853 Y58.002
X128.881 Y58.026
X128.9 Y58.057
X128.906 Y58.094
Y60.594
G3 X128.708 Y60.794 I-0.2 J0
G1 X128.401 Y60.796
G3 X128.2 Y60.596 I-0.001 J-0.2
G1 Y57.4
X129.4
Y59.2
Y60.591
G3 X129.209 Y60.79 I-0.2 J0
G1 X128.903 Y60.804
G3 X128.694 Y60.604 I-0.009 J-0.2
G1 Z-1.6
Y60.6
Y58.094
X128.7 Y58.057
X128.719 Y58.026
X128.747 Y58.002
X128.782 Y57.989
X128.818
X128.853 Y58.002
X128.881 Y58.026
X128.9 Y58.057
X128.906 Y58.094
Y60.594
G3 X128.708 Y60.794 I-0.2 J0
G1 X128.401 Y60.796
G3 X128.2 Y60.596 I-0.001 J-0.2
G1 Y57.4
X129.4
Y59.2
Y60.591
Z5
X18.094 Y60.604
Z0.2
Z-0.8
Y60.6
Y58.094
X18.1 Y58.057
X18.119 Y58.026
X18.147 Y58.002
X18.182 Y57.989
X18.218
X18.253 Y58.002
X18.281 Y58.026
X18.3 Y58.057
X18.306 Y58.094
Y60.594
G3 X18.108 Y60.794 I-0.2 J0
G1 X17.801 Y60.796
G3 X17.6 Y60.596 I-0.001 J-0.2
G1 Y57.4
X18.8
Y59.2
Y60.591
G3 X18.609 Y60.79 I-0.2 J0
G1 X18.303 Y60.804
G3 X18.094 Y60.604 I-0.009 J-0.2
G1 Z-1.6
Y60.6
Y58.094
X18.1 Y58.057
X18.119 Y58.026
X18.147 Y58.002
X18.182 Y57.989
X18.218
X18.253 Y58.002
X18.281 Y58.026
X18.3 Y58.057
X18.306 Y58.094
Y60.594
G3 X18.108 Y60.794 I-0.2 J0
G1 X17.801 Y60.796
G3 X17.6 Y60.596 I-0.001 J-0.2
G1 Y57.4
X18.8
Y59.2
Y60.591
Z15
(When using Fusion for Personal Use, the feedrate of rapid)
(moves is reduced to match the feedrate of cutting moves,)
(which can increase machining time. Unrestricted rapid moves)
(are available with a Fusion Subscription.)

(2D Contour10)
G0 X1 Y59.7
G1 Z15 F200
Z5
Z0.2
Z-1.05
X146
G2 X146.5 Y59.2 I0 J-0.5
G1 Y39.8
G2 X146 Y39.3 I-0.5 J0
G1 X142.5
Y20.9
X146
G2 X146.5 Y20.4 I0 J-0.5
G1 Y1
G2 X146 Y0.5 I-0.5 J0
G1 X117
G2 X116.5 Y1 I0 J0.5
G1 Y4.5
X88.5
Y1
G2 X88 Y0.5 I-0.5 J0
G1 X59
G2 X58.5 Y1 I0 J0.5
G1 Y4.5
X30.5
Y1
G2 X30 Y0.5 I-0.5 J0
G1 X1
G2 X0.5 Y1 I0 J0.5
G1 Y20.4
G2 X1 Y20.9 I0.5 J0
G1 X4.5
Y39.3
X1
G2 X0.5 Y39.8 I0 J0.5
G1 Y59.2
G2 X1 Y59.7 I0.5 J0
G1 Z-2.1
X43.247
Z-2
X45.247
Z-2.1
X102.601
Z-2
X104.601
Z-2.1
X146
G2 X146.5 Y59.2 I0 J-0.5
G1 Y39.8
G2 X146 Y39.3 I-0.5 J0
G1 X142.5
Y31.315
Z-2
Y29.315
Z-2.1
Y20.9
X146
G2 X146.5 Y20.4 I0 J-0.5
G1 Y1
G2 X146 Y0.5 I-0.5 J0
G1 X117
G2 X116.5 Y1 I0 J0.5
G1 Y4.5
X105.217
Z-2
X103.217
Z-2.1
X88.5
Y1
G2 X88 Y0.5 I-0.5 J0
G1 X59
G2 X58.5 Y1 I0 J0.5
G1 Y4.5
X46.236
Z-2
X44.236
Z-2.1
X30.5
Y1
G2 X30 Y0.5 I-0.5 J0
G1 X1
G2 X0.5 Y1 I0 J0.5
G1 Y20.4
G2 X1 Y20.9 I0.5 J0
G1 X4.5
Y29.874
Z-2
Y31.874
Z-2.1
Y39.3
X1
G2 X0.5 Y39.8 I0 J0.5
G1 Y59.2
G2 X1 Y59.7 I0.5 J0
G1 Z-3.15
X43.247
Z-2
X45.247
Z-3.15
X102.601
Z-2
X104.601
Z-3.15
X146
G2 X146.5 Y59.2 I0 J-0.5
G1 Y39.8
G2 X146 Y39.3 I-0.5 J0
G1 X142.5
Y31.315
Z-2
Y29.315
Z-3.15
Y20.9
X146
G2 X146.5 Y20.4 I0 J-0.5
G1 Y1
G2 X146 Y0.5 I-0.5 J0
G1 X117
G2 X116.5 Y1 I0 J0.5
G1 Y4.5
X105.217
Z-2
X103.217
Z-3.15
X88.5
Y1
G2 X88 Y0.5 I-0.5 J0
G1 X59
G2 X58.5 Y1 I0 J0.5
G1 Y4.5
X46.236
Z-2
X44.236
Z-3.15
X30.5
Y1
G2 X30 Y0.5 I-0.5 J0
G1 X1
G2 X0.5 Y1 I0 J0.5
G1 Y20.4
G2 X1 Y20.9 I0.5 J0
G1 X4.5
Y29.874
Z-2
Y31.874
Z-3.15
Y39.3
X1
G2 X0.5 Y39.8 I0 J0.5
G1 Y59.2
G2 X1 Y59.7 I0.5 J0
G1 Z-4
X43.247
Z-2
X45.247
Z-4
X102.601
Z-2
X104.601
Z-4
X146
G2 X146.5 Y59.2 I0 J-0.5
G1 Y39.8
G2 X146 Y39.3 I-0.5 J0
G1 X142.5
Y31.315
Z-2
Y29.315
Z-4
Y20.9
X146
G2 X146.5 Y20.4 I0 J-0.5
G1 Y1
G2 X146 Y0.5 I-0.5 J0
G1 X117
G2 X116.5 Y1 I0 J0.5
G1 Y4.5
X105.217
Z-2
X103.217
Z-4
X88.5
Y1
G2 X88 Y0.5 I-0.5 J0
G1 X59
G2 X58.5 Y1 I0 J0.5
G1 Y4.5
X46.236
Z-2
X44.236
Z-4
X30.5
Y1
G2 X30 Y0.5 I-0.5 J0
G1 X1
G2 X0.5 Y1 I0 J0.5
G1 Y20.4
G2 X1 Y20.9 I0.5 J0
G1 X4.5
Y29.874
Z-2
Y31.874
Z-4
Y39.3
X1
G2 X0.5 Y39.8 I0 J0.5
G1 Y59.2
G2 X1 Y59.7 I0.5 J0
G1 Z15

G28 G91 Z0
G90
G28 G91 X0 Y0
G90
M5
M30
