(EnclosureBackNoLightSensor)
G90 G94
G17
G21
(When using Fusion for Personal Use, the feedrate of rapid)
(moves is reduced to match the feedrate of cutting moves,)
(which can increase machining time. Unrestricted rapid moves)
(are available with a Fusion Subscription.)
G28 G91 Z0
G90

(Mount holes)
S10000 M3
G17 G90 G94
G54
G0 X38.6 Y8
Z10
G1 Z1 F200
Z0.2
Z-1.05
G3 X37.4 Y8 I-0.6 J0
X38.6 Y8 I0.6 J0
G1 Z-2.1
G3 X37.4 Y8 I-0.6 J0
X38.6 Y8 I0.6 J0
G1 Z-3.15
G3 X37.4 Y8 I-0.6 J0
X38.6 Y8 I0.6 J0
G1 Z-4
G3 X37.4 Y8 I-0.6 J0
X38.6 Y8 I0.6 J0
G1 Z5
X104.6
Z1
Z0.2
Z-1.05
G3 X103.4 Y8 I-0.6 J0
X104.6 Y8 I0.6 J0
G1 Z-2.1
G3 X103.4 Y8 I-0.6 J0
X104.6 Y8 I0.6 J0
G1 Z-3.15
G3 X103.4 Y8 I-0.6 J0
X104.6 Y8 I0.6 J0
G1 Z-4
G3 X103.4 Y8 I-0.6 J0
X104.6 Y8 I0.6 J0
G1 Z5
X170.6
Z1
Z0.2
Z-1.05
G3 X169.4 Y8 I-0.6 J0
X170.6 Y8 I0.6 J0
G1 Z-2.1
G3 X169.4 Y8 I-0.6 J0
X170.6 Y8 I0.6 J0
G1 Z-3.15
G3 X169.4 Y8 I-0.6 J0
X170.6 Y8 I0.6 J0
G1 Z-4
G3 X169.4 Y8 I-0.6 J0
X170.6 Y8 I0.6 J0
G1 Z5
X236.567 Y8.195
Z1
Z0.2
Z-1.05
G3 X235.433 Y7.805 I-0.567 J-0.195
X236.567 Y8.195 I0.567 J0.195
G1 Z-2.1
G3 X235.433 Y7.805 I-0.567 J-0.195
X236.567 Y8.195 I0.567 J0.195
G1 Z-3.15
G3 X235.433 Y7.805 I-0.567 J-0.195
X236.567 Y8.195 I0.567 J0.195
G1 Z-4
G3 X235.433 Y7.805 I-0.567 J-0.195
X236.567 Y8.195 I0.567 J0.195
G1 Z5
X266.6 Y39.25
Z1
Z0.2
Z-1.05
G3 X265.4 Y39.25 I-0.6 J0
X266.6 Y39.25 I0.6 J0
G1 Z-2.1
G3 X265.4 Y39.25 I-0.6 J0
X266.6 Y39.25 I0.6 J0
G1 Z-3.15
G3 X265.4 Y39.25 I-0.6 J0
X266.6 Y39.25 I0.6 J0
G1 Z-4
G3 X265.4 Y39.25 I-0.6 J0
X266.6 Y39.25 I0.6 J0
G1 Z5
Y107.75
Z1
Z0.2
Z-1.05
G3 X265.4 Y107.75 I-0.6 J0
X266.6 Y107.75 I0.6 J0
G1 Z-2.1
G3 X265.4 Y107.75 I-0.6 J0
X266.6 Y107.75 I0.6 J0
G1 Z-3.15
G3 X265.4 Y107.75 I-0.6 J0
X266.6 Y107.75 I0.6 J0
G1 Z-4
G3 X265.4 Y107.75 I-0.6 J0
X266.6 Y107.75 I0.6 J0
G1 Z5
X236.6 Y139
Z1
Z0.2
Z-1.05
G3 X235.4 Y139 I-0.6 J0
X236.6 Y139 I0.6 J0
G1 Z-2.1
G3 X235.4 Y139 I-0.6 J0
X236.6 Y139 I0.6 J0
G1 Z-3.15
G3 X235.4 Y139 I-0.6 J0
X236.6 Y139 I0.6 J0
G1 Z-4
G3 X235.4 Y139 I-0.6 J0
X236.6 Y139 I0.6 J0
G1 Z5
X170.6
Z1
Z0.2
Z-1.05
G3 X169.4 Y139 I-0.6 J0
X170.6 Y139 I0.6 J0
G1 Z-2.1
G3 X169.4 Y139 I-0.6 J0
X170.6 Y139 I0.6 J0
G1 Z-3.15
G3 X169.4 Y139 I-0.6 J0
X170.6 Y139 I0.6 J0
G1 Z-4
G3 X169.4 Y139 I-0.6 J0
X170.6 Y139 I0.6 J0
G1 Z5
X104.6
Z1
Z0.2
Z-1.05
G3 X103.4 Y139 I-0.6 J0
X104.6 Y139 I0.6 J0
G1 Z-2.1
G3 X103.4 Y139 I-0.6 J0
X104.6 Y139 I0.6 J0
G1 Z-3.15
G3 X103.4 Y139 I-0.6 J0
X104.6 Y139 I0.6 J0
G1 Z-4
G3 X103.4 Y139 I-0.6 J0
X104.6 Y139 I0.6 J0
G1 Z5
X38.6
Z1
Z0.2
Z-1.05
G3 X37.4 Y139 I-0.6 J0
X38.6 Y139 I0.6 J0
G1 Z-2.1
G3 X37.4 Y139 I-0.6 J0
X38.6 Y139 I0.6 J0
G1 Z-3.15
G3 X37.4 Y139 I-0.6 J0
X38.6 Y139 I0.6 J0
G1 Z-4
G3 X37.4 Y139 I-0.6 J0
X38.6 Y139 I0.6 J0
G1 Z5
X8.5 Y107.75
Z1
Z0.2
Z-1.05
G3 X7.5 Y107.75 I-0.5 J0
X8.5 Y107.75 I0.5 J0
G1 Z-2.1
G3 X7.5 Y107.75 I-0.5 J0
X8.5 Y107.75 I0.5 J0
G1 Z-3.15
G3 X7.5 Y107.75 I-0.5 J0
X8.5 Y107.75 I0.5 J0
G1 Z-4
G3 X7.5 Y107.75 I-0.5 J0
X8.5 Y107.75 I0.5 J0
G1 Z5
X8.6 Y39.25
Z1
Z0.2
Z-1.05
G3 X7.4 Y39.25 I-0.6 J0
X8.6 Y39.25 I0.6 J0
G1 Z-2.1
G3 X7.4 Y39.25 I-0.6 J0
X8.6 Y39.25 I0.6 J0
G1 Z-3.15
G3 X7.4 Y39.25 I-0.6 J0
X8.6 Y39.25 I0.6 J0
G1 Z-4
G3 X7.4 Y39.25 I-0.6 J0
X8.6 Y39.25 I0.6 J0
G1 Z10
(When using Fusion for Personal Use, the feedrate of rapid)
(moves is reduced to match the feedrate of cutting moves,)
(which can increase machining time. Unrestricted rapid moves)
(are available with a Fusion Subscription.)

(Ventilation)
G0 X89.5 Y107.166
G1 Z10 F200
Z1
Z0.2
Z-1.05
Y107.333
X32.5
Y107
X89.5
Y107.166
Z-2.1
Y107.333
X32.5
Y107
X89.5
Y107.166
Z-3.15
Y107.333
X32.5
Y107
X89.5
Y107.166
Z-4
Y107.333
X32.5
Y107
X89.5
Y107.166
Z5
Y100.083
Z1
Z0.2
Z-1.05
Y100.25
X32.5
Y99.917
X89.5
Y100.083
Z-2.1
Y100.25
X32.5
Y99.917
X89.5
Y100.083
Z-3.15
Y100.25
X32.5
Y99.917
X89.5
Y100.083
Z-4
Y100.25
X32.5
Y99.917
X89.5
Y100.083
Z5
Y93
Z1
Z0.2
Z-1.05
Y93.167
X32.5
Y92.833
X89.5
Y93
Z-2.1
Y93.167
X32.5
Y92.833
X89.5
Y93
Z-3.15
Y93.167
X32.5
Y92.833
X89.5
Y93
Z-4
Y93.167
X32.5
Y92.833
X89.5
Y93
Z5
Y85.917
Z1
Z0.2
Z-1.05
Y86.083
X32.5
Y85.75
X89.5
Y85.917
Z-2.1
Y86.083
X32.5
Y85.75
X89.5
Y85.917
Z-3.15
Y86.083
X32.5
Y85.75
X89.5
Y85.917
Z-4
Y86.083
X32.5
Y85.75
X89.5
Y85.917
Z5
Y78.833
Z1
Z0.2
Z-1.05
Y79
X32.5
Y78.667
X89.5
Y78.833
Z-2.1
Y79
X32.5
Y78.667
X89.5
Y78.833
Z-3.15
Y79
X32.5
Y78.667
X89.5
Y78.833
Z-4
Y79
X32.5
Y78.667
X89.5
Y78.833
Z5
X32.667 Y71.583
Z1
Z0.2
Z-1.05
X89.5
Y71.917
X32.5
Y71.583
X32.667
Z-2.1
X89.5
Y71.917
X32.5
Y71.583
X32.667
Z-3.15
X89.5
Y71.917
X32.5
Y71.583
X32.667
Z-4
X89.5
Y71.917
X32.5
Y71.583
X32.667
Z5
X89.5 Y64.667
Z1
Z0.2
Z-1.05
Y64.833
X32.5
Y64.5
X89.5
Y64.667
Z-2.1
Y64.833
X32.5
Y64.5
X89.5
Y64.667
Z-3.15
Y64.833
X32.5
Y64.5
X89.5
Y64.667
Z-4
Y64.833
X32.5
Y64.5
X89.5
Y64.667
Z5
X32.667 Y57.417
Z1
Z0.2
Z-1.05
X89.5
Y57.75
X32.5
Y57.417
X32.667
Z-2.1
X89.5
Y57.75
X32.5
Y57.417
X32.667
Z-3.15
X89.5
Y57.75
X32.5
Y57.417
X32.667
Z-4
X89.5
Y57.75
X32.5
Y57.417
X32.667
Z5
X89.5 Y50.5
Z1
Z0.2
Z-1.05
Y50.667
X32.5
Y50.333
X89.5
Y50.5
Z-2.1
Y50.667
X32.5
Y50.333
X89.5
Y50.5
Z-3.15
Y50.667
X32.5
Y50.333
X89.5
Y50.5
Z-4
Y50.667
X32.5
Y50.333
X89.5
Y50.5
Z10
(When using Fusion for Personal Use, the feedrate of rapid)
(moves is reduced to match the feedrate of cutting moves,)
(which can increase machining time. Unrestricted rapid moves)
(are available with a Fusion Subscription.)

(Power socket)
G0 X54.45 Y8.5
G1 Z10 F200
Z1
Z0.2
Z-1.05
X73
Y19.4
X49
Y8.5
X54.45
Z-2.1
X73
Y19.4
X49
Y8.5
X54.45
Z-3.15
X73
Y19.4
X49
Y8.5
X54.45
Z-4
X73
Y19.4
X49
Y8.5
X54.45
Z10
(When using Fusion for Personal Use, the feedrate of rapid)
(moves is reduced to match the feedrate of cutting moves,)
(which can increase machining time. Unrestricted rapid moves)
(are available with a Fusion Subscription.)

(Outline)
G0 X231.686 Y0.5
G1 Z10 F200
Z1
Z0.2
Z-1.05
X193.171
Y4.5
X156.257
Y1
Y0.5
X117.743
Y4.5
X80.829
Y1
Y0.5
X42.314
Y4.5
X5
X4.5
Y29.6
X1
X0.5
Y59.4
X4.5
Y87.6
X1
X0.5
Y117.4
X4.5
Y142
Y142.5
X42.314
Y146
Y146.5
X80.829
Y142.5
X117.743
Y146
Y146.5
X156.257
Y142.5
X193.171
Y146
Y146.5
X231.686
Y142.5
X269
X269.5
Y117.4
X273
X273.5
Y87.6
X269.5
Y59.4
X273
X273.5
Y29.6
X269.5
Y5
Y4.5
X231.686
Y1
Y0.5
Z-2.1
X193.171
Y4.5
X177.043
Z-2
X174.043
Z-2.1
X156.257
Y0.5
X117.743
Y4.5
X102.311
Z-2
X99.311
Z-2.1
X80.829
Y0.5
X42.314
Y4.5
X4.5
Y16.068
Z-2
Y19.068
Z-2.1
Y29.6
X0.5
Y59.4
X4.5
Y71.945
Z-2
Y74.945
Z-2.1
Y87.6
X0.5
Y117.4
X4.5
Y127.327
Z-2
Y130.327
Z-2.1
Y142.5
X42.314
Y146.5
X80.829
Y142.5
X100.167
Z-2
X103.167
Z-2.1
X117.743
Y146.5
X156.257
Y142.5
X174.995
Z-2
X177.995
Z-2.1
X193.171
Y146.5
X231.686
Y142.5
X269.5
Y130.379
Z-2
Y127.379
Z-2.1
Y117.4
X273.5
Y87.6
X269.5
Y73.856
Z-2
Y70.856
Z-2.1
Y59.4
X273.5
Y29.6
X269.5
Y19.475
Z-2
Y16.475
Z-2.1
Y4.5
X231.686
Y0.5
Z-3.15
X193.171
Y4.5
X177.043
Z-2
X174.043
Z-3.15
X156.257
Y0.5
X117.743
Y4.5
X102.311
Z-2
X99.311
Z-3.15
X80.829
Y0.5
X42.314
Y4.5
X4.5
Y16.068
Z-2
Y19.068
Z-3.15
Y29.6
X0.5
Y59.4
X4.5
Y71.945
Z-2
Y74.945
Z-3.15
Y87.6
X0.5
Y117.4
X4.5
Y127.327
Z-2
Y130.327
Z-3.15
Y142.5
X42.314
Y146.5
X80.829
Y142.5
X100.167
Z-2
X103.167
Z-3.15
X117.743
Y146.5
X156.257
Y142.5
X174.995
Z-2
X177.995
Z-3.15
X193.171
Y146.5
X231.686
Y142.5
X269.5
Y130.379
Z-2
Y127.379
Z-3.15
Y117.4
X273.5
Y87.6
X269.5
Y73.856
Z-2
Y70.856
Z-3.15
Y59.4
X273.5
Y29.6
X269.5
Y19.475
Z-2
Y16.475
Z-3.15
Y4.5
X231.686
Y0.5
Z-4
X193.171
Y4.5
X177.043
Z-2
X174.043
Z-4
X156.257
Y0.5
X117.743
Y4.5
X102.311
Z-2
X99.311
Z-4
X80.829
Y0.5
X42.314
Y4.5
X4.5
Y16.068
Z-2
Y19.068
Z-4
Y29.6
X0.5
Y59.4
X4.5
Y71.945
Z-2
Y74.945
Z-4
Y87.6
X0.5
Y117.4
X4.5
Y127.327
Z-2
Y130.327
Z-4
Y142.5
X42.314
Y146.5
X80.829
Y142.5
X100.167
Z-2
X103.167
Z-4
X117.743
Y146.5
X156.257
Y142.5
X174.995
Z-2
X177.995
Z-4
X193.171
Y146.5
X231.686
Y142.5
X269.5
Y130.379
Z-2
Y127.379
Z-4
Y117.4
X273.5
Y87.6
X269.5
Y73.856
Z-2
Y70.856
Z-4
Y59.4
X273.5
Y29.6
X269.5
Y19.475
Z-2
Y16.475
Z-4
Y4.5
X231.686
Y0.5
Z10

G28 G91 Z0
G90
G28 G91 X0 Y0
G90
M5
M30
