(EnclosureTopBottom)
G90 G94
G17
G21
(When using Fusion for Personal Use, the feedrate of rapid)
(moves is reduced to match the feedrate of cutting moves,)
(which can increase machining time. Unrestricted rapid moves)
(are available with a Fusion Subscription.)
G28 G91 Z0
G90

(2D Pocket6)
S10000 M3
G17 G90 G94
G54
G0 X104 Y30.736
Z15
G1 Z5 F200
Z2.5
Z-0.55
X103.98
X103.935 Y30.73
X103.893 Y30.713
X103.856 Y30.685
X103.828 Y30.649
X103.811 Y30.607
X103.805 Y30.561
Y29.48
X103.811 Y29.435
X103.828 Y29.393
X103.856 Y29.356
X103.893 Y29.328
X103.935 Y29.311
X103.98 Y29.305
X104.02
X104.065 Y29.311
X104.107 Y29.328
X104.144 Y29.356
X104.172 Y29.393
X104.189 Y29.435
X104.195 Y29.48
Y30.561
X104.189 Y30.607
X104.172 Y30.649
X104.144 Y30.685
X104.107 Y30.713
X104.065 Y30.73
X104.02 Y30.736
X104
G2 X103.711 Y30.99 I0 J0.292
G3 X103.33 Y31.041 I-0.197 J-0.026
G1 X103.311 Y30.98
X103.305 Y30.917
Y29.124
G3 X103.624 Y28.805 I0.319 J0
G1 X104.376
G3 X104.695 Y29.124 I0 J0.319
G1 Y30.917
G3 X104.376 Y31.236 I-0.319 J0
G1 X103.624
G3 X103.33 Y31.041 I0 J-0.319
G2 X103.036 Y30.751 I-0.497 J0.209
G3 X102.805 Y30.408 I0.139 J-0.343
G1 Y28.624
G3 X103.124 Y28.305 I0.319 J0
G1 X104.876
G3 X105.195 Y28.624 I0 J0.319
G1 Y31.417
G3 X104.876 Y31.736 I-0.319 J0
G1 X103.124
G3 X102.805 Y31.417 I0 J-0.319
G1 Y30.408
G2 X102.552 Y30.029 I-0.41 J0
G3 X102.3 Y29.65 I0.158 J-0.379
G1 Y27.8
X105.7
Y32.241
X102.3
Y29.65
G3 X102.724 Y29.448 I0.26 J0
G1 X103.64 Y30.193
X103.86 Y30.406
X104.05 Y30.629
X104.063 Y30.655
X104.064 Y30.685
X104.051 Y30.711
X104.029 Y30.73
X104 Y30.736
Z-1.1
X103.98
X103.935 Y30.73
X103.893 Y30.713
X103.856 Y30.685
X103.828 Y30.649
X103.811 Y30.607
X103.805 Y30.561
Y29.48
X103.811 Y29.435
X103.828 Y29.393
X103.856 Y29.356
X103.893 Y29.328
X103.935 Y29.311
X103.98 Y29.305
X104.02
X104.065 Y29.311
X104.107 Y29.328
X104.144 Y29.356
X104.172 Y29.393
X104.189 Y29.435
X104.195 Y29.48
Y30.561
X104.189 Y30.607
X104.172 Y30.649
X104.144 Y30.685
X104.107 Y30.713
X104.065 Y30.73
X104.02 Y30.736
X104
G2 X103.711 Y30.99 I0 J0.292
G3 X103.33 Y31.041 I-0.197 J-0.026
G1 X103.311 Y30.98
X103.305 Y30.917
Y29.124
G3 X103.624 Y28.805 I0.319 J0
G1 X104.376
G3 X104.695 Y29.124 I0 J0.319
G1 Y30.917
G3 X104.376 Y31.236 I-0.319 J0
G1 X103.624
G3 X103.33 Y31.041 I0 J-0.319
G2 X103.036 Y30.751 I-0.497 J0.209
G3 X102.805 Y30.408 I0.139 J-0.343
G1 Y28.624
G3 X103.124 Y28.305 I0.319 J0
G1 X104.876
G3 X105.195 Y28.624 I0 J0.319
G1 Y31.417
G3 X104.876 Y31.736 I-0.319 J0
G1 X103.124
G3 X102.805 Y31.417 I0 J-0.319
G1 Y30.408
G2 X102.552 Y30.029 I-0.41 J0
G3 X102.3 Y29.65 I0.158 J-0.379
G1 Y27.8
X105.7
Y32.241
X102.3
Y29.65
Z5
X38 Y30.736
Z2.5
Z-0.55
X37.98
X37.935 Y30.73
X37.893 Y30.713
X37.856 Y30.685
X37.828 Y30.649
X37.811 Y30.607
X37.805 Y30.561
Y29.565
G3 X38.195 Y29.565 I0.195 J0
G1 Y30.561
X38.189 Y30.607
X38.172 Y30.649
X38.144 Y30.685
X38.107 Y30.713
X38.065 Y30.73
X38.02 Y30.736
X38
G2 X37.711 Y30.99 I0 J0.292
G3 X37.33 Y31.041 I-0.197 J-0.026
G1 X37.311 Y30.98
X37.305 Y30.917
Y29.124
G3 X37.624 Y28.805 I0.319 J0
G1 X38.376
G3 X38.695 Y29.124 I0 J0.319
G1 Y30.917
G3 X38.376 Y31.236 I-0.319 J0
G1 X37.624
G3 X37.33 Y31.041 I0 J-0.319
G2 X37.036 Y30.751 I-0.497 J0.209
G3 X36.805 Y30.408 I0.139 J-0.343
G1 Y28.624
G3 X37.124 Y28.305 I0.319 J0
G1 X38.876
G3 X39.195 Y28.624 I0 J0.319
G1 Y31.417
G3 X38.876 Y31.736 I-0.319 J0
G1 X37.124
G3 X36.805 Y31.417 I0 J-0.319
G1 Y30.408
G2 X36.553 Y30.029 I-0.41 J0
G3 X36.3 Y29.65 I0.158 J-0.379
G1 Y27.8
X39.7
Y32.241
X36.3
Y29.65
G3 X36.724 Y29.448 I0.26 J0
G1 X37.64 Y30.193
X37.86 Y30.406
X38.05 Y30.629
X38.063 Y30.655
X38.064 Y30.685
X38.051 Y30.711
X38.029 Y30.73
X38 Y30.736
Z-1.1
X37.98
X37.935 Y30.73
X37.893 Y30.713
X37.856 Y30.685
X37.828 Y30.649
X37.811 Y30.607
X37.805 Y30.561
Y29.565
G3 X38.195 Y29.565 I0.195 J0
G1 Y30.561
X38.189 Y30.607
X38.172 Y30.649
X38.144 Y30.685
X38.107 Y30.713
X38.065 Y30.73
X38.02 Y30.736
X38
G2 X37.711 Y30.99 I0 J0.292
G3 X37.33 Y31.041 I-0.197 J-0.026
G1 X37.311 Y30.98
X37.305 Y30.917
Y29.124
G3 X37.624 Y28.805 I0.319 J0
G1 X38.376
G3 X38.695 Y29.124 I0 J0.319
G1 Y30.917
G3 X38.376 Y31.236 I-0.319 J0
G1 X37.624
G3 X37.33 Y31.041 I0 J-0.319
G2 X37.036 Y30.751 I-0.497 J0.209
G3 X36.805 Y30.408 I0.139 J-0.343
G1 Y28.624
G3 X37.124 Y28.305 I0.319 J0
G1 X38.876
G3 X39.195 Y28.624 I0 J0.319
G1 Y31.417
G3 X38.876 Y31.736 I-0.319 J0
G1 X37.124
G3 X36.805 Y31.417 I0 J-0.319
G1 Y30.408
G2 X36.553 Y30.029 I-0.41 J0
G3 X36.3 Y29.65 I0.158 J-0.379
G1 Y27.8
X39.7
Y32.241
X36.3
Y29.65
Z5
X170 Y29.37
Z2.5
Z-0.55
G3 X170.195 Y29.565 I0 J0.195
G1 Y30.561
X170.189 Y30.607
X170.172 Y30.649
X170.144 Y30.685
X170.107 Y30.713
X170.065 Y30.73
X170.02 Y30.736
X169.98
X169.935 Y30.73
X169.893 Y30.713
X169.856 Y30.685
X169.828 Y30.649
X169.811 Y30.607
X169.805 Y30.561
Y29.565
G3 X170 Y29.37 I0.195 J0
G2 X170.32 Y29.159 I0 J-0.348
G3 X170.695 Y29.236 I0.18 J0.077
G1 Y30.917
G3 X170.376 Y31.236 I-0.319 J0
G1 X169.624
G3 X169.305 Y30.917 I0 J-0.319
G1 Y29.124
G3 X169.624 Y28.805 I0.319 J0
G1 X170.376
G3 X170.695 Y29.124 I0 J0.319
G1 Y29.236
G2 X170.945 Y29.611 I0.406 J0
G3 X171.195 Y29.986 I-0.156 J0.375
G1 Y31.417
G3 X170.876 Y31.736 I-0.319 J0
G1 X169.124
G3 X168.805 Y31.417 I0 J-0.319
G1 Y28.624
G3 X169.124 Y28.305 I0.319 J0
G1 X170.876
G3 X171.195 Y28.624 I0 J0.319
G1 Y29.986
G2 X171.447 Y30.365 I0.41 J0
G3 X171.7 Y30.744 I-0.158 J0.379
G1 Y32.241
X168.3
Y27.8
X171.7
Y30.744
G3 X171.414 Y30.875 I-0.173 J0
G1 X170.823 Y30.367
X170.089 Y29.594
X169.966 Y29.441
X169.957 Y29.418
X169.961 Y29.395
X169.977 Y29.377
X170 Y29.37
Z-1.1
G3 X170.195 Y29.565 I0 J0.195
G1 Y30.561
X170.189 Y30.607
X170.172 Y30.649
X170.144 Y30.685
X170.107 Y30.713
X170.065 Y30.73
X170.02 Y30.736
X169.98
X169.935 Y30.73
X169.893 Y30.713
X169.856 Y30.685
X169.828 Y30.649
X169.811 Y30.607
X169.805 Y30.561
Y29.565
G3 X170 Y29.37 I0.195 J0
G2 X170.32 Y29.159 I0 J-0.348
G3 X170.695 Y29.236 I0.18 J0.077
G1 Y30.917
G3 X170.376 Y31.236 I-0.319 J0
G1 X169.624
G3 X169.305 Y30.917 I0 J-0.319
G1 Y29.124
G3 X169.624 Y28.805 I0.319 J0
G1 X170.376
G3 X170.695 Y29.124 I0 J0.319
G1 Y29.236
G2 X170.945 Y29.611 I0.406 J0
G3 X171.195 Y29.986 I-0.156 J0.375
G1 Y31.417
G3 X170.876 Y31.736 I-0.319 J0
G1 X169.124
G3 X168.805 Y31.417 I0 J-0.319
G1 Y28.624
G3 X169.124 Y28.305 I0.319 J0
G1 X170.876
G3 X171.195 Y28.624 I0 J0.319
G1 Y29.986
G2 X171.447 Y30.365 I0.41 J0
G3 X171.7 Y30.744 I-0.158 J0.379
G1 Y32.241
X168.3
Y27.8
X171.7
Y30.744
Z5
X236 Y30.736
Z2.5
Z-0.55
X235.98
X235.935 Y30.73
X235.893 Y30.713
X235.856 Y30.685
X235.828 Y30.649
X235.811 Y30.607
X235.805 Y30.561
Y29.565
G3 X236.195 Y29.565 I0.195 J0
G1 Y30.561
X236.189 Y30.607
X236.172 Y30.649
X236.144 Y30.685
X236.107 Y30.713
X236.065 Y30.73
X236.02 Y30.736
X236
G2 X235.711 Y30.99 I0 J0.292
G3 X235.33 Y31.041 I-0.197 J-0.026
G1 X235.311 Y30.98
X235.305 Y30.917
Y29.124
G3 X235.624 Y28.805 I0.319 J0
G1 X236.376
G3 X236.695 Y29.124 I0 J0.319
G1 Y30.917
G3 X236.376 Y31.236 I-0.319 J0
G1 X235.624
G3 X235.33 Y31.041 I0 J-0.319
G2 X235.036 Y30.751 I-0.497 J0.209
G3 X234.805 Y30.408 I0.139 J-0.343
G1 Y28.624
G3 X235.124 Y28.305 I0.319 J0
G1 X236.876
G3 X237.195 Y28.624 I0 J0.319
G1 Y31.417
G3 X236.876 Y31.736 I-0.319 J0
G1 X235.124
G3 X234.805 Y31.417 I0 J-0.319
G1 Y30.408
G2 X234.553 Y30.029 I-0.41 J0
G3 X234.3 Y29.65 I0.158 J-0.379
G1 Y27.8
X237.7
Y32.241
X234.3
Y29.65
G3 X234.724 Y29.448 I0.26 J0
G1 X235.64 Y30.193
X235.86 Y30.406
X236.05 Y30.629
X236.063 Y30.655
X236.064 Y30.685
X236.051 Y30.711
X236.029 Y30.73
X236 Y30.736
Z-1.1
X235.98
X235.935 Y30.73
X235.893 Y30.713
X235.856 Y30.685
X235.828 Y30.649
X235.811 Y30.607
X235.805 Y30.561
Y29.565
G3 X236.195 Y29.565 I0.195 J0
G1 Y30.561
X236.189 Y30.607
X236.172 Y30.649
X236.144 Y30.685
X236.107 Y30.713
X236.065 Y30.73
X236.02 Y30.736
X236
G2 X235.711 Y30.99 I0 J0.292
G3 X235.33 Y31.041 I-0.197 J-0.026
G1 X235.311 Y30.98
X235.305 Y30.917
Y29.124
G3 X235.624 Y28.805 I0.319 J0
G1 X236.376
G3 X236.695 Y29.124 I0 J0.319
G1 Y30.917
G3 X236.376 Y31.236 I-0.319 J0
G1 X235.624
G3 X235.33 Y31.041 I0 J-0.319
G2 X235.036 Y30.751 I-0.497 J0.209
G3 X234.805 Y30.408 I0.139 J-0.343
G1 Y28.624
G3 X235.124 Y28.305 I0.319 J0
G1 X236.876
G3 X237.195 Y28.624 I0 J0.319
G1 Y31.417
G3 X236.876 Y31.736 I-0.319 J0
G1 X235.124
G3 X234.805 Y31.417 I0 J-0.319
G1 Y30.408
G2 X234.553 Y30.029 I-0.41 J0
G3 X234.3 Y29.65 I0.158 J-0.379
G1 Y27.8
X237.7
Y32.241
X234.3
Y29.65
Z15
(When using Fusion for Personal Use, the feedrate of rapid)
(moves is reduced to match the feedrate of cutting moves,)
(which can increase machining time. Unrestricted rapid moves)
(are available with a Fusion Subscription.)

(2D Pocket7)
G0 X176.494 Y60.605
G1 Z15 F200
Z5
Z0.2
Z-0.8
Y60.586
Y58.094
X176.5 Y58.057
X176.519 Y58.026
X176.547 Y58.002
X176.582 Y57.989
X176.618
X176.653 Y58.002
X176.681 Y58.026
X176.7 Y58.057
X176.706 Y58.094
Y60.594
G3 X176.509 Y60.794 I-0.2 J0
G1 X176.203 Y60.798
G3 X176 Y60.598 I-0.003 J-0.2
G1 Y57.4
X177.2
Y59.2
Y60.591
G3 X177.009 Y60.79 I-0.2 J0
G1 X176.703 Y60.804
G3 X176.494 Y60.605 I-0.009 J-0.2
G1 Z-1.6
Y60.586
Y58.094
X176.5 Y58.057
X176.519 Y58.026
X176.547 Y58.002
X176.582 Y57.989
X176.618
X176.653 Y58.002
X176.681 Y58.026
X176.7 Y58.057
X176.706 Y58.094
Y60.594
G3 X176.509 Y60.794 I-0.2 J0
G1 X176.203 Y60.798
G3 X176 Y60.598 I-0.003 J-0.2
G1 Y57.4
X177.2
Y59.2
Y60.591
Z5
X255.694 Y60.605
Z0.2
Z-0.8
Y60.586
Y58.094
X255.7 Y58.057
X255.719 Y58.026
X255.747 Y58.002
X255.782 Y57.989
X255.818
X255.853 Y58.002
X255.881 Y58.026
X255.9 Y58.057
X255.906 Y58.094
Y60.594
G3 X255.709 Y60.794 I-0.2 J0
G1 X255.403 Y60.798
G3 X255.2 Y60.598 I-0.003 J-0.2
G1 Y57.4
X256.4
Y59.2
Y60.591
G3 X256.209 Y60.79 I-0.2 J0
G1 X255.903 Y60.804
G3 X255.694 Y60.605 I-0.009 J-0.2
G1 Z-1.6
Y60.586
Y58.094
X255.7 Y58.057
X255.719 Y58.026
X255.747 Y58.002
X255.782 Y57.989
X255.818
X255.853 Y58.002
X255.881 Y58.026
X255.9 Y58.057
X255.906 Y58.094
Y60.594
G3 X255.709 Y60.794 I-0.2 J0
G1 X255.403 Y60.798
G3 X255.2 Y60.598 I-0.003 J-0.2
G1 Y57.4
X256.4
Y59.2
Y60.591
Z5
X97.294 Y60.605
Z0.2
Z-0.8
Y60.586
Y58.094
X97.3 Y58.057
X97.319 Y58.026
X97.347 Y58.002
X97.382 Y57.989
X97.418
X97.453 Y58.002
X97.481 Y58.026
X97.5 Y58.057
X97.506 Y58.094
Y60.594
G3 X97.309 Y60.794 I-0.2 J0
G1 X97.003 Y60.798
G3 X96.8 Y60.598 I-0.003 J-0.2
G1 Y57.4
X98
Y59.2
Y60.591
G3 X97.809 Y60.79 I-0.2 J0
G1 X97.503 Y60.804
G3 X97.294 Y60.605 I-0.009 J-0.2
G1 Z-1.6
Y60.586
Y58.094
X97.3 Y58.057
X97.319 Y58.026
X97.347 Y58.002
X97.382 Y57.989
X97.418
X97.453 Y58.002
X97.481 Y58.026
X97.5 Y58.057
X97.506 Y58.094
Y60.594
G3 X97.309 Y60.794 I-0.2 J0
G1 X97.003 Y60.798
G3 X96.8 Y60.598 I-0.003 J-0.2
G1 Y57.4
X98
Y59.2
Y60.591
Z5
X18.094 Y60.605
Z0.2
Z-0.8
Y60.586
Y58.094
X18.1 Y58.057
X18.119 Y58.026
X18.147 Y58.002
X18.182 Y57.989
X18.218
X18.253 Y58.002
X18.281 Y58.026
X18.3 Y58.057
X18.306 Y58.094
Y60.594
G3 X18.109 Y60.794 I-0.2 J0
G1 X17.803 Y60.798
G3 X17.6 Y60.598 I-0.003 J-0.2
G1 Y57.4
X18.8
Y59.2
Y60.591
G3 X18.609 Y60.79 I-0.2 J0
G1 X18.303 Y60.804
G3 X18.094 Y60.605 I-0.009 J-0.2
G1 Z-1.6
Y60.586
Y58.094
X18.1 Y58.057
X18.119 Y58.026
X18.147 Y58.002
X18.182 Y57.989
X18.218
X18.253 Y58.002
X18.281 Y58.026
X18.3 Y58.057
X18.306 Y58.094
Y60.594
G3 X18.109 Y60.794 I-0.2 J0
G1 X17.803 Y60.798
G3 X17.6 Y60.598 I-0.003 J-0.2
G1 Y57.4
X18.8
Y59.2
Y60.591
Z15
(When using Fusion for Personal Use, the feedrate of rapid)
(moves is reduced to match the feedrate of cutting moves,)
(which can increase machining time. Unrestricted rapid moves)
(are available with a Fusion Subscription.)

(2D Contour9)
G0 X269 Y0.5
G1 Z15 F200
Z5
Z0.2
Z-1.05
X231.286
G2 X230.786 Y1 I0 J0.5
G1 Y4.5
X194.071
Y1
G2 X193.571 Y0.5 I-0.5 J0
G1 X155.857
G2 X155.357 Y1 I0 J0.5
G1 Y4.5
X118.643
Y1
G2 X118.143 Y0.5 I-0.5 J0
G1 X80.429
G2 X79.929 Y1 I0 J0.5
G1 Y4.5
X43.214
Y1
G2 X42.714 Y0.5 I-0.5 J0
G1 X5
G2 X4.5 Y1 I0 J0.5
G1 Y20
X1
G2 X0.5 Y20.5 I0 J0.5
G1 Y39.7
G2 X1 Y40.2 I0.5 J0
G1 X4.5
Y59.2
G2 X5 Y59.7 I0.5 J0
G1 X269
G2 X269.5 Y59.2 I0 J-0.5
G1 Y40.2
X273
G2 X273.5 Y39.7 I0 J-0.5
G1 Y20.5
G2 X273 Y20 I-0.5 J0
G1 X269.5
Y1
G2 X269 Y0.5 I-0.5 J0
G1 Z-2.1
X231.286
G2 X230.786 Y1 I0 J0.5
G1 Y4.5
X213.469
Z-2
X211.469
Z-2.1
X194.071
Y1
G2 X193.571 Y0.5 I-0.5 J0
G1 X155.857
G2 X155.357 Y1 I0 J0.5
G1 Y4.5
X118.643
Y1
G2 X118.143 Y0.5 I-0.5 J0
G1 X80.429
G2 X79.929 Y1 I0 J0.5
G1 Y4.5
X62.032
Z-2
X60.032
Z-2.1
X43.214
Y1
G2 X42.714 Y0.5 I-0.5 J0
G1 X5
G2 X4.5 Y1 I0 J0.5
G1 Y10.331
Z-2
Y12.331
Z-2.1
Y20
X1
G2 X0.5 Y20.5 I0 J0.5
G1 Y39.7
G2 X1 Y40.2 I0.5 J0
G1 X4.5
Y48.918
Z-2
Y50.918
Z-2.1
Y59.2
G2 X5 Y59.7 I0.5 J0
G1 X46.982
Z-2
X48.982
Z-2.1
X230.236
Z-2
X232.236
Z-2.1
X269
G2 X269.5 Y59.2 I0 J-0.5
G1 Y49.552
Z-2
Y47.552
Z-2.1
Y40.2
X273
G2 X273.5 Y39.7 I0 J-0.5
G1 Y20.5
G2 X273 Y20 I-0.5 J0
G1 X269.5
Y11.539
Z-2
Y9.539
Z-2.1
Y1
G2 X269 Y0.5 I-0.5 J0
G1 Z-3.15
X231.286
G2 X230.786 Y1 I0 J0.5
G1 Y4.5
X213.469
Z-2
X211.469
Z-3.15
X194.071
Y1
G2 X193.571 Y0.5 I-0.5 J0
G1 X155.857
G2 X155.357 Y1 I0 J0.5
G1 Y4.5
X118.643
Y1
G2 X118.143 Y0.5 I-0.5 J0
G1 X80.429
G2 X79.929 Y1 I0 J0.5
G1 Y4.5
X62.032
Z-2
X60.032
Z-3.15
X43.214
Y1
G2 X42.714 Y0.5 I-0.5 J0
G1 X5
G2 X4.5 Y1 I0 J0.5
G1 Y10.331
Z-2
Y12.331
Z-3.15
Y20
X1
G2 X0.5 Y20.5 I0 J0.5
G1 Y39.7
G2 X1 Y40.2 I0.5 J0
G1 X4.5
Y48.918
Z-2
Y50.918
Z-3.15
Y59.2
G2 X5 Y59.7 I0.5 J0
G1 X46.982
Z-2
X48.982
Z-3.15
X230.236
Z-2
X232.236
Z-3.15
X269
G2 X269.5 Y59.2 I0 J-0.5
G1 Y49.552
Z-2
Y47.552
Z-3.15
Y40.2
X273
G2 X273.5 Y39.7 I0 J-0.5
G1 Y20.5
G2 X273 Y20 I-0.5 J0
G1 X269.5
Y11.539
Z-2
Y9.539
Z-3.15
Y1
G2 X269 Y0.5 I-0.5 J0
G1 Z-4
X231.286
G2 X230.786 Y1 I0 J0.5
G1 Y4.5
X213.469
Z-2
X211.469
Z-4
X194.071
Y1
G2 X193.571 Y0.5 I-0.5 J0
G1 X155.857
G2 X155.357 Y1 I0 J0.5
G1 Y4.5
X118.643
Y1
G2 X118.143 Y0.5 I-0.5 J0
G1 X80.429
G2 X79.929 Y1 I0 J0.5
G1 Y4.5
X62.032
Z-2
X60.032
Z-4
X43.214
Y1
G2 X42.714 Y0.5 I-0.5 J0
G1 X5
G2 X4.5 Y1 I0 J0.5
G1 Y10.331
Z-2
Y12.331
Z-4
Y20
X1
G2 X0.5 Y20.5 I0 J0.5
G1 Y39.7
G2 X1 Y40.2 I0.5 J0
G1 X4.5
Y48.918
Z-2
Y50.918
Z-4
Y59.2
G2 X5 Y59.7 I0.5 J0
G1 X46.982
Z-2
X48.982
Z-4
X230.236
Z-2
X232.236
Z-4
X269
G2 X269.5 Y59.2 I0 J-0.5
G1 Y49.552
Z-2
Y47.552
Z-4
Y40.2
X273
G2 X273.5 Y39.7 I0 J-0.5
G1 Y20.5
G2 X273 Y20 I-0.5 J0
G1 X269.5
Y11.539
Z-2
Y9.539
Z-4
Y1
G2 X269 Y0.5 I-0.5 J0
G1 Z15

G28 G91 Z0
G90
G28 G91 X0 Y0
G90
M5
M30
