(EnclosureTopBottom)
G90 G94
G17
G21
(When using Fusion for Personal Use, the feedrate of rapid)
(moves is reduced to match the feedrate of cutting moves,)
(which can increase machining time. Unrestricted rapid moves)
(are available with a Fusion Subscription.)
G28 G91 Z0
G90

(2D Pocket6)
S10000 M3
G17 G90 G94
G54
G0 X104 Y30.895
Z15
G1 Z5 F200
Z2.5
Z-0.55
X103.98
X103.935 Y30.889
X103.893 Y30.872
X103.856 Y30.844
X103.828 Y30.807
X103.811 Y30.765
X103.805 Y30.72
Y29.639
X103.811 Y29.593
X103.828 Y29.551
X103.856 Y29.515
X103.893 Y29.487
X103.935 Y29.47
X103.98 Y29.464
X104.02
X104.065 Y29.47
X104.107 Y29.487
X104.144 Y29.515
X104.172 Y29.551
X104.189 Y29.593
X104.195 Y29.639
Y30.72
X104.189 Y30.765
X104.172 Y30.807
X104.144 Y30.844
X104.107 Y30.872
X104.065 Y30.889
X104.02 Y30.895
X104
G2 X103.711 Y31.148 I0 J0.292
G3 X103.33 Y31.2 I-0.197 J-0.026
G1 X103.311 Y31.139
X103.305 Y31.076
Y29.283
G3 X103.624 Y28.964 I0.319 J0
G1 X104.376
G3 X104.695 Y29.283 I0 J0.319
G1 Y31.076
G3 X104.376 Y31.395 I-0.319 J0
G1 X103.624
G3 X103.33 Y31.2 I0 J-0.319
G2 X103.036 Y30.909 I-0.497 J0.209
G3 X102.805 Y30.566 I0.139 J-0.343
G1 Y28.783
G3 X103.124 Y28.464 I0.319 J0
G1 X104.876
G3 X105.195 Y28.783 I0 J0.319
G1 Y31.576
G3 X104.876 Y31.895 I-0.319 J0
G1 X103.124
G3 X102.805 Y31.576 I0 J-0.319
G1 Y30.566
G2 X102.552 Y30.187 I-0.41 J0
G3 X102.3 Y29.809 I0.158 J-0.379
G1 Y27.959
X105.7
Y32.4
X102.3
Y29.809
G3 X102.724 Y29.607 I0.26 J0
G1 X103.64 Y30.351
X103.86 Y30.564
X104.05 Y30.788
X104.063 Y30.814
X104.064 Y30.843
X104.051 Y30.87
X104.029 Y30.888
X104 Y30.895
Z-1.1
X103.98
X103.935 Y30.889
X103.893 Y30.872
X103.856 Y30.844
X103.828 Y30.807
X103.811 Y30.765
X103.805 Y30.72
Y29.639
X103.811 Y29.593
X103.828 Y29.551
X103.856 Y29.515
X103.893 Y29.487
X103.935 Y29.47
X103.98 Y29.464
X104.02
X104.065 Y29.47
X104.107 Y29.487
X104.144 Y29.515
X104.172 Y29.551
X104.189 Y29.593
X104.195 Y29.639
Y30.72
X104.189 Y30.765
X104.172 Y30.807
X104.144 Y30.844
X104.107 Y30.872
X104.065 Y30.889
X104.02 Y30.895
X104
G2 X103.711 Y31.148 I0 J0.292
G3 X103.33 Y31.2 I-0.197 J-0.026
G1 X103.311 Y31.139
X103.305 Y31.076
Y29.283
G3 X103.624 Y28.964 I0.319 J0
G1 X104.376
G3 X104.695 Y29.283 I0 J0.319
G1 Y31.076
G3 X104.376 Y31.395 I-0.319 J0
G1 X103.624
G3 X103.33 Y31.2 I0 J-0.319
G2 X103.036 Y30.909 I-0.497 J0.209
G3 X102.805 Y30.566 I0.139 J-0.343
G1 Y28.783
G3 X103.124 Y28.464 I0.319 J0
G1 X104.876
G3 X105.195 Y28.783 I0 J0.319
G1 Y31.576
G3 X104.876 Y31.895 I-0.319 J0
G1 X103.124
G3 X102.805 Y31.576 I0 J-0.319
G1 Y30.566
G2 X102.552 Y30.187 I-0.41 J0
G3 X102.3 Y29.809 I0.158 J-0.379
G1 Y27.959
X105.7
Y32.4
X102.3
Y29.809
Z5
X38 Y30.895
Z2.5
Z-0.55
X37.98
X37.935 Y30.889
X37.893 Y30.872
X37.856 Y30.844
X37.828 Y30.807
X37.811 Y30.765
X37.805 Y30.72
Y29.724
G3 X38.195 Y29.724 I0.195 J0
G1 Y30.72
X38.189 Y30.765
X38.172 Y30.807
X38.144 Y30.844
X38.107 Y30.872
X38.065 Y30.889
X38.02 Y30.895
X38
G2 X37.711 Y31.148 I0 J0.292
G3 X37.33 Y31.2 I-0.197 J-0.026
G1 X37.311 Y31.139
X37.305 Y31.076
Y29.283
G3 X37.624 Y28.964 I0.319 J0
G1 X38.376
G3 X38.695 Y29.283 I0 J0.319
G1 Y31.076
G3 X38.376 Y31.395 I-0.319 J0
G1 X37.624
G3 X37.33 Y31.2 I0 J-0.319
G2 X37.036 Y30.909 I-0.497 J0.209
G3 X36.805 Y30.566 I0.139 J-0.343
G1 Y28.783
G3 X37.124 Y28.464 I0.319 J0
G1 X38.876
G3 X39.195 Y28.783 I0 J0.319
G1 Y31.576
G3 X38.876 Y31.895 I-0.319 J0
G1 X37.124
G3 X36.805 Y31.576 I0 J-0.319
G1 Y30.566
G2 X36.553 Y30.187 I-0.41 J0
G3 X36.3 Y29.809 I0.158 J-0.379
G1 Y27.959
X39.7
Y32.4
X36.3
Y29.809
G3 X36.724 Y29.607 I0.26 J0
G1 X37.64 Y30.351
X37.86 Y30.564
X38.05 Y30.788
X38.063 Y30.814
X38.064 Y30.843
X38.051 Y30.87
X38.029 Y30.888
X38 Y30.895
Z-1.1
X37.98
X37.935 Y30.889
X37.893 Y30.872
X37.856 Y30.844
X37.828 Y30.807
X37.811 Y30.765
X37.805 Y30.72
Y29.724
G3 X38.195 Y29.724 I0.195 J0
G1 Y30.72
X38.189 Y30.765
X38.172 Y30.807
X38.144 Y30.844
X38.107 Y30.872
X38.065 Y30.889
X38.02 Y30.895
X38
G2 X37.711 Y31.148 I0 J0.292
G3 X37.33 Y31.2 I-0.197 J-0.026
G1 X37.311 Y31.139
X37.305 Y31.076
Y29.283
G3 X37.624 Y28.964 I0.319 J0
G1 X38.376
G3 X38.695 Y29.283 I0 J0.319
G1 Y31.076
G3 X38.376 Y31.395 I-0.319 J0
G1 X37.624
G3 X37.33 Y31.2 I0 J-0.319
G2 X37.036 Y30.909 I-0.497 J0.209
G3 X36.805 Y30.566 I0.139 J-0.343
G1 Y28.783
G3 X37.124 Y28.464 I0.319 J0
G1 X38.876
G3 X39.195 Y28.783 I0 J0.319
G1 Y31.576
G3 X38.876 Y31.895 I-0.319 J0
G1 X37.124
G3 X36.805 Y31.576 I0 J-0.319
G1 Y30.566
G2 X36.553 Y30.187 I-0.41 J0
G3 X36.3 Y29.809 I0.158 J-0.379
G1 Y27.959
X39.7
Y32.4
X36.3
Y29.809
Z5
X170 Y29.529
Z2.5
Z-0.55
G3 X170.195 Y29.724 I0 J0.195
G1 Y30.72
X170.189 Y30.765
X170.172 Y30.807
X170.144 Y30.844
X170.107 Y30.872
X170.065 Y30.889
X170.02 Y30.895
X169.98
X169.935 Y30.889
X169.893 Y30.872
X169.856 Y30.844
X169.828 Y30.807
X169.811 Y30.765
X169.805 Y30.72
Y29.724
G3 X170 Y29.529 I0.195 J0
G2 X170.32 Y29.318 I0 J-0.348
G3 X170.695 Y29.395 I0.18 J0.077
G1 Y31.076
G3 X170.376 Y31.395 I-0.319 J0
G1 X169.624
G3 X169.305 Y31.076 I0 J-0.319
G1 Y29.283
G3 X169.624 Y28.964 I0.319 J0
G1 X170.376
G3 X170.695 Y29.283 I0 J0.319
G1 Y29.395
G2 X170.945 Y29.77 I0.406 J0
G3 X171.195 Y30.145 I-0.156 J0.375
G1 Y31.576
G3 X170.876 Y31.895 I-0.319 J0
G1 X169.124
G3 X168.805 Y31.576 I0 J-0.319
G1 Y28.783
G3 X169.124 Y28.464 I0.319 J0
G1 X170.876
G3 X171.195 Y28.783 I0 J0.319
G1 Y30.145
G2 X171.447 Y30.524 I0.41 J0
G3 X171.7 Y30.902 I-0.158 J0.379
G1 Y32.4
X168.3
Y27.959
X171.7
Y30.902
G3 X171.414 Y31.034 I-0.173 J0
G1 X170.823 Y30.526
X170.089 Y29.753
X169.966 Y29.599
X169.957 Y29.577
X169.961 Y29.553
X169.977 Y29.535
X170 Y29.529
Z-1.1
G3 X170.195 Y29.724 I0 J0.195
G1 Y30.72
X170.189 Y30.765
X170.172 Y30.807
X170.144 Y30.844
X170.107 Y30.872
X170.065 Y30.889
X170.02 Y30.895
X169.98
X169.935 Y30.889
X169.893 Y30.872
X169.856 Y30.844
X169.828 Y30.807
X169.811 Y30.765
X169.805 Y30.72
Y29.724
G3 X170 Y29.529 I0.195 J0
G2 X170.32 Y29.318 I0 J-0.348
G3 X170.695 Y29.395 I0.18 J0.077
G1 Y31.076
G3 X170.376 Y31.395 I-0.319 J0
G1 X169.624
G3 X169.305 Y31.076 I0 J-0.319
G1 Y29.283
G3 X169.624 Y28.964 I0.319 J0
G1 X170.376
G3 X170.695 Y29.283 I0 J0.319
G1 Y29.395
G2 X170.945 Y29.77 I0.406 J0
G3 X171.195 Y30.145 I-0.156 J0.375
G1 Y31.576
G3 X170.876 Y31.895 I-0.319 J0
G1 X169.124
G3 X168.805 Y31.576 I0 J-0.319
G1 Y28.783
G3 X169.124 Y28.464 I0.319 J0
G1 X170.876
G3 X171.195 Y28.783 I0 J0.319
G1 Y30.145
G2 X171.447 Y30.524 I0.41 J0
G3 X171.7 Y30.902 I-0.158 J0.379
G1 Y32.4
X168.3
Y27.959
X171.7
Y30.902
Z5
X236 Y30.895
Z2.5
Z-0.55
X235.98
X235.935 Y30.889
X235.893 Y30.872
X235.856 Y30.844
X235.828 Y30.807
X235.811 Y30.765
X235.805 Y30.72
Y29.724
G3 X236.195 Y29.724 I0.195 J0
G1 Y30.72
X236.189 Y30.765
X236.172 Y30.807
X236.144 Y30.844
X236.107 Y30.872
X236.065 Y30.889
X236.02 Y30.895
X236
G2 X235.711 Y31.148 I0 J0.292
G3 X235.33 Y31.2 I-0.197 J-0.026
G1 X235.311 Y31.139
X235.305 Y31.076
Y29.283
G3 X235.624 Y28.964 I0.319 J0
G1 X236.376
G3 X236.695 Y29.283 I0 J0.319
G1 Y31.076
G3 X236.376 Y31.395 I-0.319 J0
G1 X235.624
G3 X235.33 Y31.2 I0 J-0.319
G2 X235.036 Y30.909 I-0.497 J0.209
G3 X234.805 Y30.566 I0.139 J-0.343
G1 Y28.783
G3 X235.124 Y28.464 I0.319 J0
G1 X236.876
G3 X237.195 Y28.783 I0 J0.319
G1 Y31.576
G3 X236.876 Y31.895 I-0.319 J0
G1 X235.124
G3 X234.805 Y31.576 I0 J-0.319
G1 Y30.566
G2 X234.553 Y30.187 I-0.41 J0
G3 X234.3 Y29.809 I0.158 J-0.379
G1 Y27.959
X237.7
Y32.4
X234.3
Y29.809
G3 X234.724 Y29.607 I0.26 J0
G1 X235.64 Y30.351
X235.86 Y30.564
X236.05 Y30.788
X236.063 Y30.814
X236.064 Y30.843
X236.051 Y30.87
X236.029 Y30.888
X236 Y30.895
Z-1.1
X235.98
X235.935 Y30.889
X235.893 Y30.872
X235.856 Y30.844
X235.828 Y30.807
X235.811 Y30.765
X235.805 Y30.72
Y29.724
G3 X236.195 Y29.724 I0.195 J0
G1 Y30.72
X236.189 Y30.765
X236.172 Y30.807
X236.144 Y30.844
X236.107 Y30.872
X236.065 Y30.889
X236.02 Y30.895
X236
G2 X235.711 Y31.148 I0 J0.292
G3 X235.33 Y31.2 I-0.197 J-0.026
G1 X235.311 Y31.139
X235.305 Y31.076
Y29.283
G3 X235.624 Y28.964 I0.319 J0
G1 X236.376
G3 X236.695 Y29.283 I0 J0.319
G1 Y31.076
G3 X236.376 Y31.395 I-0.319 J0
G1 X235.624
G3 X235.33 Y31.2 I0 J-0.319
G2 X235.036 Y30.909 I-0.497 J0.209
G3 X234.805 Y30.566 I0.139 J-0.343
G1 Y28.783
G3 X235.124 Y28.464 I0.319 J0
G1 X236.876
G3 X237.195 Y28.783 I0 J0.319
G1 Y31.576
G3 X236.876 Y31.895 I-0.319 J0
G1 X235.124
G3 X234.805 Y31.576 I0 J-0.319
G1 Y30.566
G2 X234.553 Y30.187 I-0.41 J0
G3 X234.3 Y29.809 I0.158 J-0.379
G1 Y27.959
X237.7
Y32.4
X234.3
Y29.809
Z15
(When using Fusion for Personal Use, the feedrate of rapid)
(moves is reduced to match the feedrate of cutting moves,)
(which can increase machining time. Unrestricted rapid moves)
(are available with a Fusion Subscription.)

(2D Pocket7)
G0 X97.506 Y-0.405
G1 Z15 F200
Z5
Z0.2
Z-0.8
Y-0.386
Y2.21
X97.499 Y2.247
X97.478 Y2.278
X97.447 Y2.299
X97.41 Y2.306
X97.39
X97.353 Y2.299
X97.322 Y2.278
X97.301 Y2.247
X97.294 Y2.21
Y-0.399
G3 X97.495 Y-0.599 I0.2 J0
G1 X97.801 Y-0.598
G3 X98 Y-0.398 I-0.001 J0.2
G1 Y2.8
X96.8
Y1
Y-0.391
G3 X96.991 Y-0.59 I0.2 J0
G1 X97.297 Y-0.604
G3 X97.506 Y-0.405 I0.009 J0.2
G1 Z-1.6
Y-0.386
Y2.21
X97.499 Y2.247
X97.478 Y2.278
X97.447 Y2.299
X97.41 Y2.306
X97.39
X97.353 Y2.299
X97.322 Y2.278
X97.301 Y2.247
X97.294 Y2.21
Y-0.399
G3 X97.495 Y-0.599 I0.2 J0
G1 X97.801 Y-0.598
G3 X98 Y-0.398 I-0.001 J0.2
G1 Y2.8
X96.8
Y1
Y-0.391
Z5
X18.306 Y-0.405
Z0.2
Z-0.8
Y-0.386
Y2.21
X18.299 Y2.247
X18.278 Y2.278
X18.247 Y2.299
X18.21 Y2.306
X18.19
X18.153 Y2.299
X18.122 Y2.278
X18.101 Y2.247
X18.094 Y2.21
Y-0.399
G3 X18.295 Y-0.599 I0.2 J0
G1 X18.601 Y-0.598
G3 X18.8 Y-0.398 I-0.001 J0.2
G1 Y2.8
X17.6
Y1
Y-0.391
G3 X17.791 Y-0.59 I0.2 J0
G1 X18.097 Y-0.604
G3 X18.306 Y-0.405 I0.009 J0.2
G1 Z-1.6
Y-0.386
Y2.21
X18.299 Y2.247
X18.278 Y2.278
X18.247 Y2.299
X18.21 Y2.306
X18.19
X18.153 Y2.299
X18.122 Y2.278
X18.101 Y2.247
X18.094 Y2.21
Y-0.399
G3 X18.295 Y-0.599 I0.2 J0
G1 X18.601 Y-0.598
G3 X18.8 Y-0.398 I-0.001 J0.2
G1 Y2.8
X17.6
Y1
Y-0.391
Z5
X176.706 Y-0.405
Z0.2
Z-0.8
Y-0.386
Y2.21
X176.699 Y2.247
X176.678 Y2.278
X176.647 Y2.299
X176.61 Y2.306
X176.59
X176.553 Y2.299
X176.522 Y2.278
X176.501 Y2.247
X176.494 Y2.21
Y-0.399
G3 X176.695 Y-0.599 I0.2 J0
G1 X177.001 Y-0.598
G3 X177.2 Y-0.398 I-0.001 J0.2
G1 Y2.8
X176
Y1
Y-0.391
G3 X176.191 Y-0.59 I0.2 J0
G1 X176.497 Y-0.604
G3 X176.706 Y-0.405 I0.009 J0.2
G1 Z-1.6
Y-0.386
Y2.21
X176.699 Y2.247
X176.678 Y2.278
X176.647 Y2.299
X176.61 Y2.306
X176.59
X176.553 Y2.299
X176.522 Y2.278
X176.501 Y2.247
X176.494 Y2.21
Y-0.399
G3 X176.695 Y-0.599 I0.2 J0
G1 X177.001 Y-0.598
G3 X177.2 Y-0.398 I-0.001 J0.2
G1 Y2.8
X176
Y1
Y-0.391
Z5
X255.906 Y-0.405
Z0.2
Z-0.8
Y-0.386
Y2.21
X255.899 Y2.247
X255.878 Y2.278
X255.847 Y2.299
X255.81 Y2.306
X255.79
X255.753 Y2.299
X255.722 Y2.278
X255.701 Y2.247
X255.694 Y2.21
Y-0.399
G3 X255.895 Y-0.599 I0.2 J0
G1 X256.201 Y-0.598
G3 X256.4 Y-0.398 I-0.001 J0.2
G1 Y2.8
X255.2
Y1
Y-0.391
G3 X255.391 Y-0.59 I0.2 J0
G1 X255.697 Y-0.604
G3 X255.906 Y-0.405 I0.009 J0.2
G1 Z-1.6
Y-0.386
Y2.21
X255.899 Y2.247
X255.878 Y2.278
X255.847 Y2.299
X255.81 Y2.306
X255.79
X255.753 Y2.299
X255.722 Y2.278
X255.701 Y2.247
X255.694 Y2.21
Y-0.399
G3 X255.895 Y-0.599 I0.2 J0
G1 X256.201 Y-0.598
G3 X256.4 Y-0.398 I-0.001 J0.2
G1 Y2.8
X255.2
Y1
Y-0.391
Z15
(When using Fusion for Personal Use, the feedrate of rapid)
(moves is reduced to match the feedrate of cutting moves,)
(which can increase machining time. Unrestricted rapid moves)
(are available with a Fusion Subscription.)

(2D Contour9)
G0 X269 Y0.5
G1 Z15 F200
Z5
Z0.2
Z-1.05
X5
G2 X4.5 Y1 I0 J0.5
G1 Y20
X1
G2 X0.5 Y20.5 I0 J0.5
G1 Y39.7
G2 X1 Y40.2 I0.5 J0
G1 X4.5
Y59.2
G2 X5 Y59.7 I0.5 J0
G1 X42.714
G2 X43.214 Y59.2 I0 J-0.5
G1 Y55.7
X79.929
Y59.2
G2 X80.429 Y59.7 I0.5 J0
G1 X118.143
G2 X118.643 Y59.2 I0 J-0.5
G1 Y55.7
X155.357
Y59.2
G2 X155.857 Y59.7 I0.5 J0
G1 X193.571
G2 X194.071 Y59.2 I0 J-0.5
G1 Y55.7
X230.786
Y59.2
G2 X231.286 Y59.7 I0.5 J0
G1 X269
G2 X269.5 Y59.2 I0 J-0.5
G1 Y40.2
X273
G2 X273.5 Y39.7 I0 J-0.5
G1 Y20.5
G2 X273 Y20 I-0.5 J0
G1 X269.5
Y1
G2 X269 Y0.5 I-0.5 J0
G1 Z-2.1
X227.018
Z-2
X225.018
Z-2.1
X43.764
Z-2
X41.764
Z-2.1
X5
G2 X4.5 Y1 I0 J0.5
G1 Y10.648
Z-2
Y12.648
Z-2.1
Y20
X1
G2 X0.5 Y20.5 I0 J0.5
G1 Y39.7
G2 X1 Y40.2 I0.5 J0
G1 X4.5
Y48.661
Z-2
Y50.661
Z-2.1
Y59.2
G2 X5 Y59.7 I0.5 J0
G1 X42.714
G2 X43.214 Y59.2 I0 J-0.5
G1 Y55.7
X60.531
Z-2
X62.531
Z-2.1
X79.929
Y59.2
G2 X80.429 Y59.7 I0.5 J0
G1 X118.143
G2 X118.643 Y59.2 I0 J-0.5
G1 Y55.7
X155.357
Y59.2
G2 X155.857 Y59.7 I0.5 J0
G1 X193.571
G2 X194.071 Y59.2 I0 J-0.5
G1 Y55.7
X211.968
Z-2
X213.968
Z-2.1
X230.786
Y59.2
G2 X231.286 Y59.7 I0.5 J0
G1 X269
G2 X269.5 Y59.2 I0 J-0.5
G1 Y49.869
Z-2
Y47.869
Z-2.1
Y40.2
X273
G2 X273.5 Y39.7 I0 J-0.5
G1 Y20.5
G2 X273 Y20 I-0.5 J0
G1 X269.5
Y11.282
Z-2
Y9.282
Z-2.1
Y1
G2 X269 Y0.5 I-0.5 J0
G1 Z-3.15
X227.018
Z-2
X225.018
Z-3.15
X43.764
Z-2
X41.764
Z-3.15
X5
G2 X4.5 Y1 I0 J0.5
G1 Y10.648
Z-2
Y12.648
Z-3.15
Y20
X1
G2 X0.5 Y20.5 I0 J0.5
G1 Y39.7
G2 X1 Y40.2 I0.5 J0
G1 X4.5
Y48.661
Z-2
Y50.661
Z-3.15
Y59.2
G2 X5 Y59.7 I0.5 J0
G1 X42.714
G2 X43.214 Y59.2 I0 J-0.5
G1 Y55.7
X60.531
Z-2
X62.531
Z-3.15
X79.929
Y59.2
G2 X80.429 Y59.7 I0.5 J0
G1 X118.143
G2 X118.643 Y59.2 I0 J-0.5
G1 Y55.7
X155.357
Y59.2
G2 X155.857 Y59.7 I0.5 J0
G1 X193.571
G2 X194.071 Y59.2 I0 J-0.5
G1 Y55.7
X211.968
Z-2
X213.968
Z-3.15
X230.786
Y59.2
G2 X231.286 Y59.7 I0.5 J0
G1 X269
G2 X269.5 Y59.2 I0 J-0.5
G1 Y49.869
Z-2
Y47.869
Z-3.15
Y40.2
X273
G2 X273.5 Y39.7 I0 J-0.5
G1 Y20.5
G2 X273 Y20 I-0.5 J0
G1 X269.5
Y11.282
Z-2
Y9.282
Z-3.15
Y1
G2 X269 Y0.5 I-0.5 J0
G1 Z-4
X227.018
Z-2
X225.018
Z-4
X43.764
Z-2
X41.764
Z-4
X5
G2 X4.5 Y1 I0 J0.5
G1 Y10.648
Z-2
Y12.648
Z-4
Y20
X1
G2 X0.5 Y20.5 I0 J0.5
G1 Y39.7
G2 X1 Y40.2 I0.5 J0
G1 X4.5
Y48.661
Z-2
Y50.661
Z-4
Y59.2
G2 X5 Y59.7 I0.5 J0
G1 X42.714
G2 X43.214 Y59.2 I0 J-0.5
G1 Y55.7
X60.531
Z-2
X62.531
Z-4
X79.929
Y59.2
G2 X80.429 Y59.7 I0.5 J0
G1 X118.143
G2 X118.643 Y59.2 I0 J-0.5
G1 Y55.7
X155.357
Y59.2
G2 X155.857 Y59.7 I0.5 J0
G1 X193.571
G2 X194.071 Y59.2 I0 J-0.5
G1 Y55.7
X211.968
Z-2
X213.968
Z-4
X230.786
Y59.2
G2 X231.286 Y59.7 I0.5 J0
G1 X269
G2 X269.5 Y59.2 I0 J-0.5
G1 Y49.869
Z-2
Y47.869
Z-4
Y40.2
X273
G2 X273.5 Y39.7 I0 J-0.5
G1 Y20.5
G2 X273 Y20 I-0.5 J0
G1 X269.5
Y11.282
Z-2
Y9.282
Z-4
Y1
G2 X269 Y0.5 I-0.5 J0
G1 Z15

G28 G91 Z0
G90
G28 G91 X0 Y0
G90
M5
M30
