(FrontGlass)
G90 G94
G17
G21
(When using Fusion for Personal Use, the feedrate of rapid)
(moves is reduced to match the feedrate of cutting moves,)
(which can increase machining time. Unrestricted rapid moves)
(are available with a Fusion Subscription.)
G28 G91 Z0
G90

(2D Contour8)
S10000 M3
G17 G90 G94
G54
G0 X14.617 Y141.493
Z15
G1 Z5 F200
Z0.2 F100
Z-0.55
X14.7 Y141.5 F200
X16.7
G2 X17.2 Y141 I0 J-0.5
G1 Y140
X93.4
Y141
G2 X93.9 Y141.5 I0.5 J0
G1 X95.9
G2 X96.4 Y141 I0 J-0.5
G1 Y140
X172.6
Y141
G2 X173.1 Y141.5 I0.5 J0
G1 X175.1
G2 X175.6 Y141 I0 J-0.5
G1 Y140
X251.8
Y141
G2 X252.3 Y141.5 I0.5 J0
G1 X254.3
G2 X254.8 Y141 I0 J-0.5
G1 Y140
X264.3
G2 X267 Y137.3 I0 J-2.7
G1 Y127.8
X268
G2 X268.5 Y127.3 I0 J-0.5
G1 Y125.3
G2 X268 Y124.8 I-0.5 J0
G1 X267
Y72.5
X268
G2 X268.5 Y72 I0 J-0.5
G1 Y70
G2 X268 Y69.5 I-0.5 J0
G1 X267
Y17.2
X268
G2 X268.5 Y16.7 I0 J-0.5
G1 Y14.7
G2 X268 Y14.2 I-0.5 J0
G1 X267
Y4.7
G2 X264.3 Y2 I-2.7 J0
G1 X254.8
Y1
G2 X254.3 Y0.5 I-0.5 J0
G1 X252.3
G2 X251.8 Y1 I0 J0.5
G1 Y2
X175.6
Y1
G2 X175.1 Y0.5 I-0.5 J0
G1 X173.1
G2 X172.6 Y1 I0 J0.5
G1 Y2
X96.4
Y1
G2 X95.9 Y0.5 I-0.5 J0
G1 X93.9
G2 X93.4 Y1 I0 J0.5
G1 Y2
X17.2
Y1
G2 X16.7 Y0.5 I-0.5 J0
G1 X14.7
G2 X14.2 Y1 I0 J0.5
G1 Y2
X4.7
G2 X2 Y4.7 I0 J2.7
G1 Y14.2
X1
G2 X0.5 Y14.7 I0 J0.5
G1 Y16.7
G2 X1 Y17.2 I0.5 J0
G1 X2
Y69.5
X1
G2 X0.5 Y70 I0 J0.5
G1 Y72
G2 X1 Y72.5 I0.5 J0
G1 X2
Y124.8
X1
G2 X0.5 Y125.3 I0 J0.5
G1 Y127.3
G2 X1 Y127.8 I0.5 J0
G1 X2
Y137.3
G2 X4.7 Y140 I2.7 J0
G1 X14.2
Y141
G2 X14.617 Y141.493 I0.5 J0
G1 Z-1.1 F100
X14.7 Y141.5 F200
X16.7
G2 X17.2 Y141 I0 J-0.5
G1 Y140
X93.4
Y141
G2 X93.9 Y141.5 I0.5 J0
G1 X95.9
G2 X96.4 Y141 I0 J-0.5
G1 Y140
X172.6
Y141
G2 X173.1 Y141.5 I0.5 J0
G1 X175.1
G2 X175.6 Y141 I0 J-0.5
G1 Y140
X251.8
Y141
G2 X252.3 Y141.5 I0.5 J0
G1 X254.3
G2 X254.8 Y141 I0 J-0.5
G1 Y140
X264.3
G2 X267 Y137.3 I0 J-2.7
G1 Y127.8
X268
G2 X268.5 Y127.3 I0 J-0.5
G1 Y125.3
G2 X268 Y124.8 I-0.5 J0
G1 X267
Y72.5
X268
G2 X268.5 Y72 I0 J-0.5
G1 Y70
G2 X268 Y69.5 I-0.5 J0
G1 X267
Y17.2
X268
G2 X268.5 Y16.7 I0 J-0.5
G1 Y14.7
G2 X268 Y14.2 I-0.5 J0
G1 X267
Y4.7
G2 X264.3 Y2 I-2.7 J0
G1 X254.8
Y1
G2 X254.3 Y0.5 I-0.5 J0
G1 X252.3
G2 X251.8 Y1 I0 J0.5
G1 Y2
X175.6
Y1
G2 X175.1 Y0.5 I-0.5 J0
G1 X173.1
G2 X172.6 Y1 I0 J0.5
G1 Y2
X96.4
Y1
G2 X95.9 Y0.5 I-0.5 J0
G1 X93.9
G2 X93.4 Y1 I0 J0.5
G1 Y2
X17.2
Y1
G2 X16.7 Y0.5 I-0.5 J0
G1 X14.7
G2 X14.2 Y1 I0 J0.5
G1 Y2
X4.7
G2 X2 Y4.7 I0 J2.7
G1 Y14.2
X1
G2 X0.5 Y14.7 I0 J0.5
G1 Y16.7
G2 X1 Y17.2 I0.5 J0
G1 X2
Y69.5
X1
G2 X0.5 Y70 I0 J0.5
G1 Y72
G2 X1 Y72.5 I0.5 J0
G1 X2
Y124.8
X1
G2 X0.5 Y125.3 I0 J0.5
G1 Y127.3
G2 X1 Y127.8 I0.5 J0
G1 X2
Y137.3
G2 X4.7 Y140 I2.7 J0
G1 X14.2
Y141
G2 X14.617 Y141.493 I0.5 J0
G1 Z-1.65 F100
X14.7 Y141.5 F200
X16.7
G2 X17.2 Y141 I0 J-0.5
G1 Y140
X52.847
Z-1.2
X54.847
Z-1.65 F100
X93.4 F200
Y141
G2 X93.9 Y141.5 I0.5 J0
G1 X95.9
G2 X96.4 Y141 I0 J-0.5
G1 Y140
X172.6
Y141
G2 X173.1 Y141.5 I0.5 J0
G1 X175.1
G2 X175.6 Y141 I0 J-0.5
G1 Y140
X219.103
Z-1.2
X221.103
Z-1.65 F100
X251.8 F200
Y141
G2 X252.3 Y141.5 I0.5 J0
G1 X254.3
G2 X254.8 Y141 I0 J-0.5
G1 Y140
X264.3
G2 X267 Y137.3 I0 J-2.7
G1 Y127.8
X268
G2 X268.5 Y127.3 I0 J-0.5
G1 Y125.3
G2 X268 Y124.8 I-0.5 J0
G1 X267
Y100.201
Z-1.2
Y98.201
Z-1.65 F100
Y72.5 F200
X268
G2 X268.5 Y72 I0 J-0.5
G1 Y70
G2 X268 Y69.5 I-0.5 J0
G1 X267
Y41.789
Z-1.2
Y39.789
Z-1.65 F100
Y17.2 F200
X268
G2 X268.5 Y16.7 I0 J-0.5
G1 Y14.7
G2 X268 Y14.2 I-0.5 J0
G1 X267
Y4.7
G2 X264.3 Y2 I-2.7 J0
G1 X254.8
Y1
G2 X254.3 Y0.5 I-0.5 J0
G1 X252.3
G2 X251.8 Y1 I0 J0.5
G1 Y2
X214.171
Z-1.2
X212.171
Z-1.65 F100
X175.6 F200
Y1
G2 X175.1 Y0.5 I-0.5 J0
G1 X173.1
G2 X172.6 Y1 I0 J0.5
G1 Y2
X96.4
Y1
G2 X95.9 Y0.5 I-0.5 J0
G1 X93.9
G2 X93.4 Y1 I0 J0.5
G1 Y2
X54.899
Z-1.2
X52.899
Z-1.65 F100
X17.2 F200
Y1
G2 X16.7 Y0.5 I-0.5 J0
G1 X14.7
G2 X14.2 Y1 I0 J0.5
G1 Y2
X4.7
G2 X2 Y4.7 I0 J2.7
G1 Y14.2
X1
G2 X0.5 Y14.7 I0 J0.5
G1 Y16.7
G2 X1 Y17.2 I0.5 J0
G1 X2
Y46.503
Z-1.2
Y48.503
Z-1.65 F100
Y69.5 F200
X1
G2 X0.5 Y70 I0 J0.5
G1 Y72
G2 X1 Y72.5 I0.5 J0
G1 X2
Y97.203
Z-1.2
Y99.203
Z-1.65 F100
Y124.8 F200
X1
G2 X0.5 Y125.3 I0 J0.5
G1 Y127.3
G2 X1 Y127.8 I0.5 J0
G1 X2
Y137.3
G2 X4.7 Y140 I2.7 J0
G1 X14.2
Y141
G2 X14.617 Y141.493 I0.5 J0
G1 Z-2.2 F100
X14.7 Y141.5 F200
X16.7
G2 X17.2 Y141 I0 J-0.5
G1 Y140
X52.847
Z-1.2
X54.847
Z-2.2 F100
X93.4 F200
Y141
G2 X93.9 Y141.5 I0.5 J0
G1 X95.9
G2 X96.4 Y141 I0 J-0.5
G1 Y140
X172.6
Y141
G2 X173.1 Y141.5 I0.5 J0
G1 X175.1
G2 X175.6 Y141 I0 J-0.5
G1 Y140
X219.103
Z-1.2
X221.103
Z-2.2 F100
X251.8 F200
Y141
G2 X252.3 Y141.5 I0.5 J0
G1 X254.3
G2 X254.8 Y141 I0 J-0.5
G1 Y140
X264.3
G2 X267 Y137.3 I0 J-2.7
G1 Y127.8
X268
G2 X268.5 Y127.3 I0 J-0.5
G1 Y125.3
G2 X268 Y124.8 I-0.5 J0
G1 X267
Y100.201
Z-1.2
Y98.201
Z-2.2 F100
Y72.5 F200
X268
G2 X268.5 Y72 I0 J-0.5
G1 Y70
G2 X268 Y69.5 I-0.5 J0
G1 X267
Y41.789
Z-1.2
Y39.789
Z-2.2 F100
Y17.2 F200
X268
G2 X268.5 Y16.7 I0 J-0.5
G1 Y14.7
G2 X268 Y14.2 I-0.5 J0
G1 X267
Y4.7
G2 X264.3 Y2 I-2.7 J0
G1 X254.8
Y1
G2 X254.3 Y0.5 I-0.5 J0
G1 X252.3
G2 X251.8 Y1 I0 J0.5
G1 Y2
X214.171
Z-1.2
X212.171
Z-2.2 F100
X175.6 F200
Y1
G2 X175.1 Y0.5 I-0.5 J0
G1 X173.1
G2 X172.6 Y1 I0 J0.5
G1 Y2
X96.4
Y1
G2 X95.9 Y0.5 I-0.5 J0
G1 X93.9
G2 X93.4 Y1 I0 J0.5
G1 Y2
X54.899
Z-1.2
X52.899
Z-2.2 F100
X17.2 F200
Y1
G2 X16.7 Y0.5 I-0.5 J0
G1 X14.7
G2 X14.2 Y1 I0 J0.5
G1 Y2
X4.7
G2 X2 Y4.7 I0 J2.7
G1 Y14.2
X1
G2 X0.5 Y14.7 I0 J0.5
G1 Y16.7
G2 X1 Y17.2 I0.5 J0
G1 X2
Y46.503
Z-1.2
Y48.503
Z-2.2 F100
Y69.5 F200
X1
G2 X0.5 Y70 I0 J0.5
G1 Y72
G2 X1 Y72.5 I0.5 J0
G1 X2
Y97.203
Z-1.2
Y99.203
Z-2.2 F100
Y124.8 F200
X1
G2 X0.5 Y125.3 I0 J0.5
G1 Y127.3
G2 X1 Y127.8 I0.5 J0
G1 X2
Y137.3
G2 X4.7 Y140 I2.7 J0
G1 X14.2
Y141
G2 X14.617 Y141.493 I0.5 J0
G1 Z15

G28 G91 Z0
G90
G28 G91 X0 Y0
G90
M5
M30
