(LightSensor)
(T1 D=1 CR=0 - ZMIN=-4 - flat end mill)
G90 G94
G17
G21
(When using Fusion for Personal Use, the feedrate of rapid)
(moves is reduced to match the feedrate of cutting moves,)
(which can increase machining time. Unrestricted rapid moves)
(are available with a Fusion Subscription.)
G28 G91 Z0
G90

(2D Pocket13)
S10000 M3
G17 G90 G94
G54
G0 X-0.4 Y0.195
Z15
G1 Z5 F200
Z2.5
Z-1.05
X-0.419
X-0.463 Y0.189
X-0.505 Y0.173
X-0.54 Y0.147
X-0.568 Y0.112
X-0.587 Y0.072
X-0.594 Y0.028
Y-0.028
X-0.587 Y-0.072
X-0.568 Y-0.112
X-0.54 Y-0.147
X-0.505 Y-0.173
X-0.463 Y-0.189
X-0.419 Y-0.195
X0.419
X0.463 Y-0.189
X0.505 Y-0.173
X0.54 Y-0.147
X0.568 Y-0.112
X0.587 Y-0.072
X0.594 Y-0.028
Y0.028
X0.587 Y0.072
X0.568 Y0.112
X0.54 Y0.147
X0.505 Y0.173
X0.463 Y0.189
X0.419 Y0.195
X-0.4
G2 X-0.686 Y0.374 I0 J0.318
G3 X-1.024 Y0.373 I-0.169 J-0.082
G1 X-1.045 Y0.322
X-1.061 Y0.269
G3 X-1.061 Y-0.269 I1.061 J-0.269
X-0.514 Y-0.695 I0.547 J0.139
G1 X0.514
G3 X1.061 Y-0.269 I0 J0.565
X1.061 Y0.269 I-1.061 J0.269
X0.514 Y0.695 I-0.547 J-0.139
G1 X-0.514
G3 X-1.024 Y0.373 I0 J-0.565
G2 X-1.342 Y0.148 I-0.361 J0.172
G3 X-1.588 Y-0.154 I0.03 J-0.275
X-1.358 Y-0.836 I1.588 J0.154
X-0.716 Y-1.195 I0.642 J0.395
G1 X0.716
G3 X1.358 Y-0.836 I0 J0.754
X1.358 Y0.836 I-1.358 J0.836
X0.716 Y1.195 I-0.642 J-0.395
G1 X-0.716
G3 X-1.358 Y0.836 I0 J-0.754
X-1.588 Y-0.154 I1.358 J-0.836
G2 X-1.771 Y-0.528 I-0.394 J-0.038
G3 X-1.884 Y-0.928 I0.165 J-0.263
X-1.233 Y-1.7 I1.884 J0.928
G1 X1.233
G3 X1.233 Y1.7 I-1.233 J1.7
G1 X-1.233
G3 X-1.884 Y-0.928 I1.233 J-1.7
X-1.47 Y-1 I0.233 J0.115
G1 X-0.558 Y-0.118
X-0.556 Y-0.116
X-0.354 Y0.084
X-0.338 Y0.11
X-0.336 Y0.14
X-0.347 Y0.168
X-0.37 Y0.188
X-0.4 Y0.195
Z-2.1
X-0.419
X-0.463 Y0.189
X-0.505 Y0.173
X-0.54 Y0.147
X-0.568 Y0.112
X-0.587 Y0.072
X-0.594 Y0.028
Y-0.028
X-0.587 Y-0.072
X-0.568 Y-0.112
X-0.54 Y-0.147
X-0.505 Y-0.173
X-0.463 Y-0.189
X-0.419 Y-0.195
X0.419
X0.463 Y-0.189
X0.505 Y-0.173
X0.54 Y-0.147
X0.568 Y-0.112
X0.587 Y-0.072
X0.594 Y-0.028
Y0.028
X0.587 Y0.072
X0.568 Y0.112
X0.54 Y0.147
X0.505 Y0.173
X0.463 Y0.189
X0.419 Y0.195
X-0.4
G2 X-0.686 Y0.374 I0 J0.318
G3 X-1.024 Y0.373 I-0.169 J-0.082
G1 X-1.045 Y0.322
X-1.061 Y0.269
G3 X-1.061 Y-0.269 I1.061 J-0.269
X-0.514 Y-0.695 I0.547 J0.139
G1 X0.514
G3 X1.061 Y-0.269 I0 J0.565
X1.061 Y0.269 I-1.061 J0.269
X0.514 Y0.695 I-0.547 J-0.139
G1 X-0.514
G3 X-1.024 Y0.373 I0 J-0.565
G2 X-1.342 Y0.148 I-0.361 J0.172
G3 X-1.588 Y-0.154 I0.03 J-0.275
X-1.358 Y-0.836 I1.588 J0.154
X-0.716 Y-1.195 I0.642 J0.395
G1 X0.716
G3 X1.358 Y-0.836 I0 J0.754
X1.358 Y0.836 I-1.358 J0.836
X0.716 Y1.195 I-0.642 J-0.395
G1 X-0.716
G3 X-1.358 Y0.836 I0 J-0.754
X-1.588 Y-0.154 I1.358 J-0.836
G2 X-1.771 Y-0.528 I-0.394 J-0.038
G3 X-1.884 Y-0.928 I0.165 J-0.263
X-1.233 Y-1.7 I1.884 J0.928
G1 X1.233
G3 X1.233 Y1.7 I-1.233 J1.7
G1 X-1.233
G3 X-1.884 Y-0.928 I1.233 J-1.7
G1 Z15
(When using Fusion for Personal Use, the feedrate of rapid)
(moves is reduced to match the feedrate of cutting moves,)
(which can increase machining time. Unrestricted rapid moves)
(are available with a Fusion Subscription.)

(2D Pocket14)
G0 X-2 Y0.1
G1 Z15 F200
Z2.9
Z0.4
Z-3.05
X-2.098
X-2.1 Y0
X-2.098 Y-0.1
X2.098
X2.1 Y0
X2.098 Y0.1
X-2
Z-4
X-2.098
X-2.1 Y0
X-2.098 Y-0.1
X2.098
X2.1 Y0
X2.098 Y0.1
X-2
Z15

G28 G91 Z0
G90
G28 G91 X0 Y0
G90
M5
M30
