(EnclosureTopBottom)
G90 G94
G17
G21
(When using Fusion for Personal Use, the feedrate of rapid)
(moves is reduced to match the feedrate of cutting moves,)
(which can increase machining time. Unrestricted rapid moves)
(are available with a Fusion Subscription.)
G28 G91 Z0
G90

(2D Pocket2)
S1000 M3
G17 G90 G94
G54
G0 X5.756 Y43.801
Z15
G1 Z5 F175
Z0.2
Z-0.683
Y43.797
G3 X6.074 Y43.505 I0.318 J0.027
G1 X132.526
G3 X132.843 Y43.792 I0 J0.319
G1 X132.855 Y43.842
X132.878 Y43.887
X132.912 Y43.924
X132.955 Y43.952
X133.003 Y43.968
X133.105 Y43.989
G2 X133.345 Y43.793 I0.04 J-0.196
G1 Y43.324
G2 X133.026 Y43.005 I-0.319 J0
G1 X5.574
G2 X5.255 Y43.324 I0 J0.319
G1 Y43.794
G3 X5.055 Y43.994 I-0.2 J0
G1 X4.955
G3 X4.755 Y43.794 I0 J-0.2
G1 Y42.824
G3 X5.074 Y42.505 I0.319 J0
G1 X133.526
G3 X133.845 Y42.824 I0 J0.319
G1 Y43.793
G2 X134.045 Y43.993 I0.2 J0
G1 X134.145
G2 X134.345 Y43.793 I0 J-0.2
G1 Y42.324
G2 X134.026 Y42.005 I-0.319 J0
G1 X4.574
G2 X4.255 Y42.324 I0 J0.319
G1 Y43.794
G3 X4.048 Y43.994 I-0.2 J0
G1 X3.943 Y43.99
G3 X3.75 Y43.79 I0.007 J-0.2
G1 Y41.5
X134.85
Y43.4
Y43.791
G3 X134.649 Y43.991 I-0.2 J0
G1 X133.042 Y43.98
G3 X132.844 Y43.8 I0.001 J-0.2
G1 Z-1.367
X132.843 Y43.792
G2 X132.526 Y43.505 I-0.318 J0.032
G1 X6.074
G2 X5.756 Y43.797 I0 J0.319
G1 X5.744 Y43.85
X5.719 Y43.897
X5.682 Y43.936
X5.636 Y43.964
X5.584 Y43.978
X5.482 Y43.992
G3 X5.255 Y43.794 I-0.027 J-0.198
G1 Y43.324
G3 X5.574 Y43.005 I0.319 J0
G1 X133.026
G3 X133.345 Y43.324 I0 J0.319
G1 Y43.793
G2 X133.545 Y43.993 I0.2 J0
G1 X133.645
G2 X133.845 Y43.793 I0 J-0.2
G1 Y42.824
G2 X133.526 Y42.505 I-0.319 J0
G1 X5.074
G2 X4.755 Y42.824 I0 J0.319
G1 Y43.794
G3 X4.555 Y43.994 I-0.2 J0
G1 X4.455
G3 X4.255 Y43.794 I0 J-0.2
G1 Y42.324
G3 X4.574 Y42.005 I0.319 J0
G1 X134.026
G3 X134.345 Y42.324 I0 J0.319
G1 Y43.793
G2 X134.55 Y43.993 I0.2 J0
G1 X134.655 Y43.991
G2 X134.85 Y43.791 I-0.005 J-0.2
G1 Y41.5
X3.75
Y43.4
Y43.79
G2 X3.951 Y43.99 I0.2 J0
G1 X5.557 Y43.984
G2 X5.756 Y43.801 I-0.001 J-0.2
G1 Z-2.05
Y43.797
G3 X6.074 Y43.505 I0.318 J0.027
G1 X132.526
G3 X132.843 Y43.792 I0 J0.319
G1 X132.855 Y43.842
X132.878 Y43.887
X132.912 Y43.924
X132.955 Y43.952
X133.003 Y43.968
X133.105 Y43.989
G2 X133.345 Y43.793 I0.04 J-0.196
G1 Y43.324
G2 X133.026 Y43.005 I-0.319 J0
G1 X5.574
G2 X5.255 Y43.324 I0 J0.319
G1 Y43.794
G3 X5.055 Y43.994 I-0.2 J0
G1 X4.955
G3 X4.755 Y43.794 I0 J-0.2
G1 Y42.824
G3 X5.074 Y42.505 I0.319 J0
G1 X133.526
G3 X133.845 Y42.824 I0 J0.319
G1 Y43.793
G2 X134.045 Y43.993 I0.2 J0
G1 X134.145
G2 X134.345 Y43.793 I0 J-0.2
G1 Y42.324
G2 X134.026 Y42.005 I-0.319 J0
G1 X4.574
G2 X4.255 Y42.324 I0 J0.319
G1 Y43.794
G3 X4.048 Y43.994 I-0.2 J0
G1 X3.943 Y43.99
G3 X3.75 Y43.79 I0.007 J-0.2
G1 Y41.5
X134.85
Y43.4
Y43.791
Z15
(When using Fusion for Personal Use, the feedrate of rapid)
(moves is reduced to match the feedrate of cutting moves,)
(which can increase machining time. Unrestricted rapid moves)
(are available with a Fusion Subscription.)

(2D Contour4)
G0 X137.4 Y0.5
G1 Z15 F175
Z5
Z0.2
Z-1
X114.986
X114.486
Y4.6
X97.171
Y1
Y0.5
X77.857
Y4.6
X60.543
Y1
Y0.5
X41.229
Y4.6
X23.914
Y1
Y0.5
X0.5
Y18.367
X4.6
Y30.133
X1
X0.5
Y43.9
X137.9
Y30.133
X133.8
Y18.367
X137.4
X137.9
Y0.5
X137.4
Z-2
X114.986
X114.486
Y4.6
X97.171
Y1
Y0.5
X77.857
Y4.6
X60.543
Y1
Y0.5
X41.229
Y4.6
X23.914
Y1
Y0.5
X0.5
Y18.367
X4.6
Y30.133
X1
X0.5
Y43.9
X137.9
Y30.133
X133.8
Y18.367
X137.4
X137.9
Y0.5
X137.4
Z-3
X114.486
Y4.6
X97.171
Y0.5
X88.972
Z-2.1
X86.972
Z-3
X77.857
Y4.6
X60.543
Y0.5
X51.816
Z-2.1
X49.816
Z-3
X41.229
Y4.6
X23.914
Y0.5
X0.5
Y8.183
Z-2.1
Y10.183
Z-3
Y18.367
X4.6
Y30.133
X0.5
Y36.647
Z-2.1
Y38.647
Z-3
Y43.9
X137.9
Y38.187
Z-2.1
Y36.187
Z-3
Y30.133
X133.8
Y18.367
X137.9
Y9.972
Z-2.1
Y7.972
Z-3
Y0.5
X137.4
Z-3.55
X114.486
Y4.6
X97.171
Y0.5
X88.972
Z-2.1
X86.972
Z-3.55
X77.857
Y4.6
X60.543
Y0.5
X51.816
Z-2.1
X49.816
Z-3.55
X41.229
Y4.6
X23.914
Y0.5
X0.5
Y8.183
Z-2.1
Y10.183
Z-3.55
Y18.367
X4.6
Y30.133
X0.5
Y36.647
Z-2.1
Y38.647
Z-3.55
Y43.9
X137.9
Y38.187
Z-2.1
Y36.187
Z-3.55
Y30.133
X133.8
Y18.367
X137.9
Y9.972
Z-2.1
Y7.972
Z-3.55
Y0.5
X137.4
Z-4.1
X114.486
Y4.6
X97.171
Y0.5
X88.972
Z-2.1
X86.972
Z-4.1
X77.857
Y4.6
X60.543
Y0.5
X51.816
Z-2.1
X49.816
Z-4.1
X41.229
Y4.6
X23.914
Y0.5
X0.5
Y8.183
Z-2.1
Y10.183
Z-4.1
Y18.367
X4.6
Y30.133
X0.5
Y36.647
Z-2.1
Y38.647
Z-4.1
Y43.9
X137.9
Y38.187
Z-2.1
Y36.187
Z-4.1
Y30.133
X133.8
Y18.367
X137.9
Y9.972
Z-2.1
Y7.972
Z-4.1
Y0.5
X137.4
Z15

G28 G91 Z0
G90
G28 G91 X0 Y0
G90
M5
M30
