(EnclosureLeftRight)
G90 G94
G17
G21
(When using Fusion for Personal Use, the feedrate of rapid)
(moves is reduced to match the feedrate of cutting moves,)
(which can increase machining time. Unrestricted rapid moves)
(are available with a Fusion Subscription.)
G28 G91 Z0
G90

(Outline)
S10000 M3
G17 G90 G94
G54
G0 X1 Y59.9
Z10
G1 Z1 F200
Z0.2
Z-1.05
X146.4
X146.9
Y39.433
X142.7
Y20.967
X146.4
X146.9
Y0.5
X116.82
Y4.7
X88.74
Y1
Y0.5
X58.66
Y4.7
X30.58
Y1
Y0.5
X0.5
Y20.967
X4.7
Y39.433
X1
X0.5
Y59.9
X1
Z-2.1
X146.4
X146.9
Y39.433
X142.7
Y20.967
X146.4
X146.9
Y0.5
X116.82
Y4.7
X88.74
Y1
Y0.5
X58.66
Y4.7
X30.58
Y1
Y0.5
X0.5
Y20.967
X4.7
Y39.433
X1
X0.5
Y59.9
X1
Z-3.15
X70.336
Z-2.1
X73.336
Z-3.15
X146.9
Y39.433
X142.7
Y31.874
Z-2.1
Y28.874
Z-3.15
Y20.967
X146.9
Y0.5
X116.82
Y4.7
X102.938
Z-2.1
X99.938
Z-3.15
X88.74
Y0.5
X58.66
Y4.7
X46.275
Z-2.1
X43.275
Z-3.15
X30.58
Y0.5
X0.5
Y20.967
X4.7
Y29.15
Z-2.1
Y32.15
Z-3.15
Y39.433
X0.5
Y59.9
X1
Z-4.2
X70.336
Z-2.1
X73.336
Z-4.2
X146.9
Y39.433
X142.7
Y31.874
Z-2.1
Y28.874
Z-4.2
Y20.967
X146.9
Y0.5
X116.82
Y4.7
X102.938
Z-2.1
X99.938
Z-4.2
X88.74
Y0.5
X58.66
Y4.7
X46.275
Z-2.1
X43.275
Z-4.2
X30.58
Y0.5
X0.5
Y20.967
X4.7
Y29.15
Z-2.1
Y32.15
Z-4.2
Y39.433
X0.5
Y59.9
X1
Z10

G28 G91 Z0
G90
G28 G91 X0 Y0
G90
M5
M30
