(EnclosureTopBottom)
G90 G94
G17
G21
(When using Fusion for Personal Use, the feedrate of rapid)
(moves is reduced to match the feedrate of cutting moves,)
(which can increase machining time. Unrestricted rapid moves)
(are available with a Fusion Subscription.)
G28 G91 Z0
G90

(2D Contour7)
S10000 M3
G17 G90 G94
G54
G0 X269.3 Y0.2
Z15
G1 Z5 F200
Z0.2
Z-0.95
Y0.208 Z-0.988
Y0.229 Z-1.021
Y0.262 Z-1.042
Y0.3 Z-1.05
Y0.4
X269.292 Y0.438
X269.271 Y0.471
X269.238 Y0.492
X269.2 Y0.5
X231.486
G2 X230.986 Y1 I0 J0.5
G1 Y4.7
X194.271
Y1
G2 X193.771 Y0.5 I-0.5 J0
G1 X156.057
G2 X155.557 Y1 I0 J0.5
G1 Y4.7
X118.843
Y1
G2 X118.343 Y0.5 I-0.5 J0
G1 X80.629
G2 X80.129 Y1 I0 J0.5
G1 Y4.7
X43.414
Y1
G2 X42.914 Y0.5 I-0.5 J0
G1 X5.2
G2 X4.7 Y1 I0 J0.5
G1 Y20.067
X1
G2 X0.5 Y20.567 I0 J0.5
G1 Y39.833
G2 X1 Y40.333 I0.5 J0
G1 X4.7
Y59.4
G2 X5.2 Y59.9 I0.5 J0
G1 X269.2
G2 X269.7 Y59.4 I0 J-0.5
G1 Y40.333
X273.4
G2 X273.9 Y39.833 I0 J-0.5
G1 Y20.567
G2 X273.4 Y20.067 I-0.5 J0
G1 X269.7
Y1
G2 X269.2 Y0.5 I-0.5 J0
G1 X269.162 Y0.492
X269.129 Y0.471
X269.108 Y0.438
X269.1 Y0.4
Y0.3
Y0.262 Z-1.042
Y0.229 Z-1.021
Y0.208 Z-0.988
Y0.2 Z-0.95
Z5
X269.3
Z-0.85
Z-2
Y0.208 Z-2.038
Y0.229 Z-2.071
Y0.262 Z-2.092
Y0.3 Z-2.1
Y0.4
X269.292 Y0.438
X269.271 Y0.471
X269.238 Y0.492
X269.2 Y0.5
X231.486
G2 X230.986 Y1 I0 J0.5
G1 Y4.7
X194.271
Y1
G2 X193.771 Y0.5 I-0.5 J0
G1 X156.057
G2 X155.557 Y1 I0 J0.5
G1 Y4.7
X118.843
Y1
G2 X118.343 Y0.5 I-0.5 J0
G1 X80.629
G2 X80.129 Y1 I0 J0.5
G1 Y4.7
X43.414
Y1
G2 X42.914 Y0.5 I-0.5 J0
G1 X5.2
G2 X4.7 Y1 I0 J0.5
G1 Y20.067
X1
G2 X0.5 Y20.567 I0 J0.5
G1 Y39.833
G2 X1 Y40.333 I0.5 J0
G1 X4.7
Y59.4
G2 X5.2 Y59.9 I0.5 J0
G1 X269.2
G2 X269.7 Y59.4 I0 J-0.5
G1 Y40.333
X273.4
G2 X273.9 Y39.833 I0 J-0.5
G1 Y20.567
G2 X273.4 Y20.067 I-0.5 J0
G1 X269.7
Y1
G2 X269.2 Y0.5 I-0.5 J0
G1 X269.162 Y0.492
X269.129 Y0.471
X269.108 Y0.438
X269.1 Y0.4
Y0.3
Y0.262 Z-2.092
Y0.229 Z-2.071
Y0.208 Z-2.038
Y0.2 Z-2
Z5
X269.3
Z-1.9
Z-3.05
Y0.208 Z-3.088
Y0.229 Z-3.121
Y0.262 Z-3.142
Y0.3 Z-3.15
Y0.4
X269.292 Y0.438
X269.271 Y0.471
X269.238 Y0.492
X269.2 Y0.5
X231.486
G2 X230.986 Y1 I0 J0.5
G1 Y4.7
X194.271
Y1
G2 X193.771 Y0.5 I-0.5 J0
G1 X156.057
G2 X155.557 Y1 I0 J0.5
G1 Y4.7
X118.843
Y1
G2 X118.343 Y0.5 I-0.5 J0
G1 X80.629
G2 X80.129 Y1 I0 J0.5
G1 Y4.7
X43.414
Y1
G2 X42.914 Y0.5 I-0.5 J0
G1 X5.2
G2 X4.7 Y1 I0 J0.5
G1 Y20.067
X1
G2 X0.5 Y20.567 I0 J0.5
G1 Y39.833
G2 X1 Y40.333 I0.5 J0
G1 X4.7
Y59.4
G2 X5.2 Y59.9 I0.5 J0
G1 X269.2
G2 X269.7 Y59.4 I0 J-0.5
G1 Y40.333
X273.4
G2 X273.9 Y39.833 I0 J-0.5
G1 Y20.567
G2 X273.4 Y20.067 I-0.5 J0
G1 X269.7
Y1
G2 X269.2 Y0.5 I-0.5 J0
G1 X269.162 Y0.492
X269.129 Y0.471
X269.108 Y0.438
X269.1 Y0.4
Y0.3
Y0.262 Z-3.142
Y0.229 Z-3.121
Y0.208 Z-3.088
Y0.2 Z-3.05
Z5
X269.3
Z-2.95
Z-4.1
Y0.208 Z-4.138
Y0.229 Z-4.171
Y0.262 Z-4.192
Y0.3 Z-4.2
Y0.4
X269.292 Y0.438
X269.271 Y0.471
X269.238 Y0.492
X269.2 Y0.5
X231.486
G2 X230.986 Y1 I0 J0.5
G1 Y4.7
X194.271
Y1
G2 X193.771 Y0.5 I-0.5 J0
G1 X156.057
G2 X155.557 Y1 I0 J0.5
G1 Y4.7
X137.559
Z-3.2
X134.559
Z-4.2
X118.843
Y1
G2 X118.343 Y0.5 I-0.5 J0
G1 X80.629
G2 X80.129 Y1 I0 J0.5
G1 Y4.7
X43.414
Y1
G2 X42.914 Y0.5 I-0.5 J0
G1 X5.2
G2 X4.7 Y1 I0 J0.5
G1 Y9.65
Z-3.2
Y12.65
Z-4.2
Y20.067
X1
G2 X0.5 Y20.567 I0 J0.5
G1 Y39.833
G2 X1 Y40.333 I0.5 J0
G1 X4.7
Y48.022
Z-3.2
Y51.022
Z-4.2
Y59.4
G2 X5.2 Y59.9 I0.5 J0
G1 X136.908
Z-3.2
X139.908
Z-4.2
X269.2
G2 X269.7 Y59.4 I0 J-0.5
G1 Y51.649
Z-3.2
Y48.649
Z-4.2
Y40.333
X273.4
G2 X273.9 Y39.833 I0 J-0.5
G1 Y20.567
G2 X273.4 Y20.067 I-0.5 J0
G1 X269.7
Y12.844
Z-3.2
Y9.844
Z-4.2
Y1
G2 X269.2 Y0.5 I-0.5 J0
G1 X269.162 Y0.492
X269.129 Y0.471
X269.108 Y0.438
X269.1 Y0.4
Y0.3
Y0.262 Z-4.192
Y0.229 Z-4.171
Y0.208 Z-4.138
Y0.2 Z-4.1
Z15

G28 G91 Z0
G90
G28 G91 X0 Y0
G90
M5
M30
