(EnclosureBack)
G90 G94
G17
G21
(When using Fusion for Personal Use, the feedrate of rapid)
(moves is reduced to match the feedrate of cutting moves,)
(which can increase machining time. Unrestricted rapid moves)
(are available with a Fusion Subscription.)
G28 G91 Z0
G90

(Mount holes)
S10000 M3
G17 G90 G94
G54
G0 X38.8 Y8.2
Z10
G1 Z1 F200
Z0.2
Z-1.05
G3 X37.6 Y8.2 I-0.6 J0
X38.8 Y8.2 I0.6 J0
G1 Z-2.1
G3 X37.6 Y8.2 I-0.6 J0
X38.8 Y8.2 I0.6 J0
G1 Z-3.15
G3 X37.6 Y8.2 I-0.6 J0
X38.8 Y8.2 I0.6 J0
G1 Z-4.2
G3 X37.6 Y8.2 I-0.6 J0
X38.8 Y8.2 I0.6 J0
G1 Z5
X104.8
Z1
Z0.2
Z-1.05
G3 X103.6 Y8.2 I-0.6 J0
X104.8 Y8.2 I0.6 J0
G1 Z-2.1
G3 X103.6 Y8.2 I-0.6 J0
X104.8 Y8.2 I0.6 J0
G1 Z-3.15
G3 X103.6 Y8.2 I-0.6 J0
X104.8 Y8.2 I0.6 J0
G1 Z-4.2
G3 X103.6 Y8.2 I-0.6 J0
X104.8 Y8.2 I0.6 J0
G1 Z5
X170.8
Z1
Z0.2
Z-1.05
G3 X169.6 Y8.2 I-0.6 J0
X170.8 Y8.2 I0.6 J0
G1 Z-2.1
G3 X169.6 Y8.2 I-0.6 J0
X170.8 Y8.2 I0.6 J0
G1 Z-3.15
G3 X169.6 Y8.2 I-0.6 J0
X170.8 Y8.2 I0.6 J0
G1 Z-4.2
G3 X169.6 Y8.2 I-0.6 J0
X170.8 Y8.2 I0.6 J0
G1 Z5
X236.767 Y8.395
Z1
Z0.2
Z-1.05
G3 X235.633 Y8.005 I-0.567 J-0.195
X236.767 Y8.395 I0.567 J0.195
G1 Z-2.1
G3 X235.633 Y8.005 I-0.567 J-0.195
X236.767 Y8.395 I0.567 J0.195
G1 Z-3.15
G3 X235.633 Y8.005 I-0.567 J-0.195
X236.767 Y8.395 I0.567 J0.195
G1 Z-4.2
G3 X235.633 Y8.005 I-0.567 J-0.195
X236.767 Y8.395 I0.567 J0.195
G1 Z5
X266.8 Y39.45
Z1
Z0.2
Z-1.05
G3 X265.6 Y39.45 I-0.6 J0
X266.8 Y39.45 I0.6 J0
G1 Z-2.1
G3 X265.6 Y39.45 I-0.6 J0
X266.8 Y39.45 I0.6 J0
G1 Z-3.15
G3 X265.6 Y39.45 I-0.6 J0
X266.8 Y39.45 I0.6 J0
G1 Z-4.2
G3 X265.6 Y39.45 I-0.6 J0
X266.8 Y39.45 I0.6 J0
G1 Z5
Y107.95
Z1
Z0.2
Z-1.05
G3 X265.6 Y107.95 I-0.6 J0
X266.8 Y107.95 I0.6 J0
G1 Z-2.1
G3 X265.6 Y107.95 I-0.6 J0
X266.8 Y107.95 I0.6 J0
G1 Z-3.15
G3 X265.6 Y107.95 I-0.6 J0
X266.8 Y107.95 I0.6 J0
G1 Z-4.2
G3 X265.6 Y107.95 I-0.6 J0
X266.8 Y107.95 I0.6 J0
G1 Z5
X236.8 Y139.2
Z1
Z0.2
Z-1.05
G3 X235.6 Y139.2 I-0.6 J0
X236.8 Y139.2 I0.6 J0
G1 Z-2.1
G3 X235.6 Y139.2 I-0.6 J0
X236.8 Y139.2 I0.6 J0
G1 Z-3.15
G3 X235.6 Y139.2 I-0.6 J0
X236.8 Y139.2 I0.6 J0
G1 Z-4.2
G3 X235.6 Y139.2 I-0.6 J0
X236.8 Y139.2 I0.6 J0
G1 Z5
X170.8
Z1
Z0.2
Z-1.05
G3 X169.6 Y139.2 I-0.6 J0
X170.8 Y139.2 I0.6 J0
G1 Z-2.1
G3 X169.6 Y139.2 I-0.6 J0
X170.8 Y139.2 I0.6 J0
G1 Z-3.15
G3 X169.6 Y139.2 I-0.6 J0
X170.8 Y139.2 I0.6 J0
G1 Z-4.2
G3 X169.6 Y139.2 I-0.6 J0
X170.8 Y139.2 I0.6 J0
G1 Z5
X104.8
Z1
Z0.2
Z-1.05
G3 X103.6 Y139.2 I-0.6 J0
X104.8 Y139.2 I0.6 J0
G1 Z-2.1
G3 X103.6 Y139.2 I-0.6 J0
X104.8 Y139.2 I0.6 J0
G1 Z-3.15
G3 X103.6 Y139.2 I-0.6 J0
X104.8 Y139.2 I0.6 J0
G1 Z-4.2
G3 X103.6 Y139.2 I-0.6 J0
X104.8 Y139.2 I0.6 J0
G1 Z5
X38.767 Y139.395
Z1
Z0.2
Z-1.05
G3 X37.633 Y139.005 I-0.567 J-0.195
X38.767 Y139.395 I0.567 J0.195
G1 Z-2.1
G3 X37.633 Y139.005 I-0.567 J-0.195
X38.767 Y139.395 I0.567 J0.195
G1 Z-3.15
G3 X37.633 Y139.005 I-0.567 J-0.195
X38.767 Y139.395 I0.567 J0.195
G1 Z-4.2
G3 X37.633 Y139.005 I-0.567 J-0.195
X38.767 Y139.395 I0.567 J0.195
G1 Z5
X8.7 Y107.95
Z1
Z0.2
Z-1.05
G3 X7.7 Y107.95 I-0.5 J0
X8.7 Y107.95 I0.5 J0
G1 Z-2.1
G3 X7.7 Y107.95 I-0.5 J0
X8.7 Y107.95 I0.5 J0
G1 Z-3.15
G3 X7.7 Y107.95 I-0.5 J0
X8.7 Y107.95 I0.5 J0
G1 Z-4.2
G3 X7.7 Y107.95 I-0.5 J0
X8.7 Y107.95 I0.5 J0
G1 Z5
X8.8 Y39.45
Z1
Z0.2
Z-1.05
G3 X7.6 Y39.45 I-0.6 J0
X8.8 Y39.45 I0.6 J0
G1 Z-2.1
G3 X7.6 Y39.45 I-0.6 J0
X8.8 Y39.45 I0.6 J0
G1 Z-3.15
G3 X7.6 Y39.45 I-0.6 J0
X8.8 Y39.45 I0.6 J0
G1 Z-4.2
G3 X7.6 Y39.45 I-0.6 J0
X8.8 Y39.45 I0.6 J0
G1 Z10
(When using Fusion for Personal Use, the feedrate of rapid)
(moves is reduced to match the feedrate of cutting moves,)
(which can increase machining time. Unrestricted rapid moves)
(are available with a Fusion Subscription.)

(Ventilation)
G0 X89.7 Y107.333
G1 Z10 F200
Z1
Z0.2
Z-1.05
Y107.533
X32.7
Y107.133
X89.7
Y107.333
Z-2.1
Y107.533
X32.7
Y107.133
X89.7
Y107.333
Z-3.15
Y107.533
X32.7
Y107.133
X89.7
Y107.333
Z-4.2
Y107.533
X32.7
Y107.133
X89.7
Y107.333
Z5
Y100.25
Z1
Z0.2
Z-1.05
Y100.45
X32.7
Y100.05
X89.7
Y100.25
Z-2.1
Y100.45
X32.7
Y100.05
X89.7
Y100.25
Z-3.15
Y100.45
X32.7
Y100.05
X89.7
Y100.25
Z-4.2
Y100.45
X32.7
Y100.05
X89.7
Y100.25
Z5
Y93.167
Z1
Z0.2
Z-1.05
Y93.367
X32.7
Y92.967
X89.7
Y93.167
Z-2.1
Y93.367
X32.7
Y92.967
X89.7
Y93.167
Z-3.15
Y93.367
X32.7
Y92.967
X89.7
Y93.167
Z-4.2
Y93.367
X32.7
Y92.967
X89.7
Y93.167
Z5
Y86.083
Z1
Z0.2
Z-1.05
Y86.283
X32.7
Y85.883
X89.7
Y86.083
Z-2.1
Y86.283
X32.7
Y85.883
X89.7
Y86.083
Z-3.15
Y86.283
X32.7
Y85.883
X89.7
Y86.083
Z-4.2
Y86.283
X32.7
Y85.883
X89.7
Y86.083
Z5
Y79
Z1
Z0.2
Z-1.05
Y79.2
X32.7
Y78.8
X89.7
Y79
Z-2.1
Y79.2
X32.7
Y78.8
X89.7
Y79
Z-3.15
Y79.2
X32.7
Y78.8
X89.7
Y79
Z-4.2
Y79.2
X32.7
Y78.8
X89.7
Y79
Z5
X32.9 Y71.717
Z1
Z0.2
Z-1.05
X89.7
Y72.117
X32.7
Y71.717
X32.9
Z-2.1
X89.7
Y72.117
X32.7
Y71.717
X32.9
Z-3.15
X89.7
Y72.117
X32.7
Y71.717
X32.9
Z-4.2
X89.7
Y72.117
X32.7
Y71.717
X32.9
Z5
X89.7 Y64.833
Z1
Z0.2
Z-1.05
Y65.033
X32.7
Y64.633
X89.7
Y64.833
Z-2.1
Y65.033
X32.7
Y64.633
X89.7
Y64.833
Z-3.15
Y65.033
X32.7
Y64.633
X89.7
Y64.833
Z-4.2
Y65.033
X32.7
Y64.633
X89.7
Y64.833
Z5
X32.9 Y57.55
Z1
Z0.2
Z-1.05
X89.7
Y57.95
X32.7
Y57.55
X32.9
Z-2.1
X89.7
Y57.95
X32.7
Y57.55
X32.9
Z-3.15
X89.7
Y57.95
X32.7
Y57.55
X32.9
Z-4.2
X89.7
Y57.95
X32.7
Y57.55
X32.9
Z5
X89.7 Y50.667
Z1
Z0.2
Z-1.05
Y50.867
X32.7
Y50.467
X89.7
Y50.667
Z-2.1
Y50.867
X32.7
Y50.467
X89.7
Y50.667
Z-3.15
Y50.867
X32.7
Y50.467
X89.7
Y50.667
Z-4.2
Y50.867
X32.7
Y50.467
X89.7
Y50.667
Z10
(When using Fusion for Personal Use, the feedrate of rapid)
(moves is reduced to match the feedrate of cutting moves,)
(which can increase machining time. Unrestricted rapid moves)
(are available with a Fusion Subscription.)

(Power socket)
G0 X54.65 Y8.7
G1 Z10 F200
Z1
Z0.2
Z-1.05
X73.2
Y19.6
X49.2
Y8.7
X54.65
Z-2.1
X73.2
Y19.6
X49.2
Y8.7
X54.65
Z-3.15
X73.2
Y19.6
X49.2
Y8.7
X54.65
Z-4.2
X73.2
Y19.6
X49.2
Y8.7
X54.65
Z10
(When using Fusion for Personal Use, the feedrate of rapid)
(moves is reduced to match the feedrate of cutting moves,)
(which can increase machining time. Unrestricted rapid moves)
(are available with a Fusion Subscription.)

(LightSensor1)
G0 Z15
X136.954 Y136.549
G1 Z15 F200
Z5
Z2.5
Z-0.95
X136.935 Y136.571 Z-1.021
X136.905 Y136.589 Z-1.035
X136.87 Y136.595 Z-1.05
X136.85
X136.805 Y136.589
X136.763 Y136.572
X136.726 Y136.544
X136.698 Y136.507
X136.681 Y136.465
X136.675 Y136.42
Y136.38
X136.681 Y136.335
X136.698 Y136.293
X136.726 Y136.256
X136.763 Y136.228
X136.805 Y136.211
X136.85 Y136.205
X137.55
X137.595 Y136.211
X137.637 Y136.228
X137.674 Y136.256
X137.702 Y136.293
X137.719 Y136.335
X137.725 Y136.38
Y136.42
X137.719 Y136.465
X137.702 Y136.507
X137.674 Y136.544
X137.637 Y136.572
X137.595 Y136.589
X137.55 Y136.595
X136.87
G2 X136.58 Y136.819 I0 J0.3
G3 X136.215 Y136.853 I-0.189 J-0.049
G1 X136.193 Y136.795
X136.18 Y136.735
X136.175 Y136.673
Y136.127
G3 X136.597 Y135.705 I0.422 J0
G1 X137.803
G3 X138.225 Y136.127 I0 J0.422
G1 Y136.673
G3 X137.803 Y137.095 I-0.422 J0
G1 X136.597
G3 X136.215 Y136.853 I0 J-0.422
G2 X135.915 Y136.614 I-0.392 J0.185
G3 X135.675 Y136.316 I0.065 J-0.298
G1 Y136.064
G3 X135.738 Y135.762 I0.754 J0
G1 X135.786 Y135.661
X135.841 Y135.564
G3 X136.484 Y135.205 I0.643 J0.395
G1 X137.916
G3 X138.559 Y135.564 I0 J0.754
G1 X138.614 Y135.661
X138.662 Y135.762
G3 X138.725 Y136.064 I-0.691 J0.302
G1 Y136.736
G3 X138.662 Y137.038 I-0.754 J0
G1 X138.614 Y137.139
X138.559 Y137.236
G3 X137.916 Y137.595 I-0.643 J-0.395
G1 X136.484
G3 X135.841 Y137.236 I0 J-0.754
G1 X135.786 Y137.139
X135.738 Y137.038
G3 X135.675 Y136.736 I0.691 J-0.302
G1 Y136.316
G2 X135.434 Y135.966 I-0.375 J0
G3 X135.269 Y135.575 I0.105 J-0.275
X135.967 Y134.7 I1.931 J0.825
G1 X138.433
G3 X139.23 Y135.862 I-1.233 J1.7
G1 Y136.938
G3 X138.433 Y138.1 I-2.03 J-0.538
G1 X135.967
G3 X135.17 Y136.938 I1.233 J-1.7
G1 Y135.862
G3 X135.269 Y135.575 I2.03 J0.538
G1 X135.281 Y135.558
X135.299 Y135.547
X135.32 Y135.545
X135.34 Y135.552
X136.45 Y136.216
X136.672 Y136.364
X136.932 Y136.476
X136.949 Y136.489
X136.96 Y136.507
X136.962 Y136.529
X136.954 Y136.549
Z-2
X136.935 Y136.571 Z-2.071
X136.905 Y136.589 Z-2.085
X136.87 Y136.595 Z-2.1
X136.85
X136.805 Y136.589
X136.763 Y136.572
X136.726 Y136.544
X136.698 Y136.507
X136.681 Y136.465
X136.675 Y136.42
Y136.38
X136.681 Y136.335
X136.698 Y136.293
X136.726 Y136.256
X136.763 Y136.228
X136.805 Y136.211
X136.85 Y136.205
X137.55
X137.595 Y136.211
X137.637 Y136.228
X137.674 Y136.256
X137.702 Y136.293
X137.719 Y136.335
X137.725 Y136.38
Y136.42
X137.719 Y136.465
X137.702 Y136.507
X137.674 Y136.544
X137.637 Y136.572
X137.595 Y136.589
X137.55 Y136.595
X136.87
G2 X136.58 Y136.819 I0 J0.3
G3 X136.215 Y136.853 I-0.189 J-0.049
G1 X136.193 Y136.795
X136.18 Y136.735
X136.175 Y136.673
Y136.127
G3 X136.597 Y135.705 I0.422 J0
G1 X137.803
G3 X138.225 Y136.127 I0 J0.422
G1 Y136.673
G3 X137.803 Y137.095 I-0.422 J0
G1 X136.597
G3 X136.215 Y136.853 I0 J-0.422
G2 X135.915 Y136.614 I-0.392 J0.185
G3 X135.675 Y136.316 I0.065 J-0.298
G1 Y136.064
G3 X135.738 Y135.762 I0.754 J0
G1 X135.786 Y135.661
X135.841 Y135.564
G3 X136.484 Y135.205 I0.643 J0.395
G1 X137.916
G3 X138.559 Y135.564 I0 J0.754
G1 X138.614 Y135.661
X138.662 Y135.762
G3 X138.725 Y136.064 I-0.691 J0.302
G1 Y136.736
G3 X138.662 Y137.038 I-0.754 J0
G1 X138.614 Y137.139
X138.559 Y137.236
G3 X137.916 Y137.595 I-0.643 J-0.395
G1 X136.484
G3 X135.841 Y137.236 I0 J-0.754
G1 X135.786 Y137.139
X135.738 Y137.038
G3 X135.675 Y136.736 I0.691 J-0.302
G1 Y136.316
G2 X135.434 Y135.966 I-0.375 J0
G3 X135.269 Y135.575 I0.105 J-0.275
X135.967 Y134.7 I1.931 J0.825
G1 X138.433
G3 X139.23 Y135.862 I-1.233 J1.7
G1 Y136.938
G3 X138.433 Y138.1 I-2.03 J-0.538
G1 X135.967
G3 X135.17 Y136.938 I1.233 J-1.7
G1 Y135.862
G3 X135.269 Y135.575 I2.03 J0.538
G1 X135.298 Y135.51 Z-2.071
X135.31 Y135.484 Z-2
Z15
(When using Fusion for Personal Use, the feedrate of rapid)
(moves is reduced to match the feedrate of cutting moves,)
(which can increase machining time. Unrestricted rapid moves)
(are available with a Fusion Subscription.)

(LightSensor2)
G0 X135.27 Y136.5
G1 Z15 F200
Z5
Z2.5
Z-1.05
X135.17
Y136.3
X139.23
Y136.5
X135.27
Z-2.1
X135.17
Y136.3
X139.23
Y136.5
X135.27
Z-3.15
X135.17
Y136.3
X139.23
Y136.5
X135.27
Z-4.2
X135.17
Y136.3
X139.23
Y136.5
X135.27
Z15
(When using Fusion for Personal Use, the feedrate of rapid)
(moves is reduced to match the feedrate of cutting moves,)
(which can increase machining time. Unrestricted rapid moves)
(are available with a Fusion Subscription.)

(Outline)
G0 X231.886 Y0.5
G1 Z10 F200
Z1
Z0.2
Z-1.05
X193.371
Y4.7
X156.457
Y1
Y0.5
X117.943
Y4.7
X81.029
Y1
Y0.5
X42.514
Y4.7
X5.2
X4.7
Y29.68
X1
X0.5
Y59.56
X4.7
Y87.84
X1
X0.5
Y117.72
X4.7
Y142.2
Y142.7
X42.514
Y146.4
Y146.9
X81.029
Y142.7
X117.943
Y146.4
Y146.9
X156.457
Y142.7
X193.371
Y146.4
Y146.9
X231.886
Y142.7
X269.2
X269.7
Y117.72
X273.4
X273.9
Y87.84
X269.7
Y59.56
X273.4
X273.9
Y29.68
X269.7
Y5.2
Y4.7
X231.886
Y1
Y0.5
Z-2.1
X193.371
Y4.7
X156.457
Y1
Y0.5
X117.943
Y4.7
X81.029
Y1
Y0.5
X42.514
Y4.7
X5.2
X4.7
Y29.68
X1
X0.5
Y59.56
X4.7
Y87.84
X1
X0.5
Y117.72
X4.7
Y142.2
Y142.7
X42.514
Y146.4
Y146.9
X81.029
Y142.7
X117.943
Y146.4
Y146.9
X156.457
Y142.7
X193.371
Y146.4
Y146.9
X231.886
Y142.7
X269.2
X269.7
Y117.72
X273.4
X273.9
Y87.84
X269.7
Y59.56
X273.4
X273.9
Y29.68
X269.7
Y5.2
Y4.7
X231.886
Y1
Y0.5
Z-3.15
X193.371
Y4.7
X177.243
Z-2.1
X174.243
Z-3.15
X156.457
Y0.5
X117.943
Y4.7
X102.511
Z-2.1
X99.511
Z-3.15
X81.029
Y0.5
X42.514
Y4.7
X4.7
Y16.208
Z-2.1
Y19.208
Z-3.15
Y29.68
X0.5
Y59.56
X4.7
Y72.145
Z-2.1
Y75.145
Z-3.15
Y87.84
X0.5
Y117.72
X4.7
Y127.59
Z-2.1
Y130.59
Z-3.15
Y142.7
X42.514
Y146.9
X81.029
Y142.7
X100.367
Z-2.1
X103.367
Z-3.15
X117.943
Y146.9
X156.457
Y142.7
X175.195
Z-2.1
X178.195
Z-3.15
X193.371
Y146.9
X231.886
Y142.7
X269.7
Y130.642
Z-2.1
Y127.642
Z-3.15
Y117.72
X273.9
Y87.84
X269.7
Y74.053
Z-2.1
Y71.053
Z-3.15
Y59.56
X273.9
Y29.68
X269.7
Y19.613
Z-2.1
Y16.613
Z-3.15
Y4.7
X231.886
Y0.5
Z-4.2
X193.371
Y4.7
X177.243
Z-2.1
X174.243
Z-4.2
X156.457
Y0.5
X117.943
Y4.7
X102.511
Z-2.1
X99.511
Z-4.2
X81.029
Y0.5
X42.514
Y4.7
X4.7
Y16.208
Z-2.1
Y19.208
Z-4.2
Y29.68
X0.5
Y59.56
X4.7
Y72.145
Z-2.1
Y75.145
Z-4.2
Y87.84
X0.5
Y117.72
X4.7
Y127.59
Z-2.1
Y130.59
Z-4.2
Y142.7
X42.514
Y146.9
X81.029
Y142.7
X100.367
Z-2.1
X103.367
Z-4.2
X117.943
Y146.9
X156.457
Y142.7
X175.195
Z-2.1
X178.195
Z-4.2
X193.371
Y146.9
X231.886
Y142.7
X269.7
Y130.642
Z-2.1
Y127.642
Z-4.2
Y117.72
X273.9
Y87.84
X269.7
Y74.053
Z-2.1
Y71.053
Z-4.2
Y59.56
X273.9
Y29.68
X269.7
Y19.613
Z-2.1
Y16.613
Z-4.2
Y4.7
X231.886
Y0.5
Z10

G28 G91 Z0
G90
G28 G91 X0 Y0
G90
M5
M30
