(FrontGlass)
G90 G94
G17
G21
(When using Fusion for Personal Use, the feedrate of rapid)
(moves is reduced to match the feedrate of cutting moves,)
(which can increase machining time. Unrestricted rapid moves)
(are available with a Fusion Subscription.)
G28 G91 Z0
G90

(2D Contour8)
S10000 M3
G17 G90 G94
G54
G0 X262.8 Y0.5
Z15
G1 Z5 F200
Z0.2 F100
Z-0.55
X3.2 F200
G2 X0.5 Y3.2 I0 J2.7
G1 Y135.8
G2 X3.2 Y138.5 I2.7 J0
G1 X262.8
G2 X265.5 Y135.8 I0 J-2.7
G1 Y3.2
G2 X262.8 Y0.5 I-2.7 J0
G1 Z-1.1 F100
X3.2 F200
G2 X0.5 Y3.2 I0 J2.7
G1 Y135.8
G2 X3.2 Y138.5 I2.7 J0
G1 X262.8
G2 X265.5 Y135.8 I0 J-2.7
G1 Y3.2
G2 X262.8 Y0.5 I-2.7 J0
G1 Z-1.65 F100
X200.8 F200
Z-1.2
X197.8
Z-1.65 F100
X67.763 F200
Z-1.2
X64.763
Z-1.65 F100
X3.2 F200
G2 X0.5 Y3.2 I0 J2.7
G1 Y68.219
Z-1.2
Y71.219
Z-1.65 F100
Y135.8 F200
G2 X3.2 Y138.5 I2.7 J0
G1 X65.2
Z-1.2
X68.2
Z-1.65 F100
X198.237 F200
Z-1.2
X201.237
Z-1.65 F100
X262.8 F200
G2 X265.5 Y135.8 I0 J-2.7
G1 Y70.781
Z-1.2
Y67.781
Z-1.65 F100
Y3.2 F200
G2 X262.8 Y0.5 I-2.7 J0
G1 Z-2.2 F100
X200.8 F200
Z-1.2
X197.8
Z-2.2 F100
X67.763 F200
Z-1.2
X64.763
Z-2.2 F100
X3.2 F200
G2 X0.5 Y3.2 I0 J2.7
G1 Y68.219
Z-1.2
Y71.219
Z-2.2 F100
Y135.8 F200
G2 X3.2 Y138.5 I2.7 J0
G1 X65.2
Z-1.2
X68.2
Z-2.2 F100
X198.237 F200
Z-1.2
X201.237
Z-2.2 F100
X262.8 F200
G2 X265.5 Y135.8 I0 J-2.7
G1 Y70.781
Z-1.2
Y67.781
Z-2.2 F100
Y3.2 F200
G2 X262.8 Y0.5 I-2.7 J0
G1 Z15

G28 G91 Z0
G90
G28 G91 X0 Y0
G90
M5
M30
