(EnclosureBack)
G90 G94
G17
G21
(When using Fusion for Personal Use, the feedrate of rapid)
(moves is reduced to match the feedrate of cutting moves,)
(which can increase machining time. Unrestricted rapid moves)
(are available with a Fusion Subscription.)
G28 G91 Z0
G90

(2D Pocket1)
S1000 M3
G17 G90 G94
G54
G0 X66.3 Y10.406
Z15
G1 Z1 F175
Z-0.683
X66.29
X66.253 Y10.399
X66.222 Y10.378
X66.201 Y10.347
X66.194 Y10.31
Y10.29
X66.201 Y10.253
X66.222 Y10.222
X66.253 Y10.201
X66.29 Y10.194
X72.11
X72.147 Y10.201
X72.178 Y10.222
X72.199 Y10.253
X72.206 Y10.29
Y10.31
X72.199 Y10.347
X72.178 Y10.378
X72.147 Y10.399
X72.11 Y10.406
X66.3
G2 X66.021 Y10.575 I0 J0.314
G3 X65.705 Y10.498 I-0.149 J-0.078
G1 Y10.024
G3 X66.024 Y9.705 I0.319 J0
G1 X72.376
G3 X72.695 Y10.024 I0 J0.319
G1 Y10.576
G3 X72.376 Y10.895 I-0.319 J0
G1 X66.024
G3 X65.705 Y10.576 I0 J-0.319
G1 Y10.498
G2 X65.478 Y10.156 I-0.37 J0
G3 X65.25 Y9.815 I0.142 J-0.341
G1 Y9.7
G3 X65.7 Y9.25 I0.45 J0
G1 X72.7
G3 X73.15 Y9.7 I0 J0.45
G1 Y10.9
G3 X72.7 Y11.35 I-0.45 J0
G1 X65.7
G3 X65.25 Y10.9 I0 J-0.45
G1 Y9.815
G2 X65.043 Y9.488 I-0.361 J0
G3 X64.954 Y9.112 I0.105 J-0.224
X65.7 Y8.75 I0.746 J0.588
G1 X72.7
G3 X73.62 Y9.628 I0 J0.921
X73.65 Y10.9 I-27.195 J1.272
X72.7 Y11.85 I-0.95 J0
G1 X65.7
G3 X64.78 Y10.972 I0 J-0.921
X64.75 Y9.7 I27.195 J-1.272
X64.954 Y9.112 I0.95 J0
G2 X65.005 Y8.721 I-0.302 J-0.238
G3 X65.155 Y8.356 I0.253 J-0.109
X65.7 Y8.25 I0.545 J1.344
G1 X72.7
G3 X74.15 Y9.7 I0 J1.45
G1 Y10.9
G3 X72.7 Y12.35 I-1.45 J0
G1 X65.7
G3 X64.25 Y10.9 I0 J-1.45
G1 Y9.7
G3 X65.155 Y8.356 I1.45 J0
G2 X65.397 Y8.027 I-0.147 J-0.362
G3 X65.698 Y7.75 I0.301 J0.025
G1 X65.7
X72.7
G3 X74.65 Y9.7 I0 J1.95
G1 Y10.9
G3 X72.7 Y12.85 I-1.95 J0
G1 X65.7
G3 X63.75 Y10.9 I0 J-1.95
G1 Y9.7
G3 X65.698 Y7.75 I1.95 J0
G2 X66.11 Y7.475 I0 J-0.447
G3 X66.522 Y7.2 I0.412 J0.171
G1 X72.7
G3 X75.2 Y9.7 I0 J2.5
G1 Y10.9
G3 X72.7 Y13.4 I-2.5 J0
G1 X65.7
G3 X63.2 Y10.9 I0 J-2.5
G1 Y9.7
G3 X65.7 Y7.2 I2.5 J0
G1 X66.522
X66.565 Y7.207
X66.603 Y7.225
X66.634 Y7.255
X66.655 Y7.293
X66.664 Y7.335
X66.66 Y7.377
X66.487 Y8.049
X66.309 Y10.194
X66.335 Y10.365
X66.332 Y10.385
X66.319 Y10.401
X66.3 Y10.406
Z-1.367
X66.29
X66.253 Y10.399
X66.222 Y10.378
X66.201 Y10.347
X66.194 Y10.31
Y10.29
X66.201 Y10.253
X66.222 Y10.222
X66.253 Y10.201
X66.29 Y10.194
X72.11
X72.147 Y10.201
X72.178 Y10.222
X72.199 Y10.253
X72.206 Y10.29
Y10.31
X72.199 Y10.347
X72.178 Y10.378
X72.147 Y10.399
X72.11 Y10.406
X66.3
G2 X66.021 Y10.575 I0 J0.314
G3 X65.705 Y10.498 I-0.149 J-0.078
G1 Y10.024
G3 X66.024 Y9.705 I0.319 J0
G1 X72.376
G3 X72.695 Y10.024 I0 J0.319
G1 Y10.576
G3 X72.376 Y10.895 I-0.319 J0
G1 X66.024
G3 X65.705 Y10.576 I0 J-0.319
G1 Y10.498
G2 X65.478 Y10.156 I-0.37 J0
G3 X65.25 Y9.815 I0.142 J-0.341
G1 Y9.7
G3 X65.7 Y9.25 I0.45 J0
G1 X72.7
G3 X73.15 Y9.7 I0 J0.45
G1 Y10.9
G3 X72.7 Y11.35 I-0.45 J0
G1 X65.7
G3 X65.25 Y10.9 I0 J-0.45
G1 Y9.815
G2 X65.043 Y9.488 I-0.361 J0
G3 X64.954 Y9.112 I0.105 J-0.224
X65.7 Y8.75 I0.746 J0.588
G1 X72.7
G3 X73.62 Y9.628 I0 J0.921
X73.65 Y10.9 I-27.195 J1.272
X72.7 Y11.85 I-0.95 J0
G1 X65.7
G3 X64.78 Y10.972 I0 J-0.921
X64.75 Y9.7 I27.195 J-1.272
X64.954 Y9.112 I0.95 J0
G2 X65.005 Y8.721 I-0.302 J-0.238
G3 X65.155 Y8.356 I0.253 J-0.109
X65.7 Y8.25 I0.545 J1.344
G1 X72.7
G3 X74.15 Y9.7 I0 J1.45
G1 Y10.9
G3 X72.7 Y12.35 I-1.45 J0
G1 X65.7
G3 X64.25 Y10.9 I0 J-1.45
G1 Y9.7
G3 X65.155 Y8.356 I1.45 J0
G2 X65.397 Y8.027 I-0.147 J-0.362
G3 X65.698 Y7.75 I0.301 J0.025
G1 X65.7
X72.7
G3 X74.65 Y9.7 I0 J1.95
G1 Y10.9
G3 X72.7 Y12.85 I-1.95 J0
G1 X65.7
G3 X63.75 Y10.9 I0 J-1.95
G1 Y9.7
G3 X65.698 Y7.75 I1.95 J0
G2 X66.11 Y7.475 I0 J-0.447
G3 X66.522 Y7.2 I0.412 J0.171
G1 X72.7
G3 X75.2 Y9.7 I0 J2.5
G1 Y10.9
G3 X72.7 Y13.4 I-2.5 J0
G1 X65.7
G3 X63.2 Y10.9 I0 J-2.5
G1 Y9.7
G3 X65.7 Y7.2 I2.5 J0
G1 X66.522
X66.565 Y7.207
X66.603 Y7.225
X66.634 Y7.255
X66.655 Y7.293
X66.664 Y7.335
X66.66 Y7.377
X66.487 Y8.049
X66.309 Y10.194
X66.335 Y10.365
X66.332 Y10.385
X66.319 Y10.401
X66.3 Y10.406
Z-2.05
X66.29
X66.253 Y10.399
X66.222 Y10.378
X66.201 Y10.347
X66.194 Y10.31
Y10.29
X66.201 Y10.253
X66.222 Y10.222
X66.253 Y10.201
X66.29 Y10.194
X72.11
X72.147 Y10.201
X72.178 Y10.222
X72.199 Y10.253
X72.206 Y10.29
Y10.31
X72.199 Y10.347
X72.178 Y10.378
X72.147 Y10.399
X72.11 Y10.406
X66.3
G2 X66.021 Y10.575 I0 J0.314
G3 X65.705 Y10.498 I-0.149 J-0.078
G1 Y10.024
G3 X66.024 Y9.705 I0.319 J0
G1 X72.376
G3 X72.695 Y10.024 I0 J0.319
G1 Y10.576
G3 X72.376 Y10.895 I-0.319 J0
G1 X66.024
G3 X65.705 Y10.576 I0 J-0.319
G1 Y10.498
G2 X65.478 Y10.156 I-0.37 J0
G3 X65.25 Y9.815 I0.142 J-0.341
G1 Y9.7
G3 X65.7 Y9.25 I0.45 J0
G1 X72.7
G3 X73.15 Y9.7 I0 J0.45
G1 Y10.9
G3 X72.7 Y11.35 I-0.45 J0
G1 X65.7
G3 X65.25 Y10.9 I0 J-0.45
G1 Y9.815
G2 X65.043 Y9.488 I-0.361 J0
G3 X64.954 Y9.112 I0.105 J-0.224
X65.7 Y8.75 I0.746 J0.588
G1 X72.7
G3 X73.62 Y9.628 I0 J0.921
X73.65 Y10.9 I-27.195 J1.272
X72.7 Y11.85 I-0.95 J0
G1 X65.7
G3 X64.78 Y10.972 I0 J-0.921
X64.75 Y9.7 I27.195 J-1.272
X64.954 Y9.112 I0.95 J0
G2 X65.005 Y8.721 I-0.302 J-0.238
G3 X65.155 Y8.356 I0.253 J-0.109
X65.7 Y8.25 I0.545 J1.344
G1 X72.7
G3 X74.15 Y9.7 I0 J1.45
G1 Y10.9
G3 X72.7 Y12.35 I-1.45 J0
G1 X65.7
G3 X64.25 Y10.9 I0 J-1.45
G1 Y9.7
G3 X65.155 Y8.356 I1.45 J0
G2 X65.397 Y8.027 I-0.147 J-0.362
G3 X65.698 Y7.75 I0.301 J0.025
G1 X65.7
X72.7
G3 X74.65 Y9.7 I0 J1.95
G1 Y10.9
G3 X72.7 Y12.85 I-1.95 J0
G1 X65.7
G3 X63.75 Y10.9 I0 J-1.95
G1 Y9.7
G3 X65.698 Y7.75 I1.95 J0
G2 X66.11 Y7.475 I0 J-0.447
G3 X66.522 Y7.2 I0.412 J0.171
G1 X72.7
G3 X75.2 Y9.7 I0 J2.5
G1 Y10.9
G3 X72.7 Y13.4 I-2.5 J0
G1 X65.7
G3 X63.2 Y10.9 I0 J-2.5
G1 Y9.7
G3 X65.7 Y7.2 I2.5 J0
G1 X66.522
Z15
(When using Fusion for Personal Use, the feedrate of rapid)
(moves is reduced to match the feedrate of cutting moves,)
(which can increase machining time. Unrestricted rapid moves)
(are available with a Fusion Subscription.)

(2D Contour6)
G0 X66.3 Y11.9
G1 Z15 F175
Z2.95
Z-1.85
Z-3.05
X65.7
G3 X64.7 Y10.9 I0 J-1
G1 Y9.7
G3 X65.7 Y8.7 I1 J0
G1 X72.7
G3 X73.7 Y9.7 I0 J1
G1 Y10.9
G3 X72.7 Y11.9 I-1 J0
G1 X66.3
Z-3.575
X65.7
G3 X64.7 Y10.9 I0 J-1
G1 Y9.7
G3 X65.7 Y8.7 I1 J0
G1 X72.7
G3 X73.7 Y9.7 I0 J1
G1 Y10.9
G3 X72.7 Y11.9 I-1 J0
G1 X66.3
Z-4.1
X65.7
G3 X64.7 Y10.9 I0 J-1
G1 Y9.7
G3 X65.7 Y8.7 I1 J0
G1 X72.7
G3 X73.7 Y9.7 I0 J1
G1 Y10.9
G3 X72.7 Y11.9 I-1 J0
G1 X66.3
Z15
(When using Fusion for Personal Use, the feedrate of rapid)
(moves is reduced to match the feedrate of cutting moves,)
(which can increase machining time. Unrestricted rapid moves)
(are available with a Fusion Subscription.)

(2D Pocket6)
G0 X34.4 Y8.1
G1 Z15 F175
Z5
Z2.5
Z-0.82
G3 X34.8 Y8.1 I0.2 J0
X33.8 Y8.1 I-0.5 J0
X34.8 Y8.1 I0.5 J0
G1 X34.792 Y8.138
X34.771 Y8.171
X34.738 Y8.192
X34.7 Y8.2
X34.662 Y8.192
X34.629 Y8.171
X34.608 Y8.138
X34.6 Y8.1
X34.592 Y8.062
X34.571 Y8.029
X34.538 Y8.008
X34.5 Y8
X34.462 Y8.008
X34.429 Y8.029
X34.408 Y8.062
X34.4 Y8.1
Z-1.64
G3 X34.8 Y8.1 I0.2 J0
X33.8 Y8.1 I-0.5 J0
X34.8 Y8.1 I0.5 J0
G1 X34.792 Y8.138
X34.771 Y8.171
X34.738 Y8.192
X34.7 Y8.2
X34.662 Y8.192
X34.629 Y8.171
X34.608 Y8.138
X34.6 Y8.1
X34.592 Y8.062
X34.571 Y8.029
X34.538 Y8.008
X34.5 Y8
X34.462 Y8.008
X34.429 Y8.029
X34.408 Y8.062
X34.4 Y8.1
Z-2.46
G3 X34.8 Y8.1 I0.2 J0
X33.8 Y8.1 I-0.5 J0
X34.8 Y8.1 I0.5 J0
G1 X34.792 Y8.138
X34.771 Y8.171
X34.738 Y8.192
X34.7 Y8.2
X34.662 Y8.192
X34.629 Y8.171
X34.608 Y8.138
X34.6 Y8.1
X34.592 Y8.062
X34.571 Y8.029
X34.538 Y8.008
X34.5 Y8
X34.462 Y8.008
X34.429 Y8.029
X34.408 Y8.062
X34.4 Y8.1
Z-3.28
G3 X34.8 Y8.1 I0.2 J0
X33.8 Y8.1 I-0.5 J0
X34.8 Y8.1 I0.5 J0
G1 X34.792 Y8.138
X34.771 Y8.171
X34.738 Y8.192
X34.7 Y8.2
X34.662 Y8.192
X34.629 Y8.171
X34.608 Y8.138
X34.6 Y8.1
X34.592 Y8.062
X34.571 Y8.029
X34.538 Y8.008
X34.5 Y8
X34.462 Y8.008
X34.429 Y8.029
X34.408 Y8.062
X34.4 Y8.1
Z-4.1
G3 X34.8 Y8.1 I0.2 J0
X33.8 Y8.1 I-0.5 J0
X34.8 Y8.1 I0.5 J0
G1 Z5
X34.4 Y66.3
Z2.5
Z-0.82
G3 X34.8 Y66.3 I0.2 J0
X33.8 Y66.3 I-0.5 J0
X34.8 Y66.3 I0.5 J0
G1 X34.792 Y66.338
X34.771 Y66.371
X34.738 Y66.392
X34.7 Y66.4
X34.662 Y66.392
X34.629 Y66.371
X34.608 Y66.338
X34.6 Y66.3
X34.592 Y66.262
X34.571 Y66.229
X34.538 Y66.208
X34.5 Y66.2
X34.462 Y66.208
X34.429 Y66.229
X34.408 Y66.262
X34.4 Y66.3
Z-1.64
G3 X34.8 Y66.3 I0.2 J0
X33.8 Y66.3 I-0.5 J0
X34.8 Y66.3 I0.5 J0
G1 X34.792 Y66.338
X34.771 Y66.371
X34.738 Y66.392
X34.7 Y66.4
X34.662 Y66.392
X34.629 Y66.371
X34.608 Y66.338
X34.6 Y66.3
X34.592 Y66.262
X34.571 Y66.229
X34.538 Y66.208
X34.5 Y66.2
X34.462 Y66.208
X34.429 Y66.229
X34.408 Y66.262
X34.4 Y66.3
Z-2.46
G3 X34.8 Y66.3 I0.2 J0
X33.8 Y66.3 I-0.5 J0
X34.8 Y66.3 I0.5 J0
G1 X34.792 Y66.338
X34.771 Y66.371
X34.738 Y66.392
X34.7 Y66.4
X34.662 Y66.392
X34.629 Y66.371
X34.608 Y66.338
X34.6 Y66.3
X34.592 Y66.262
X34.571 Y66.229
X34.538 Y66.208
X34.5 Y66.2
X34.462 Y66.208
X34.429 Y66.229
X34.408 Y66.262
X34.4 Y66.3
Z-3.28
G3 X34.8 Y66.3 I0.2 J0
X33.8 Y66.3 I-0.5 J0
X34.8 Y66.3 I0.5 J0
G1 X34.792 Y66.338
X34.771 Y66.371
X34.738 Y66.392
X34.7 Y66.4
X34.662 Y66.392
X34.629 Y66.371
X34.608 Y66.338
X34.6 Y66.3
X34.592 Y66.262
X34.571 Y66.229
X34.538 Y66.208
X34.5 Y66.2
X34.462 Y66.208
X34.429 Y66.229
X34.408 Y66.262
X34.4 Y66.3
Z-4.1
G3 X34.8 Y66.3 I0.2 J0
X33.8 Y66.3 I-0.5 J0
X34.8 Y66.3 I0.5 J0
G1 Z5
X104.2
Z2.5
Z-0.82
G3 X104.6 Y66.3 I0.2 J0
X103.6 Y66.3 I-0.5 J0
X104.6 Y66.3 I0.5 J0
G1 X104.592 Y66.338
X104.571 Y66.371
X104.538 Y66.392
X104.5 Y66.4
X104.462 Y66.392
X104.429 Y66.371
X104.408 Y66.338
X104.4 Y66.3
X104.392 Y66.262
X104.371 Y66.229
X104.338 Y66.208
X104.3 Y66.2
X104.262 Y66.208
X104.229 Y66.229
X104.208 Y66.262
X104.2 Y66.3
Z-1.64
G3 X104.6 Y66.3 I0.2 J0
X103.6 Y66.3 I-0.5 J0
X104.6 Y66.3 I0.5 J0
G1 X104.592 Y66.338
X104.571 Y66.371
X104.538 Y66.392
X104.5 Y66.4
X104.462 Y66.392
X104.429 Y66.371
X104.408 Y66.338
X104.4 Y66.3
X104.392 Y66.262
X104.371 Y66.229
X104.338 Y66.208
X104.3 Y66.2
X104.262 Y66.208
X104.229 Y66.229
X104.208 Y66.262
X104.2 Y66.3
Z-2.46
G3 X104.6 Y66.3 I0.2 J0
X103.6 Y66.3 I-0.5 J0
X104.6 Y66.3 I0.5 J0
G1 X104.592 Y66.338
X104.571 Y66.371
X104.538 Y66.392
X104.5 Y66.4
X104.462 Y66.392
X104.429 Y66.371
X104.408 Y66.338
X104.4 Y66.3
X104.392 Y66.262
X104.371 Y66.229
X104.338 Y66.208
X104.3 Y66.2
X104.262 Y66.208
X104.229 Y66.229
X104.208 Y66.262
X104.2 Y66.3
Z-3.28
G3 X104.6 Y66.3 I0.2 J0
X103.6 Y66.3 I-0.5 J0
X104.6 Y66.3 I0.5 J0
G1 X104.592 Y66.338
X104.571 Y66.371
X104.538 Y66.392
X104.5 Y66.4
X104.462 Y66.392
X104.429 Y66.371
X104.408 Y66.338
X104.4 Y66.3
X104.392 Y66.262
X104.371 Y66.229
X104.338 Y66.208
X104.3 Y66.2
X104.262 Y66.208
X104.229 Y66.229
X104.208 Y66.262
X104.2 Y66.3
Z-4.1
G3 X104.6 Y66.3 I0.2 J0
X103.6 Y66.3 I-0.5 J0
X104.6 Y66.3 I0.5 J0
G1 Z5
X104.2 Y8.1
Z2.5
Z-0.82
G3 X104.6 Y8.1 I0.2 J0
X103.6 Y8.1 I-0.5 J0
X104.6 Y8.1 I0.5 J0
G1 X104.592 Y8.138
X104.571 Y8.171
X104.538 Y8.192
X104.5 Y8.2
X104.462 Y8.192
X104.429 Y8.171
X104.408 Y8.138
X104.4 Y8.1
X104.392 Y8.062
X104.371 Y8.029
X104.338 Y8.008
X104.3 Y8
X104.262 Y8.008
X104.229 Y8.029
X104.208 Y8.062
X104.2 Y8.1
Z-1.64
G3 X104.6 Y8.1 I0.2 J0
X103.6 Y8.1 I-0.5 J0
X104.6 Y8.1 I0.5 J0
G1 X104.592 Y8.138
X104.571 Y8.171
X104.538 Y8.192
X104.5 Y8.2
X104.462 Y8.192
X104.429 Y8.171
X104.408 Y8.138
X104.4 Y8.1
X104.392 Y8.062
X104.371 Y8.029
X104.338 Y8.008
X104.3 Y8
X104.262 Y8.008
X104.229 Y8.029
X104.208 Y8.062
X104.2 Y8.1
Z-2.46
G3 X104.6 Y8.1 I0.2 J0
X103.6 Y8.1 I-0.5 J0
X104.6 Y8.1 I0.5 J0
G1 X104.592 Y8.138
X104.571 Y8.171
X104.538 Y8.192
X104.5 Y8.2
X104.462 Y8.192
X104.429 Y8.171
X104.408 Y8.138
X104.4 Y8.1
X104.392 Y8.062
X104.371 Y8.029
X104.338 Y8.008
X104.3 Y8
X104.262 Y8.008
X104.229 Y8.029
X104.208 Y8.062
X104.2 Y8.1
Z-3.28
G3 X104.6 Y8.1 I0.2 J0
X103.6 Y8.1 I-0.5 J0
X104.6 Y8.1 I0.5 J0
G1 X104.592 Y8.138
X104.571 Y8.171
X104.538 Y8.192
X104.5 Y8.2
X104.462 Y8.192
X104.429 Y8.171
X104.408 Y8.138
X104.4 Y8.1
X104.392 Y8.062
X104.371 Y8.029
X104.338 Y8.008
X104.3 Y8
X104.262 Y8.008
X104.229 Y8.029
X104.208 Y8.062
X104.2 Y8.1
Z-4.1
G3 X104.6 Y8.1 I0.2 J0
X103.6 Y8.1 I-0.5 J0
X104.6 Y8.1 I0.5 J0
G1 Z15
(When using Fusion for Personal Use, the feedrate of rapid)
(moves is reduced to match the feedrate of cutting moves,)
(which can increase machining time. Unrestricted rapid moves)
(are available with a Fusion Subscription.)

(2D Pocket4)
G0 X68.725 Y63.445
G1 Z15 F175
Z5
Z2.5
Z-1
X68.715
G3 X68.48 Y63.21 I0 J-0.235
G1 Y63.19
G3 X68.715 Y62.955 I0.235 J0
G1 X69.685
G3 X69.92 Y63.19 I0 J0.235
G1 Y63.21
G3 X69.685 Y63.445 I-0.235 J0
G1 X68.725
G2 X68.422 Y63.71 I0 J0.306
G3 X68.028 Y63.794 I-0.212 J-0.029
G1 X68.002 Y63.741
X67.985 Y63.684
X67.98 Y63.626
Y62.774
G3 X68.299 Y62.455 I0.319 J0
G1 X70.101
G3 X70.42 Y62.774 I0 J0.319
G1 Y63.626
G3 X70.101 Y63.945 I-0.319 J0
G1 X68.299
G3 X68.028 Y63.794 I0 J-0.319
G2 X67.738 Y63.556 I-0.496 J0.308
G3 X67.525 Y63.247 I0.117 J-0.309
G1 Y62.45
G3 X67.975 Y62 I0.45 J0
G1 X70.425
G3 X70.875 Y62.45 I0 J0.45
G1 Y63.95
G3 X70.425 Y64.4 I-0.45 J0
G1 X67.975
G3 X67.525 Y63.95 I0 J-0.45
G1 Y63.247
G2 X67.247 Y62.836 I-0.442 J0
G3 X66.975 Y62.422 I0.161 J-0.402
X67.975 Y61.45 I1 J0.028
G1 X70.425
G3 X71.425 Y62.45 I0 J1
G1 Y63.95
G3 X70.425 Y64.95 I-1 J0
G1 X67.975
G3 X66.975 Y63.95 I0 J-1
G1 Y62.45
Y62.422
G3 X67.51 Y62.18 I0.327 J0.009
G1 X68.64 Y63.117
X68.79 Y63.314
X68.804 Y63.341
X68.806 Y63.371
X68.798 Y63.4
X68.78 Y63.424
X68.755 Y63.439
X68.725 Y63.445
Z-2
X68.715
G3 X68.48 Y63.21 I0 J-0.235
G1 Y63.19
G3 X68.715 Y62.955 I0.235 J0
G1 X69.685
G3 X69.92 Y63.19 I0 J0.235
G1 Y63.21
G3 X69.685 Y63.445 I-0.235 J0
G1 X68.725
G2 X68.422 Y63.71 I0 J0.306
G3 X68.028 Y63.794 I-0.212 J-0.029
G1 X68.002 Y63.741
X67.985 Y63.684
X67.98 Y63.626
Y62.774
G3 X68.299 Y62.455 I0.319 J0
G1 X70.101
G3 X70.42 Y62.774 I0 J0.319
G1 Y63.626
G3 X70.101 Y63.945 I-0.319 J0
G1 X68.299
G3 X68.028 Y63.794 I0 J-0.319
G2 X67.738 Y63.556 I-0.496 J0.308
G3 X67.525 Y63.247 I0.117 J-0.309
G1 Y62.45
G3 X67.975 Y62 I0.45 J0
G1 X70.425
G3 X70.875 Y62.45 I0 J0.45
G1 Y63.95
G3 X70.425 Y64.4 I-0.45 J0
G1 X67.975
G3 X67.525 Y63.95 I0 J-0.45
G1 Y63.247
G2 X67.247 Y62.836 I-0.442 J0
G3 X66.975 Y62.422 I0.161 J-0.402
X67.975 Y61.45 I1 J0.028
G1 X70.425
G3 X71.425 Y62.45 I0 J1
G1 Y63.95
G3 X70.425 Y64.95 I-1 J0
G1 X67.975
G3 X66.975 Y63.95 I0 J-1
G1 Y62.45
Y62.422
Z15
(When using Fusion for Personal Use, the feedrate of rapid)
(moves is reduced to match the feedrate of cutting moves,)
(which can increase machining time. Unrestricted rapid moves)
(are available with a Fusion Subscription.)

(Slot1)
G0 X71.43 Y63.2
G1 Z15 F175
Z3
Z0.5
Z-2.1
X66.97
Z-3.1
X71.43
Z-4.1
X66.97
Z15
(When using Fusion for Personal Use, the feedrate of rapid)
(moves is reduced to match the feedrate of cutting moves,)
(which can increase machining time. Unrestricted rapid moves)
(are available with a Fusion Subscription.)

(2D Contour3)
G0 X115.186 Y0.5
G1 Z15 F175
Z5
Z0.2
Z-1
X96.471
Y4.6
X78.557
Y1
Y0.5
X59.843
Y4.6
X41.929
Y1
Y0.5
X23.214
Y4.6
X1
X0.5
Y26.7
X4.6
Y47.7
X1
X0.5
Y69.8
X23.214
Y73.4
Y73.9
X41.929
Y69.8
X59.843
Y73.4
Y73.9
X78.557
Y69.8
X96.471
Y73.4
Y73.9
X115.186
Y69.8
X137.4
X137.9
Y47.7
X133.8
Y26.7
X137.4
X137.9
Y4.6
X115.186
Y1
Y0.5
Z-2
X96.471
Y4.6
X78.557
Y1
Y0.5
X59.843
Y4.6
X41.929
Y1
Y0.5
X23.214
Y4.6
X1
X0.5
Y26.7
X4.6
Y47.7
X1
X0.5
Y69.8
X23.214
Y73.4
Y73.9
X41.929
Y69.8
X59.843
Y73.4
Y73.9
X78.557
Y69.8
X96.471
Y73.4
Y73.9
X115.186
Y69.8
X137.4
X137.9
Y47.7
X133.8
Y26.7
X137.4
X137.9
Y4.6
X115.186
Y1
Y0.5
Z-3
X96.471
Y4.6
X78.557
Y0.5
X69.769
Z-2.1
X67.769
Z-3
X59.843
Y4.6
X41.929
Y0.5
X23.214
Y4.6
X0.5
Y14.293
Z-2.1
Y16.293
Z-3
Y26.7
X4.6
Y47.7
X0.5
Y57.648
Z-2.1
Y59.648
Z-3
Y69.8
X23.214
Y73.9
X41.929
Y69.8
X59.843
Y73.9
X68.604
Z-2.1
X70.604
Z-3
X78.557
Y69.8
X96.471
Y73.9
X115.186
Y69.8
X137.9
Y59.674
Z-2.1
Y57.674
Z-3
Y47.7
X133.8
Y26.7
X137.9
Y14.882
Z-2.1
Y12.882
Z-3
Y4.6
X115.186
Y0.5
Z-3.55
X96.471
Y4.6
X78.557
Y0.5
X69.769
Z-2.1
X67.769
Z-3.55
X59.843
Y4.6
X41.929
Y0.5
X23.214
Y4.6
X0.5
Y14.293
Z-2.1
Y16.293
Z-3.55
Y26.7
X4.6
Y47.7
X0.5
Y57.648
Z-2.1
Y59.648
Z-3.55
Y69.8
X23.214
Y73.9
X41.929
Y69.8
X59.843
Y73.9
X68.604
Z-2.1
X70.604
Z-3.55
X78.557
Y69.8
X96.471
Y73.9
X115.186
Y69.8
X137.9
Y59.674
Z-2.1
Y57.674
Z-3.55
Y47.7
X133.8
Y26.7
X137.9
Y14.882
Z-2.1
Y12.882
Z-3.55
Y4.6
X115.186
Y0.5
Z-4.1
X96.471
Y4.6
X78.557
Y0.5
X69.769
Z-2.1
X67.769
Z-4.1
X59.843
Y4.6
X41.929
Y0.5
X23.214
Y4.6
X0.5
Y14.293
Z-2.1
Y16.293
Z-4.1
Y26.7
X4.6
Y47.7
X0.5
Y57.648
Z-2.1
Y59.648
Z-4.1
Y69.8
X23.214
Y73.9
X41.929
Y69.8
X59.843
Y73.9
X68.604
Z-2.1
X70.604
Z-4.1
X78.557
Y69.8
X96.471
Y73.9
X115.186
Y69.8
X137.9
Y59.674
Z-2.1
Y57.674
Z-4.1
Y47.7
X133.8
Y26.7
X137.9
Y14.882
Z-2.1
Y12.882
Z-4.1
Y4.6
X115.186
Y0.5
Z15

G28 G91 Z0
G90
G28 G91 X0 Y0
G90
M5
M30
