(EnclosureLeftRight)
G90 G94
G17
G21
(When using Fusion for Personal Use, the feedrate of rapid)
(moves is reduced to match the feedrate of cutting moves,)
(which can increase machining time. Unrestricted rapid moves)
(are available with a Fusion Subscription.)
G28 G91 Z0
G90

(2D Pocket3)
S1000 M3
G17 G90 G94
G54
G0 X4.742 Y0.895
Z15
G1 Z5 F175
Z0.2
Z-0.683
X4.758
X69.649
X69.693 Y0.9
X69.736 Y0.915
X69.774 Y0.939
X69.806 Y0.972
X69.83 Y1.01
X69.876 Y1.11
G3 X69.695 Y1.395 I-0.181 J0.085
G1 X4.711
G2 X4.511 Y1.595 I0 J0.2
G1 Y1.695
G2 X4.711 Y1.895 I0.2 J0
G1 X69.695
G3 X69.895 Y2.095 I0 J0.2
G1 Y2.195
G3 X69.695 Y2.395 I-0.2 J0
G1 X4.711
G2 X4.511 Y2.592 I0 J0.2
G1 X4.509 Y2.697
G2 X4.709 Y2.9 I0.2 J0.003
G1 X69.692
G2 X69.892 Y2.696 I0 J-0.2
G1 X69.86 Y1.091
G2 X69.66 Y0.895 I-0.2 J0.004
G1 Z-1.367
X69.649
X4.758
X4.713 Y0.9
X4.67 Y0.915
X4.632 Y0.939
X4.6 Y0.972
X4.577 Y1.01
X4.53 Y1.11
G2 X4.711 Y1.395 I0.181 J0.085
G1 X69.695
G3 X69.895 Y1.595 I0 J0.2
G1 Y1.695
G3 X69.695 Y1.895 I-0.2 J0
G1 X4.711
G2 X4.511 Y2.095 I0 J0.2
G1 Y2.195
G2 X4.711 Y2.395 I0.2 J0
G1 X69.695
G3 X69.895 Y2.602 I0 J0.2
G1 X69.891 Y2.707
G3 X69.692 Y2.9 I-0.2 J-0.007
G1 X5.1
X4.709
G3 X4.509 Y2.696 I0 J-0.2
G1 X4.542 Y1.091
G3 X4.742 Y0.895 I0.2 J0.004
G1 Z-2.05
X4.758
X69.649
X69.693 Y0.9
X69.736 Y0.915
X69.774 Y0.939
X69.806 Y0.972
X69.83 Y1.01
X69.876 Y1.11
G3 X69.695 Y1.395 I-0.181 J0.085
G1 X4.711
G2 X4.511 Y1.595 I0 J0.2
G1 Y1.695
G2 X4.711 Y1.895 I0.2 J0
G1 X69.695
G3 X69.895 Y2.095 I0 J0.2
G1 Y2.195
G3 X69.695 Y2.395 I-0.2 J0
G1 X4.711
G2 X4.511 Y2.592 I0 J0.2
G1 X4.509 Y2.697
G2 X4.709 Y2.9 I0.2 J0.003
G1 X69.692
Z15
(When using Fusion for Personal Use, the feedrate of rapid)
(moves is reduced to match the feedrate of cutting moves,)
(which can increase machining time. Unrestricted rapid moves)
(are available with a Fusion Subscription.)

(2D Contour7)
G0 X26.34 Y43.874
G1 Z15 F175
Z5
Z0.2
Z-1
X26.419 Y43.893
X26.5 Y43.9
X47.9
G2 X48.4 Y43.4 I0 J-0.5
G1 Y39.8
X69.3
G2 X69.8 Y39.3 I0 J-0.5
G1 Y26.733
X73.4
G2 X73.9 Y26.233 I0 J-0.5
G1 Y14.067
G2 X73.4 Y13.567 I-0.5 J0
G1 X69.8
Y1
G2 X69.3 Y0.5 I-0.5 J0
G1 X5.1
G2 X4.6 Y1 I0 J0.5
G1 Y13.567
X1
G2 X0.5 Y14.067 I0 J0.5
G1 Y26.233
G2 X1 Y26.733 I0.5 J0
G1 X4.6
Y39.3
G2 X5.1 Y39.8 I0.5 J0
G1 X26
Y43.4
G2 X26.34 Y43.874 I0.5 J0
G1 Z-2
X26.419 Y43.893
X26.5 Y43.9
X47.9
G2 X48.4 Y43.4 I0 J-0.5
G1 Y39.8
X69.3
G2 X69.8 Y39.3 I0 J-0.5
G1 Y26.733
X73.4
G2 X73.9 Y26.233 I0 J-0.5
G1 Y14.067
G2 X73.4 Y13.567 I-0.5 J0
G1 X69.8
Y1
G2 X69.3 Y0.5 I-0.5 J0
G1 X5.1
G2 X4.6 Y1 I0 J0.5
G1 Y13.567
X1
G2 X0.5 Y14.067 I0 J0.5
G1 Y26.233
G2 X1 Y26.733 I0.5 J0
G1 X4.6
Y39.3
G2 X5.1 Y39.8 I0.5 J0
G1 X26
Y43.4
G2 X26.34 Y43.874 I0.5 J0
G1 Z-3
X26.419 Y43.893
X26.5 Y43.9
X36.525
Z-2.1
X38.525
Z-3
X47.9
G2 X48.4 Y43.4 I0 J-0.5
G1 Y39.8
X69.3
G2 X69.8 Y39.3 I0 J-0.5
G1 Y26.733
X73.4
G2 X73.9 Y26.233 I0 J-0.5
G1 Y21.043
Z-2.1
Y19.043
Z-3
Y14.067
G2 X73.4 Y13.567 I-0.5 J0
G1 X69.8
Y1
G2 X69.3 Y0.5 I-0.5 J0
G1 X5.1
G2 X4.6 Y1 I0 J0.5
G1 Y13.567
X1
G2 X0.5 Y14.067 I0 J0.5
G1 Y18.746
Z-2.1
Y20.746
Z-3
Y26.233
G2 X1 Y26.733 I0.5 J0
G1 X4.6
Y39.3
G2 X5.1 Y39.8 I0.5 J0
G1 X26
Y43.4
G2 X26.34 Y43.874 I0.5 J0
G1 Z-3.55
X26.419 Y43.893
X26.5 Y43.9
X36.525
Z-2.1
X38.525
Z-3.55
X47.9
G2 X48.4 Y43.4 I0 J-0.5
G1 Y39.8
X69.3
G2 X69.8 Y39.3 I0 J-0.5
G1 Y26.733
X73.4
G2 X73.9 Y26.233 I0 J-0.5
G1 Y21.043
Z-2.1
Y19.043
Z-3.55
Y14.067
G2 X73.4 Y13.567 I-0.5 J0
G1 X69.8
Y1
G2 X69.3 Y0.5 I-0.5 J0
G1 X5.1
G2 X4.6 Y1 I0 J0.5
G1 Y13.567
X1
G2 X0.5 Y14.067 I0 J0.5
G1 Y18.746
Z-2.1
Y20.746
Z-3.55
Y26.233
G2 X1 Y26.733 I0.5 J0
G1 X4.6
Y39.3
G2 X5.1 Y39.8 I0.5 J0
G1 X26
Y43.4
G2 X26.34 Y43.874 I0.5 J0
G1 Z-4.1
X26.419 Y43.893
X26.5 Y43.9
X36.525
Z-2.1
X38.525
Z-4.1
X47.9
G2 X48.4 Y43.4 I0 J-0.5
G1 Y39.8
X69.3
G2 X69.8 Y39.3 I0 J-0.5
G1 Y26.733
X73.4
G2 X73.9 Y26.233 I0 J-0.5
G1 Y21.043
Z-2.1
Y19.043
Z-4.1
Y14.067
G2 X73.4 Y13.567 I-0.5 J0
G1 X69.8
Y1
G2 X69.3 Y0.5 I-0.5 J0
G1 X5.1
G2 X4.6 Y1 I0 J0.5
G1 Y13.567
X1
G2 X0.5 Y14.067 I0 J0.5
G1 Y18.746
Z-2.1
Y20.746
Z-4.1
Y26.233
G2 X1 Y26.733 I0.5 J0
G1 X4.6
Y39.3
G2 X5.1 Y39.8 I0.5 J0
G1 X26
Y43.4
G2 X26.34 Y43.874 I0.5 J0
G1 Z5
Z15

G28 G91 Z0
G90
G28 G91 X0 Y0
G90
M5
M30
