(LeftRight)
G90 G94
G17
G21
(When using Fusion for Personal Use, the feedrate of rapid)
(moves is reduced to match the feedrate of cutting moves,)
(which can increase machining time. Unrestricted rapid moves)
(are available with a Fusion Subscription.)
G28 G91 Z0
G90

(2D Pocket3)
S10000 M3
G17 G90 G94
G54
G0 X6.17 Y42.2
Z15
G1 Z5 F200
Z1
Z-0.825
G3 X6.365 Y42.005 I0.195 J0
G1 X68.52
X68.565 Y42.011
X68.607 Y42.028
X68.644 Y42.056
X68.672 Y42.093
X68.689 Y42.135
X68.695 Y42.18
Y42.22
X68.689 Y42.265
X68.672 Y42.307
X68.644 Y42.344
X68.607 Y42.372
X68.565 Y42.389
X68.52 Y42.395
X6.365
G3 X6.17 Y42.2 I0 J-0.195
G2 X5.96 Y41.877 I-0.354 J0
G3 X6.04 Y41.5 I0.08 J-0.18
G1 X69.2
Y42.9
X5.6
Y41.5
X6.04
X6.08 Y41.505
X6.117 Y41.521
X6.147 Y41.546
X6.171 Y41.579
X6.184 Y41.616
X6.301 Y42.168
X6.316 Y42.207
X6.341 Y42.241
X6.353 Y42.263
X6.35 Y42.289
X6.333 Y42.308
X6.309 Y42.315
X6.285 Y42.306
X6.17 Y42.2
Z-1.65
G3 X6.365 Y42.005 I0.195 J0
G1 X68.52
X68.565 Y42.011
X68.607 Y42.028
X68.644 Y42.056
X68.672 Y42.093
X68.689 Y42.135
X68.695 Y42.18
Y42.22
X68.689 Y42.265
X68.672 Y42.307
X68.644 Y42.344
X68.607 Y42.372
X68.565 Y42.389
X68.52 Y42.395
X6.365
G3 X6.17 Y42.2 I0 J-0.195
G2 X5.96 Y41.877 I-0.354 J0
G3 X6.04 Y41.5 I0.08 J-0.18
G1 X69.2
Y42.9
X5.6
Y41.5
X6.04
Z15
(When using Fusion for Personal Use, the feedrate of rapid)
(moves is reduced to match the feedrate of cutting moves,)
(which can increase machining time. Unrestricted rapid moves)
(are available with a Fusion Subscription.)

(2D Contour7)
G0 X48.567 Y0.5
G1 Z15 F200
Z5
Z0.2
Z-1.05
X26.233
Y4.6
X5.1
X4.6
Y17.467
X1
X0.5
Y31.033
X4.6
Y43.4
Y43.9
X70.2
Y31.033
X73.8
X74.3
Y17.467
X70.2
Y5.1
Y4.6
X48.567
Y1
Y0.5
Z-2.1
X26.233
Y4.6
X4.6
Y17.467
X0.5
Y31.033
X4.6
Y43.9
X70.2
Y31.033
X74.3
Y17.467
X70.2
Y4.6
X48.567
Y0.5
Z-3.15
X38.076
Z-2.1
X36.076
Z-3.15
X26.233
Y4.6
X4.6
Y17.467
X0.5
Y23.36
Z-2.1
Y25.36
Z-3.15
Y31.033
X4.6
Y43.9
X70.2
Y31.033
X74.3
Y25.668
Z-2.1
Y23.668
Z-3.15
Y17.467
X70.2
Y4.6
X48.567
Y0.5
Z-4.1
X38.076
Z-2.1
X36.076
Z-4.1
X26.233
Y4.6
X4.6
Y17.467
X0.5
Y23.36
Z-2.1
Y25.36
Z-4.1
Y31.033
X4.6
Y43.9
X70.2
Y31.033
X74.3
Y25.668
Z-2.1
Y23.668
Z-4.1
Y17.467
X70.2
Y4.6
X48.567
Y0.5
Z5
Z15

G28 G91 Z0
G90
G28 G91 X0 Y0
G90
M5
M30
