(Back)
G90 G94
G17
G21
(When using Fusion for Personal Use, the feedrate of rapid)
(moves is reduced to match the feedrate of cutting moves,)
(which can increase machining time. Unrestricted rapid moves)
(are available with a Fusion Subscription.)
G28 G91 Z0
G90

(PowerConnectorPocket)
S10000 M3
G17 G90 G94
G54
G0 X71.4 Y9.706
Z15
G1 Z1 F200
Z-0.775
X65.59
X65.553 Y9.699
X65.522 Y9.678
X65.501 Y9.647
X65.494 Y9.61
Y9.59
X65.501 Y9.553
X65.522 Y9.522
X65.553 Y9.501
X65.59 Y9.494
X71.41
X71.447 Y9.501
X71.478 Y9.522
X71.499 Y9.553
X71.506 Y9.59
Y9.61
X71.499 Y9.647
X71.478 Y9.678
X71.447 Y9.699
X71.41 Y9.706
X71.4
G2 X71.033 Y9.951 I0 J0.397
G3 X70.667 Y10.195 I-0.367 J-0.153
G1 X65.324
G3 X65.005 Y9.876 I0 J-0.319
G1 Y9.324
G3 X65.324 Y9.005 I0.319 J0
G1 X71.676
G3 X71.995 Y9.324 I0 J0.319
G1 Y9.876
G3 X71.676 Y10.195 I-0.319 J0
G1 X70.667
G2 X70.326 Y10.422 I0 J0.37
G3 X69.984 Y10.65 I-0.341 J-0.142
G1 X65
G3 X64.55 Y10.2 I0 J-0.45
G1 Y9
G3 X65 Y8.55 I0.45 J0
G1 X72
G3 X72.45 Y9 I0 J0.45
G1 Y10.2
G3 X72 Y10.65 I-0.45 J0
G1 X69.984
G2 X69.609 Y10.9 I0 J0.406
G3 X69.234 Y11.15 I-0.375 J-0.156
G1 X65
G3 X64.08 Y10.272 I0 J-0.921
X64.05 Y9 I27.195 J-1.272
X65 Y8.05 I0.95 J0
G1 X72
G3 X72.92 Y8.928 I0 J0.921
X72.95 Y10.2 I-27.195 J1.272
X72 Y11.15 I-0.95 J0
G1 X69.234
G2 X68.859 Y11.4 I0 J0.406
G3 X68.484 Y11.65 I-0.375 J-0.156
G1 X65
G3 X63.55 Y10.2 I0 J-1.45
G1 Y9
G3 X65 Y7.55 I1.45 J0
G1 X72
G3 X73.45 Y9 I0 J1.45
G1 Y10.2
G3 X72 Y11.65 I-1.45 J0
G1 X68.484
G2 X68.109 Y11.9 I0 J0.406
G3 X67.734 Y12.15 I-0.375 J-0.156
G1 X65
G3 X63.05 Y10.2 I0 J-1.95
G1 Y9
G3 X65 Y7.05 I1.95 J0
G1 X72
G3 X73.95 Y9 I0 J1.95
G1 Y10.2
G3 X72 Y12.15 I-1.95 J0
G1 X67.734
G2 X67.359 Y12.4 I0 J0.406
G3 X66.984 Y12.65 I-0.375 J-0.156
G1 X65
G3 X62.55 Y10.2 I0 J-2.45
G1 Y9
G3 X65 Y6.55 I2.45 J0
G1 X72
G3 X74.45 Y9 I0 J2.45
G1 Y10.2
G3 X72 Y12.65 I-2.45 J0
G1 X66.984
G2 X66.572 Y12.925 I0 J0.447
G3 X66.159 Y13.2 I-0.412 J-0.172
G1 X65
G3 X62 Y10.2 I0 J-3
G1 Y9
G3 X65 Y6 I3 J0
G1 X72
G3 X75 Y9 I0 J3
G1 Y10.2
G3 X72 Y13.2 I-3 J0
G1 X66.159
G3 X66.069 Y12.821 I0 J-0.2
G1 X71.49 Y10.085
G2 X71.4 Y9.706 I-0.09 J-0.179
G1 Z-1.55
X65.59
X65.553 Y9.699
X65.522 Y9.678
X65.501 Y9.647
X65.494 Y9.61
Y9.59
X65.501 Y9.553
X65.522 Y9.522
X65.553 Y9.501
X65.59 Y9.494
X71.41
X71.447 Y9.501
X71.478 Y9.522
X71.499 Y9.553
X71.506 Y9.59
Y9.61
X71.499 Y9.647
X71.478 Y9.678
X71.447 Y9.699
X71.41 Y9.706
X71.4
G2 X71.033 Y9.951 I0 J0.397
G3 X70.667 Y10.195 I-0.367 J-0.153
G1 X65.324
G3 X65.005 Y9.876 I0 J-0.319
G1 Y9.324
G3 X65.324 Y9.005 I0.319 J0
G1 X71.676
G3 X71.995 Y9.324 I0 J0.319
G1 Y9.876
G3 X71.676 Y10.195 I-0.319 J0
G1 X70.667
G2 X70.326 Y10.422 I0 J0.37
G3 X69.984 Y10.65 I-0.341 J-0.142
G1 X65
G3 X64.55 Y10.2 I0 J-0.45
G1 Y9
G3 X65 Y8.55 I0.45 J0
G1 X72
G3 X72.45 Y9 I0 J0.45
G1 Y10.2
G3 X72 Y10.65 I-0.45 J0
G1 X69.984
G2 X69.609 Y10.9 I0 J0.406
G3 X69.234 Y11.15 I-0.375 J-0.156
G1 X65
G3 X64.08 Y10.272 I0 J-0.921
X64.05 Y9 I27.195 J-1.272
X65 Y8.05 I0.95 J0
G1 X72
G3 X72.92 Y8.928 I0 J0.921
X72.95 Y10.2 I-27.195 J1.272
X72 Y11.15 I-0.95 J0
G1 X69.234
G2 X68.859 Y11.4 I0 J0.406
G3 X68.484 Y11.65 I-0.375 J-0.156
G1 X65
G3 X63.55 Y10.2 I0 J-1.45
G1 Y9
G3 X65 Y7.55 I1.45 J0
G1 X72
G3 X73.45 Y9 I0 J1.45
G1 Y10.2
G3 X72 Y11.65 I-1.45 J0
G1 X68.484
G2 X68.109 Y11.9 I0 J0.406
G3 X67.734 Y12.15 I-0.375 J-0.156
G1 X65
G3 X63.05 Y10.2 I0 J-1.95
G1 Y9
G3 X65 Y7.05 I1.95 J0
G1 X72
G3 X73.95 Y9 I0 J1.95
G1 Y10.2
G3 X72 Y12.15 I-1.95 J0
G1 X67.734
G2 X67.359 Y12.4 I0 J0.406
G3 X66.984 Y12.65 I-0.375 J-0.156
G1 X65
G3 X62.55 Y10.2 I0 J-2.45
G1 Y9
G3 X65 Y6.55 I2.45 J0
G1 X72
G3 X74.45 Y9 I0 J2.45
G1 Y10.2
G3 X72 Y12.65 I-2.45 J0
G1 X66.984
G2 X66.572 Y12.925 I0 J0.447
G3 X66.159 Y13.2 I-0.412 J-0.172
G1 X65
G3 X62 Y10.2 I0 J-3
G1 Y9
G3 X65 Y6 I3 J0
G1 X72
G3 X75 Y9 I0 J3
G1 Y10.2
G3 X72 Y13.2 I-3 J0
G1 X66.159
Z15
(When using Fusion for Personal Use, the feedrate of rapid)
(moves is reduced to match the feedrate of cutting moves,)
(which can increase machining time. Unrestricted rapid moves)
(are available with a Fusion Subscription.)

(PowerConnectorHole)
G0 X65.6 Y8
G1 Z15 F200
Z3.45
Z-1.35
Z-2.6
X72
G3 X73 Y9 I0 J1
G1 Y10.2
G3 X72 Y11.2 I-1 J0
G1 X65
G3 X64 Y10.2 I0 J-1
G1 Y9
G3 X65 Y8 I1 J0
G1 X65.6
Z-3.1
X72
G3 X73 Y9 I0 J1
G1 Y10.2
G3 X72 Y11.2 I-1 J0
G1 X65
G3 X64 Y10.2 I0 J-1
G1 Y9
G3 X65 Y8 I1 J0
G1 X65.6
Z15
(When using Fusion for Personal Use, the feedrate of rapid)
(moves is reduced to match the feedrate of cutting moves,)
(which can increase machining time. Unrestricted rapid moves)
(are available with a Fusion Subscription.)

(LightSensorPocket)
G0 X68.899 Y61.881
G1 Z15 F200
Z2.05
Z-0.95
X68.891 Y61.892 Z-1
X68.863 Y61.915 Z-1.037
X68.839 Y61.924 Z-1.043
X68.815 Y61.927 Z-1.05
X68.167
X68.131 Y61.921
X68.1 Y61.902
X68.076 Y61.875
X68.064 Y61.84
X68.06 Y61.818
Y61.782
X68.064 Y61.76
X68.076 Y61.725
X68.1 Y61.698
X68.131 Y61.679
X68.167 Y61.673
X68.833
X68.869 Y61.679
X68.9 Y61.698
X68.924 Y61.725
X68.936 Y61.76
X68.94 Y61.782
Y61.818
X68.936 Y61.84
X68.924 Y61.875
X68.9 Y61.902
X68.869 Y61.921
X68.833 Y61.927
X68.815
G2 X68.412 Y62.2 I0 J0.434
G3 X68.005 Y62.467 I-0.395 J-0.158
X67.625 Y62.24 I0.013 J-0.452
G1 X67.609 Y62.211
X67.575 Y62.14
X67.555 Y62.064
X67.527 Y61.906
X67.518 Y61.836
Y61.764
X67.527 Y61.694
X67.555 Y61.536
X67.575 Y61.46
X67.609 Y61.389
X67.625 Y61.36
G3 X68.018 Y61.133 I0.392 J0.226
G1 X68.982
G3 X69.375 Y61.36 I0 J0.453
G1 X69.391 Y61.389
X69.425 Y61.46
X69.445 Y61.536
X69.473 Y61.694
X69.482 Y61.764
Y61.836
X69.473 Y61.906
X69.445 Y62.064
X69.425 Y62.14
X69.391 Y62.211
X69.375 Y62.24
G3 X68.982 Y62.467 I-0.392 J-0.226
G1 X68.018
X68.005
G2 X67.672 Y62.681 I-0.01 J0.349
G3 X67.278 Y62.717 I-0.207 J-0.086
G1 X67.261 Y62.689
X67.124 Y62.453
G3 X67.029 Y62.191 I0.699 J-0.403
G1 X66.993 Y61.989
G3 X66.993 Y61.611 I1.06 J-0.189
G1 X67.029 Y61.409
G3 X67.124 Y61.147 I0.794 J0.142
G1 X67.261 Y60.911
X67.299 Y60.853
X67.343 Y60.8
X67.393 Y60.753
X67.411 Y60.737
G3 X67.803 Y60.593 I0.392 J0.46
G1 X69.197
G3 X69.589 Y60.737 I0 J0.604
G1 X69.607 Y60.753
X69.657 Y60.8
X69.701 Y60.853
X69.739 Y60.911
X69.876 Y61.147
G3 X69.971 Y61.409 I-0.699 J0.403
G1 X70.007 Y61.611
G3 X70.007 Y61.989 I-1.06 J0.189
G1 X69.971 Y62.191
G3 X69.876 Y62.453 I-0.794 J-0.142
G1 X69.739 Y62.689
X69.701 Y62.747
X69.657 Y62.8
X69.607 Y62.847
X69.589 Y62.863
G3 X69.197 Y63.007 I-0.392 J-0.46
G1 X67.803
G3 X67.411 Y62.863 I0 J-0.604
G1 X67.393 Y62.847
X67.331 Y62.786
X67.278 Y62.717
G2 X66.863 Y62.537 I-0.344 J0.224
G3 X66.493 Y62.278 I-0.055 J-0.315
G1 X66.408 Y61.8
X66.536 Y61.081
X66.89 Y60.468
X67.38 Y60.05
X69.62
X70.11 Y60.468
X70.464 Y61.081
X70.592 Y61.8
X70.464 Y62.519
X70.11 Y63.132
X69.62 Y63.55
X67.38
X66.89 Y63.132
X66.536 Y62.519
X66.493 Y62.278
X66.494 Y62.256
X66.504 Y62.237
X66.521 Y62.224
X66.542 Y62.219
X66.823
X68.822 Y61.866
X68.886 Y61.86
X68.895 Y61.862
X68.901 Y61.871
X68.899 Y61.881
Z-1.45
X68.891 Y61.892 Z-1.5
X68.863 Y61.915 Z-1.537
X68.839 Y61.924 Z-1.543
X68.815 Y61.927 Z-1.55
X68.167
X68.131 Y61.921
X68.1 Y61.902
X68.076 Y61.875
X68.064 Y61.84
X68.06 Y61.818
Y61.782
X68.064 Y61.76
X68.076 Y61.725
X68.1 Y61.698
X68.131 Y61.679
X68.167 Y61.673
X68.833
X68.869 Y61.679
X68.9 Y61.698
X68.924 Y61.725
X68.936 Y61.76
X68.94 Y61.782
Y61.818
X68.936 Y61.84
X68.924 Y61.875
X68.9 Y61.902
X68.869 Y61.921
X68.833 Y61.927
X68.815
G2 X68.412 Y62.2 I0 J0.434
G3 X68.005 Y62.467 I-0.395 J-0.158
X67.625 Y62.24 I0.013 J-0.452
G1 X67.609 Y62.211
X67.575 Y62.14
X67.555 Y62.064
X67.527 Y61.906
X67.518 Y61.836
Y61.764
X67.527 Y61.694
X67.555 Y61.536
X67.575 Y61.46
X67.609 Y61.389
X67.625 Y61.36
G3 X68.018 Y61.133 I0.392 J0.226
G1 X68.982
G3 X69.375 Y61.36 I0 J0.453
G1 X69.391 Y61.389
X69.425 Y61.46
X69.445 Y61.536
X69.473 Y61.694
X69.482 Y61.764
Y61.836
X69.473 Y61.906
X69.445 Y62.064
X69.425 Y62.14
X69.391 Y62.211
X69.375 Y62.24
G3 X68.982 Y62.467 I-0.392 J-0.226
G1 X68.018
X68.005
G2 X67.672 Y62.681 I-0.01 J0.349
G3 X67.278 Y62.717 I-0.207 J-0.086
G1 X67.261 Y62.689
X67.124 Y62.453
G3 X67.029 Y62.191 I0.699 J-0.403
G1 X66.993 Y61.989
G3 X66.993 Y61.611 I1.06 J-0.189
G1 X67.029 Y61.409
G3 X67.124 Y61.147 I0.794 J0.142
G1 X67.261 Y60.911
X67.299 Y60.853
X67.343 Y60.8
X67.393 Y60.753
X67.411 Y60.737
G3 X67.803 Y60.593 I0.392 J0.46
G1 X69.197
G3 X69.589 Y60.737 I0 J0.604
G1 X69.607 Y60.753
X69.657 Y60.8
X69.701 Y60.853
X69.739 Y60.911
X69.876 Y61.147
G3 X69.971 Y61.409 I-0.699 J0.403
G1 X70.007 Y61.611
G3 X70.007 Y61.989 I-1.06 J0.189
G1 X69.971 Y62.191
G3 X69.876 Y62.453 I-0.794 J-0.142
G1 X69.739 Y62.689
X69.701 Y62.747
X69.657 Y62.8
X69.607 Y62.847
X69.589 Y62.863
G3 X69.197 Y63.007 I-0.392 J-0.46
G1 X67.803
G3 X67.411 Y62.863 I0 J-0.604
G1 X67.393 Y62.847
X67.331 Y62.786
X67.278 Y62.717
G2 X66.863 Y62.537 I-0.344 J0.224
G3 X66.493 Y62.278 I-0.055 J-0.315
G1 X66.408 Y61.8
X66.536 Y61.081
X66.89 Y60.468
X67.38 Y60.05
X69.62
X70.11 Y60.468
X70.464 Y61.081
X70.592 Y61.8
X70.464 Y62.519
X70.11 Y63.132
X69.62 Y63.55
X67.38
X66.89 Y63.132
X66.536 Y62.519
X66.493 Y62.278
X66.494 Y62.256
X66.504 Y62.237
X66.521 Y62.224
X66.542 Y62.219
X66.823
X68.822 Y61.866
X68.886 Y61.86
X68.895 Y61.862
X68.901 Y61.871
X68.899 Y61.881
Z-1.9
X68.891 Y61.892 Z-1.95
X68.863 Y61.915 Z-1.987
X68.839 Y61.924 Z-1.993
X68.815 Y61.927 Z-2
X68.167
X68.131 Y61.921
X68.1 Y61.902
X68.076 Y61.875
X68.064 Y61.84
X68.06 Y61.818
Y61.782
X68.064 Y61.76
X68.076 Y61.725
X68.1 Y61.698
X68.131 Y61.679
X68.167 Y61.673
X68.833
X68.869 Y61.679
X68.9 Y61.698
X68.924 Y61.725
X68.936 Y61.76
X68.94 Y61.782
Y61.818
X68.936 Y61.84
X68.924 Y61.875
X68.9 Y61.902
X68.869 Y61.921
X68.833 Y61.927
X68.815
G2 X68.412 Y62.2 I0 J0.434
G3 X68.005 Y62.467 I-0.395 J-0.158
X67.625 Y62.24 I0.013 J-0.452
G1 X67.609 Y62.211
X67.575 Y62.14
X67.555 Y62.064
X67.527 Y61.906
X67.518 Y61.836
Y61.764
X67.527 Y61.694
X67.555 Y61.536
X67.575 Y61.46
X67.609 Y61.389
X67.625 Y61.36
G3 X68.018 Y61.133 I0.392 J0.226
G1 X68.982
G3 X69.375 Y61.36 I0 J0.453
G1 X69.391 Y61.389
X69.425 Y61.46
X69.445 Y61.536
X69.473 Y61.694
X69.482 Y61.764
Y61.836
X69.473 Y61.906
X69.445 Y62.064
X69.425 Y62.14
X69.391 Y62.211
X69.375 Y62.24
G3 X68.982 Y62.467 I-0.392 J-0.226
G1 X68.018
X68.005
G2 X67.672 Y62.681 I-0.01 J0.349
G3 X67.278 Y62.717 I-0.207 J-0.086
G1 X67.261 Y62.689
X67.124 Y62.453
G3 X67.029 Y62.191 I0.699 J-0.403
G1 X66.993 Y61.989
G3 X66.993 Y61.611 I1.06 J-0.189
G1 X67.029 Y61.409
G3 X67.124 Y61.147 I0.794 J0.142
G1 X67.261 Y60.911
X67.299 Y60.853
X67.343 Y60.8
X67.393 Y60.753
X67.411 Y60.737
G3 X67.803 Y60.593 I0.392 J0.46
G1 X69.197
G3 X69.589 Y60.737 I0 J0.604
G1 X69.607 Y60.753
X69.657 Y60.8
X69.701 Y60.853
X69.739 Y60.911
X69.876 Y61.147
G3 X69.971 Y61.409 I-0.699 J0.403
G1 X70.007 Y61.611
G3 X70.007 Y61.989 I-1.06 J0.189
G1 X69.971 Y62.191
G3 X69.876 Y62.453 I-0.794 J-0.142
G1 X69.739 Y62.689
X69.701 Y62.747
X69.657 Y62.8
X69.607 Y62.847
X69.589 Y62.863
G3 X69.197 Y63.007 I-0.392 J-0.46
G1 X67.803
G3 X67.411 Y62.863 I0 J-0.604
G1 X67.393 Y62.847
X67.331 Y62.786
X67.278 Y62.717
G2 X66.863 Y62.537 I-0.344 J0.224
G3 X66.493 Y62.278 I-0.055 J-0.315
G1 X66.408 Y61.8
X66.536 Y61.081
X66.89 Y60.468
X67.38 Y60.05
X69.62
X70.11 Y60.468
X70.464 Y61.081
X70.592 Y61.8
X70.464 Y62.519
X70.11 Y63.132
X69.62 Y63.55
X67.38
X66.89 Y63.132
X66.536 Y62.519
X66.493 Y62.278
Y62.263
X66.497 Y62.248
X66.624 Y61.969
X66.628 Y61.95
X66.625 Y61.931
X66.615 Y61.914
X66.577 Y61.873
X66.553 Y61.867
X66.537 Y61.854
X66.532 Y61.835
X66.539 Y61.816
X66.555 Y61.804
X66.575
X66.592 Y61.816
X66.599 Y61.835
X66.593 Y61.854
Z-2.45
X66.585 Y61.865 Z-2.5
X66.557 Y61.888 Z-2.537
X66.534 Y61.897 Z-2.543
X66.509 Y61.9 Z-2.55
X66.425
X66.408 Y61.8
X66.425 Y61.7
X70.575
X70.592 Y61.8
X70.575 Y61.9
X66.509
X66.538 Y61.852
X66.593 Y61.854
Z-3
X66.585 Y61.865 Z-3.05
X66.557 Y61.888 Z-3.087
X66.534 Y61.897 Z-3.093
X66.509 Y61.9 Z-3.1
X66.425
X66.408 Y61.8
X66.425 Y61.7
X70.575
X70.592 Y61.8
X70.575 Y61.9
X66.509
X66.485 Y61.896 Z-3.093
X66.462 Y61.886 Z-3.087
X66.435 Y61.862 Z-3.05
X66.427 Y61.851 Z-3
Z15
(When using Fusion for Personal Use, the feedrate of rapid)
(moves is reduced to match the feedrate of cutting moves,)
(which can increase machining time. Unrestricted rapid moves)
(are available with a Fusion Subscription.)

(LightSensorHole)
G0 X66.5 Y61.7
G1 Z15 F200
Z5
Z0.2
Z-1.05
X70.598
X70.6 Y61.8
X70.598 Y61.9
X66.402
X66.4 Y61.8
X66.402 Y61.7
X66.5
Z-2.1
X70.598
X70.6 Y61.8
X70.598 Y61.9
X66.402
X66.4 Y61.8
X66.402 Y61.7
X66.5
Z-3.1
X70.598
X70.6 Y61.8
X70.598 Y61.9
X66.402
X66.4 Y61.8
X66.402 Y61.7
X66.5
Z15
(When using Fusion for Personal Use, the feedrate of rapid)
(moves is reduced to match the feedrate of cutting moves,)
(which can increase machining time. Unrestricted rapid moves)
(are available with a Fusion Subscription.)

(ScrewHoles)
G0 X104 Y65.6
G1 Z15 F200
Z5
Z0.2
Z-1.05
G3 X103 Y65.6 I-0.5 J0
X104 Y65.6 I0.5 J0
G1 Z-2.1
G3 X103 Y65.6 I-0.5 J0
X104 Y65.6 I0.5 J0
G1 Z-3.1
G3 X103 Y65.6 I-0.5 J0
X104 Y65.6 I0.5 J0
G1 Z5
Y7.4
Z0.2
Z-1.05
G3 X103 Y7.4 I-0.5 J0
X104 Y7.4 I0.5 J0
G1 Z-2.1
G3 X103 Y7.4 I-0.5 J0
X104 Y7.4 I0.5 J0
G1 Z-3.1
G3 X103 Y7.4 I-0.5 J0
X104 Y7.4 I0.5 J0
G1 Z5
X34
Z0.2
Z-1.05
G3 X33 Y7.4 I-0.5 J0
X34 Y7.4 I0.5 J0
G1 Z-2.1
G3 X33 Y7.4 I-0.5 J0
X34 Y7.4 I0.5 J0
G1 Z-3.1
G3 X33 Y7.4 I-0.5 J0
X34 Y7.4 I0.5 J0
G1 Z5
Y65.6
Z0.2
Z-1.05
G3 X33 Y65.6 I-0.5 J0
X34 Y65.6 I0.5 J0
G1 Z-2.1
G3 X33 Y65.6 I-0.5 J0
X34 Y65.6 I0.5 J0
G1 Z-3.1
G3 X33 Y65.6 I-0.5 J0
X34 Y65.6 I0.5 J0
G1 Z15
(When using Fusion for Personal Use, the feedrate of rapid)
(moves is reduced to match the feedrate of cutting moves,)
(which can increase machining time. Unrestricted rapid moves)
(are available with a Fusion Subscription.)

(Outline)
G0 X109.4 Y0.5
G1 Z15 F200
Z5
Z0.2
Z-1.05
X81.6
Y3.6
X55.4
Y1
Y0.5
X27.6
Y3.6
X1
X0.5
Y26.133
X3.6
Y46.667
X1
X0.5
Y69.2
X27.6
Y71.8
Y72.3
X55.4
Y69.2
X81.6
Y71.8
Y72.3
X109.4
Y69.2
X136
X136.5
Y46.667
X133.4
Y26.133
X136
X136.5
Y3.6
X109.4
Y1
Y0.5
Z-2.1
X81.6
Y3.6
X67.725
Z-1.1
X65.725
Z-2.1
X55.4
Y0.5
X27.6
Y3.6
X16.948
Z-1.1
X14.948
Z-2.1
X0.5
Y26.133
X3.6
Y35.673
Z-1.1
Y37.673
Z-2.1
Y46.667
X0.5
Y69.2
X14.788
Z-1.1
X16.788
Z-2.1
X27.6
Y72.3
X55.4
Y69.2
X68.474
Z-1.1
X70.474
Z-2.1
X81.6
Y72.3
X109.4
Y69.2
X120.552
Z-1.1
X122.552
Z-2.1
X136.5
Y46.667
X133.4
Y37.444
Z-1.1
Y35.444
Z-2.1
Y26.133
X136.5
Y3.6
X121.374
Z-1.1
X119.374
Z-2.1
X109.4
Y0.5
Z-3.1
X81.6
Y3.6
X67.725
Z-1.1
X65.725
Z-3.1
X55.4
Y0.5
X27.6
Y3.6
X16.948
Z-1.1
X14.948
Z-3.1
X0.5
Y26.133
X3.6
Y35.673
Z-1.1
Y37.673
Z-3.1
Y46.667
X0.5
Y69.2
X14.788
Z-1.1
X16.788
Z-3.1
X27.6
Y72.3
X55.4
Y69.2
X68.474
Z-1.1
X70.474
Z-3.1
X81.6
Y72.3
X109.4
Y69.2
X120.552
Z-1.1
X122.552
Z-3.1
X136.5
Y46.667
X133.4
Y37.444
Z-1.1
Y35.444
Z-3.1
Y26.133
X136.5
Y3.6
X121.374
Z-1.1
X119.374
Z-3.1
X109.4
Y0.5
Z15

G28 G91 Z0
G90
G28 G91 X0 Y0
G90
M5
M30
