(Front)
G90 G94
G17
G21
(When using Fusion for Personal Use, the feedrate of rapid)
(moves is reduced to match the feedrate of cutting moves,)
(which can increase machining time. Unrestricted rapid moves)
(are available with a Fusion Subscription.)
G28 G91 Z0
G90

(2D Contour10)
S10000 M3
G17 G90 G94
G54
G0 X2 Y67.2
Z15
G1 Z5 F200
Z0.2 F100
Z-0.42
X129.9 F200
G2 X131.4 Y65.7 I0 J-1.5
G1 Y2
G2 X129.9 Y0.5 I-1.5 J0
G1 X2
G2 X0.5 Y2 I0 J1.5
G1 Y65.7
G2 X2 Y67.2 I1.5 J0
G1 Z-0.84 F100
X129.9 F200
G2 X131.4 Y65.7 I0 J-1.5
G1 Y2
G2 X129.9 Y0.5 I-1.5 J0
G1 X2
G2 X0.5 Y2 I0 J1.5
G1 Y65.7
G2 X2 Y67.2 I1.5 J0
G1 Z-1.26 F100
X33.457 F200
Z-1.1
X35.457
Z-1.26 F100
X98.371 F200
Z-1.1
X100.371
Z-1.26 F100
X129.9 F200
G2 X131.4 Y65.7 I0 J-1.5
G1 Y33.886
Z-1.1
Y31.886
Z-1.26 F100
Y2 F200
G2 X129.9 Y0.5 I-1.5 J0
G1 X98.443
Z-1.1
X96.443
Z-1.26 F100
X33.529 F200
Z-1.1
X31.529
Z-1.26 F100
X2 F200
G2 X0.5 Y2 I0 J1.5
G1 Y33.814
Z-1.1
Y35.814
Z-1.26 F100
Y65.7 F200
G2 X2 Y67.2 I1.5 J0
G1 Z-1.68 F100
X33.457 F200
Z-1.1
X35.457
Z-1.68 F100
X98.371 F200
Z-1.1
X100.371
Z-1.68 F100
X129.9 F200
G2 X131.4 Y65.7 I0 J-1.5
G1 Y33.886
Z-1.1
Y31.886
Z-1.68 F100
Y2 F200
G2 X129.9 Y0.5 I-1.5 J0
G1 X98.443
Z-1.1
X96.443
Z-1.68 F100
X33.529 F200
Z-1.1
X31.529
Z-1.68 F100
X2 F200
G2 X0.5 Y2 I0 J1.5
G1 Y33.814
Z-1.1
Y35.814
Z-1.68 F100
Y65.7 F200
G2 X2 Y67.2 I1.5 J0
G1 Z-2.1 F100
X33.457 F200
Z-1.1
X35.457
Z-2.1 F100
X98.371 F200
Z-1.1
X100.371
Z-2.1 F100
X129.9 F200
G2 X131.4 Y65.7 I0 J-1.5
G1 Y33.886
Z-1.1
Y31.886
Z-2.1 F100
Y2 F200
G2 X129.9 Y0.5 I-1.5 J0
G1 X98.443
Z-1.1
X96.443
Z-2.1 F100
X33.529 F200
Z-1.1
X31.529
Z-2.1 F100
X2 F200
G2 X0.5 Y2 I0 J1.5
G1 Y33.814
Z-1.1
Y35.814
Z-2.1 F100
Y65.7 F200
G2 X2 Y67.2 I1.5 J0
G1 Z15

G28 G91 Z0
G90
G28 G91 X0 Y0
G90
M5
M30
