(TopBottom)
G90 G94
G17
G21
(When using Fusion for Personal Use, the feedrate of rapid)
(moves is reduced to match the feedrate of cutting moves,)
(which can increase machining time. Unrestricted rapid moves)
(are available with a Fusion Subscription.)
G28 G91 Z0
G90

(2D Pocket2)
S10000 M3
G17 G90 G94
G54
G0 X5.056 Y42.802
Z15
G1 Z5 F200
Z0.2
Z-0.775
Y42.797
G3 X5.374 Y42.505 I0.318 J0.027
G1 X131.626
G3 X131.943 Y42.792 I0 J0.319
G1 X131.955 Y42.842
X131.978 Y42.887
X132.012 Y42.924
X132.055 Y42.952
X132.103 Y42.968
X132.205 Y42.989
G2 X132.445 Y42.793 I0.04 J-0.196
G1 Y42.324
G2 X132.126 Y42.005 I-0.319 J0
G1 X4.874
G2 X4.555 Y42.324 I0 J0.319
G1 Y42.797
G3 X4.355 Y42.997 I-0.2 J0
G1 X4.255
G3 X4.055 Y42.797 I0 J-0.2
G1 Y41.824
G3 X4.374 Y41.505 I0.319 J0
G1 X132.626
G3 X132.945 Y41.824 I0 J0.319
G1 Y42.793
G2 X133.145 Y42.993 I0.2 J0
G1 X133.245
G2 X133.445 Y42.793 I0 J-0.2
G1 Y41.324
G2 X133.126 Y41.005 I-0.319 J0
G1 X3.874
G2 X3.555 Y41.324 I0 J0.319
G1 Y42.797
G3 X3.352 Y42.997 I-0.2 J0
G1 X3.247 Y42.996
G3 X3.05 Y42.796 I0.003 J-0.2
G1 Y40.5
X133.95
Y42.4
Y42.791
G3 X133.749 Y42.991 I-0.2 J0
G1 X132.142 Y42.982
G3 X131.944 Y42.802 I0.001 J-0.2
G1 Z-1.55
X131.943 Y42.792
G2 X131.626 Y42.505 I-0.318 J0.032
G1 X5.374
G2 X5.056 Y42.797 I0 J0.319
G1 X5.045 Y42.848
X5.02 Y42.895
X4.985 Y42.934
X4.94 Y42.962
X4.89 Y42.977
X4.788 Y42.994
G3 X4.555 Y42.797 I-0.033 J-0.197
G1 Y42.324
G3 X4.874 Y42.005 I0.319 J0
G1 X132.126
G3 X132.445 Y42.324 I0 J0.319
G1 Y42.793
G2 X132.645 Y42.993 I0.2 J0
G1 X132.745
G2 X132.945 Y42.793 I0 J-0.2
G1 Y41.824
G2 X132.626 Y41.505 I-0.319 J0
G1 X4.374
G2 X4.055 Y41.824 I0 J0.319
G1 Y42.797
G3 X3.855 Y42.997 I-0.2 J0
G1 X3.755
G3 X3.555 Y42.797 I0 J-0.2
G1 Y41.324
G3 X3.874 Y41.005 I0.319 J0
G1 X133.126
G3 X133.445 Y41.324 I0 J0.319
G1 Y42.793
G2 X133.65 Y42.993 I0.2 J0
G1 X133.755 Y42.991
G2 X133.95 Y42.791 I-0.005 J-0.2
G1 Y40.5
X3.05
Y42.4
Y42.796
Z15
(When using Fusion for Personal Use, the feedrate of rapid)
(moves is reduced to match the feedrate of cutting moves,)
(which can increase machining time. Unrestricted rapid moves)
(are available with a Fusion Subscription.)

(2D Contour4)
G0 X1 Y42.9
G1 Z15 F200
Z5
Z0.2
Z-1.05
X136
X136.5
Y28.1
X133.4
Y15.3
X136
X136.5
Y0.5
X108.5
Y3.6
X82.5
Y1
Y0.5
X54.5
Y3.6
X28.5
Y1
Y0.5
X0.5
Y15.3
X3.6
Y28.1
X1
X0.5
Y42.9
X1
Z-2.1
X136.5
Y28.1
X133.4
Y22.711
Z-1.1
Y20.711
Z-2.1
Y15.3
X136.5
Y0.5
X108.5
Y3.6
X96.138
Z-1.1
X94.138
Z-2.1
X82.5
Y0.5
X54.5
Y3.6
X41.951
Z-1.1
X39.951
Z-2.1
X28.5
Y0.5
X0.5
Y15.3
X3.6
Y20.007
Z-1.1
Y22.007
Z-2.1
Y28.1
X0.5
Y42.9
X1
Z-3.1
X136.5
Y28.1
X133.4
Y22.711
Z-1.1
Y20.711
Z-3.1
Y15.3
X136.5
Y0.5
X108.5
Y3.6
X96.138
Z-1.1
X94.138
Z-3.1
X82.5
Y0.5
X54.5
Y3.6
X41.951
Z-1.1
X39.951
Z-3.1
X28.5
Y0.5
X0.5
Y15.3
X3.6
Y20.007
Z-1.1
Y22.007
Z-3.1
Y28.1
X0.5
Y42.9
X1
Z15

G28 G91 Z0
G90
G28 G91 X0 Y0
G90
M5
M30
