(TopBottom)
G90 G94
G17
G21
(When using Fusion for Personal Use, the feedrate of rapid)
(moves is reduced to match the feedrate of cutting moves,)
(which can increase machining time. Unrestricted rapid moves)
(are available with a Fusion Subscription.)
G28 G91 Z0
G90

(2D Pocket2)
S10000 M3
G17 G90 G94
G54
G0 X132.445 Y42.501
Z15
G1 Z5 F200
Z0.2
Z-0.775
Y42.496
Y42.324
G2 X132.126 Y42.005 I-0.319 J0
G1 X4.874
G2 X4.555 Y42.324 I0 J0.319
G1 X4.548 Y42.379
X4.526 Y42.429
X4.426 Y42.592
G3 X4.055 Y42.488 I-0.171 J-0.104
G1 Y41.824
G3 X4.374 Y41.505 I0.319 J0
G1 X132.626
G3 X132.945 Y41.824 I0 J0.319
G1 Y42.496
G2 X133.145 Y42.696 I0.2 J0
G1 X133.245
G2 X133.445 Y42.496 I0 J-0.2
G1 Y41.324
G2 X133.126 Y41.005 I-0.319 J0
G1 X3.874
G2 X3.555 Y41.324 I0 J0.319
G1 Y42.488
G3 X3.356 Y42.688 I-0.2 J0
G1 X3.251
G3 X3.05 Y42.488 I-0.001 J-0.2
G1 Y40.5
X133.95
Y42.1
Y42.491
G3 X133.752 Y42.691 I-0.2 J0
G1 X132.647 Y42.701
G3 X132.445 Y42.501 I-0.002 J-0.2
G1 Z-1.55
Y42.496
Y42.324
G2 X132.126 Y42.005 I-0.319 J0
G1 X4.874
G2 X4.555 Y42.324 I0 J0.319
G1 X4.548 Y42.379
X4.526 Y42.429
X4.426 Y42.592
G3 X4.055 Y42.488 I-0.171 J-0.104
G1 Y41.824
G3 X4.374 Y41.505 I0.319 J0
G1 X132.626
G3 X132.945 Y41.824 I0 J0.319
G1 Y42.496
G2 X133.145 Y42.696 I0.2 J0
G1 X133.245
G2 X133.445 Y42.496 I0 J-0.2
G1 Y41.324
G2 X133.126 Y41.005 I-0.319 J0
G1 X3.874
G2 X3.555 Y41.324 I0 J0.319
G1 Y42.488
G3 X3.356 Y42.688 I-0.2 J0
G1 X3.251
G3 X3.05 Y42.488 I-0.001 J-0.2
G1 Y40.5
X133.95
Y42.1
Y42.491
Z15
(When using Fusion for Personal Use, the feedrate of rapid)
(moves is reduced to match the feedrate of cutting moves,)
(which can increase machining time. Unrestricted rapid moves)
(are available with a Fusion Subscription.)

(2D Contour4)
G0 X1 Y42.6
G1 Z15 F200
Z5
Z0.2
Z-1.05
X136
X136.5
Y27.9
X133.4
Y15.2
X136
X136.5
Y0.5
X108.5
Y3.6
X82.5
Y1
Y0.5
X54.5
Y3.6
X28.5
Y1
Y0.5
X0.5
Y15.2
X3.6
Y27.9
X1
X0.5
Y42.6
X1
Z-2.1
X136.5
Y27.9
X133.4
Y22.561
Z-1.1
Y20.561
Z-2.1
Y15.2
X136.5
Y0.5
X108.5
Y3.6
X96.138
Z-1.1
X94.138
Z-2.1
X82.5
Y0.5
X54.5
Y3.6
X41.951
Z-1.1
X39.951
Z-2.1
X28.5
Y0.5
X0.5
Y15.2
X3.6
Y19.862
Z-1.1
Y21.862
Z-2.1
Y27.9
X0.5
Y42.6
X1
Z-3.1
X136.5
Y27.9
X133.4
Y22.561
Z-1.1
Y20.561
Z-3.1
Y15.2
X136.5
Y0.5
X108.5
Y3.6
X96.138
Z-1.1
X94.138
Z-3.1
X82.5
Y0.5
X54.5
Y3.6
X41.951
Z-1.1
X39.951
Z-3.1
X28.5
Y0.5
X0.5
Y15.2
X3.6
Y19.862
Z-1.1
Y21.862
Z-3.1
Y27.9
X0.5
Y42.6
X1
Z15

G28 G91 Z0
G90
G28 G91 X0 Y0
G90
M5
M30
